mpv/000-color.cube
TITLE "Custom Controlled LUT"
LUT_3D_SIZE 6
0.0000 0.0000 1.0000
0.0000 0.0000 1.0000
0.0000 0.0000 1.0000
0.6000 0.0000 0.0000
0.8000 0.0000 0.0000
1.0000 0.0000 0.0000
0.0000 0.2000 0.0000
0.2000 0.2000 0.0000
0.4000 0.2000 0.0000
0.6000 0.2000 0.0000
0.8000 0.2000 0.0000
1.0000 0.2000 0.0000
0.0000 0.4000 0.0000
0.2000 0.4000 0.0000
0.4000 0.4000 0.0000
0.6000 0.4000 0.0000
1.0000 0.0000 0.0000
1.0000 0.0000 0.0000
0.0000 0.6000 0.0000
1.0000 0.0000 0.0000
1.0000 0.0000 0.0000
0.6000 0.6000 0.0000
0.8000 0.6000 0.0000
1.0000 0.6000 0.0000
0.0000 0.8000 0.0000
0.2000 0.8000 0.0000
0.4000 0.8000 0.0000
0.6000 0.8000 0.0000
0.8000 0.8000 0.0000
1.0000 0.8000 0.0000
0.0000 1.0000 0.0000
0.2000 1.0000 0.0000
0.4000 1.0000 0.0000
0.6000 1.0000 0.0000
0.8000 1.0000 0.0000
0.0000 1.0000 0.0000
0.0000 0.0000 1.0000
0.0000 0.0000 1.0000
0.0000 0.0000 1.0000
0.6000 0.0000 0.2000
0.8000 0.0000 0.2000
1.0000 0.0000 0.2000
0.0000 0.2000 0.2000
0.2000 0.2000 0.2000
0.4000 0.2000 0.2000
0.6000 0.2000 0.2000
0.8000 0.2000 0.2000
1.0000 0.2000 0.2000
0.0000 0.4000 0.2000
0.2000 0.4000 0.2000
0.4000 0.4000 0.2000
0.6000 0.4000 0.2000
1.0000 0.0000 0.0000
1.0000 0.0000 0.0000
0.0000 0.6000 0.2000
1.0000 0.0000 0.0000
1.0000 0.0000 0.0000
0.6000 0.6000 0.2000
0.8000 0.6000 0.2000
1.0000 0.6000 0.2000
0.0000 0.8000 0.2000
0.2000 0.8000 0.2000
0.4000 0.8000 0.2000
0.6000 0.8000 0.2000
0.8000 0.8000 0.2000
1.0000 0.8000 0.2000
0.0000 1.0000 0.2000
0.2000 1.0000 0.2000
0.4000 1.0000 0.2000
0.6000 1.0000 0.2000
0.8000 1.0000 0.2000
0.0000 1.0000 0.0000
0.0000 0.0000 1.0000
0.0000 0.0000 1.0000
0.4000 0.0000 0.4000
0.6000 0.0000 0.4000
0.8000 0.0000 0.4000
1.0000 0.0000 0.4000
0.0000 0.2000 0.4000
0.2000 0.2000 0.4000
0.4000 0.2000 0.4000
0.6000 0.2000 0.4000
0.8000 0.2000 0.4000
1.0000 0.2000 0.4000
0.0000 0.4000 0.4000
0.2000 0.4000 0.4000
0.4000 0.4000 0.4000
0.6000 0.4000 0.4000
1.0000 0.0000 0.0000
1.0000 0.0000 0.0000
1.0000 0.0000 0.0000
1.0000 0.0000 0.0000
1.0000 0.0000 0.0000
0.6000 0.6000 0.4000
0.8000 0.6000 0.4000
1.0000 0.6000 0.4000
0.0000 0.8000 0.4000
0.2000 0.8000 0.4000
0.4000 0.8000 0.4000
0.6000 0.8000 0.4000
0.8000 0.8000 0.4000
1.0000 0.8000 0.4000
0.0000 1.0000 0.4000
0.2000 1.0000 0.4000
0.4000 1.0000 0.4000
0.6000 1.0000 0.4000
0.0000 1.0000 0.0000
0.0000 1.0000 0.0000
0.0000 0.0000 1.0000
0.0000 0.0000 1.0000
0.4000 0.0000 0.6000
0.6000 0.0000 0.6000
0.8000 0.0000 0.6000
1.0000 0.0000 0.6000
0.0000 0.2000 0.6000
0.2000 0.2000 0.6000
0.4000 0.2000 0.6000
0.6000 0.2000 0.6000
0.8000 0.2000 0.6000
1.0000 0.2000 0.6000
0.0000 0.4000 0.6000
0.2000 0.4000 0.6000
0.4000 0.4000 0.6000
1.0000 0.0000 0.0000
1.0000 0.0000 0.0000
1.0000 0.0000 0.0000
1.0000 0.0000 0.0000
1.0000 0.0000 0.0000
0.4000 0.6000 0.6000
0.6000 0.6000 0.6000
0.8000 0.6000 0.6000
1.0000 0.6000 0.6000
0.0000 0.8000 0.6000
0.2000 0.8000 0.6000
0.4000 0.8000 0.6000
0.6000 0.8000 0.6000
0.8000 0.8000 0.6000
1.0000 0.8000 0.6000
0.0000 1.0000 0.6000
0.2000 1.0000 0.6000
0.4000 1.0000 0.6000
0.6000 1.0000 0.6000
0.0000 1.0000 0.0000
0.0000 1.0000 0.0000
0.0000 0.0000 1.0000
0.2000 0.0000 0.8000
0.4000 0.0000 0.8000
0.6000 0.0000 0.8000
0.8000 0.0000 0.8000
1.0000 0.0000 0.8000
0.0000 0.2000 0.8000
0.2000 0.2000 0.8000
0.4000 0.2000 0.8000
0.6000 0.2000 0.8000
0.8000 0.2000 0.8000
1.0000 0.2000 0.8000
0.0000 0.4000 0.8000
0.2000 0.4000 0.8000
0.4000 0.4000 0.8000
1.0000 0.0000 0.0000
1.0000 0.0000 0.0000
1.0000 0.4000 0.8000
1.0000 0.0000 0.0000
1.0000 0.0000 0.0000
0.4000 0.6000 0.8000
0.6000 0.6000 0.8000
0.8000 0.6000 0.8000
1.0000 0.6000 0.8000
0.0000 0.8000 0.8000
0.2000 0.8000 0.8000
0.4000 0.8000 0.8000
0.6000 0.8000 0.8000
0.8000 0.8000 0.8000
1.0000 0.8000 0.8000
0.0000 1.0000 0.8000
0.2000 1.0000 0.8000
0.4000 1.0000 0.8000
0.0000 1.0000 0.0000
0.0000 1.0000 0.0000
0.0000 1.0000 0.0000
0.0000 0.0000 1.0000
0.2000 0.0000 1.0000
0.4000 0.0000 1.0000
0.6000 0.0000 1.0000
0.8000 0.0000 1.0000
1.0000 0.0000 1.0000
0.0000 0.2000 1.0000
0.2000 0.2000 1.0000
0.4000 0.2000 1.0000
0.6000 0.2000 1.0000
0.8000 0.2000 1.0000
1.0000 0.2000 1.0000
0.0000 0.4000 1.0000
0.2000 0.4000 1.0000
0.4000 0.4000 1.0000
1.0000 0.0000 0.0000
1.0000 0.0000 0.0000
1.0000 0.4000 1.0000
1.0000 0.0000 0.0000
1.0000 0.0000 0.0000
0.4000 0.6000 1.0000
0.6000 0.6000 1.0000
0.8000 0.6000 1.0000
1.0000 0.6000 1.0000
0.0000 0.8000 1.0000
0.2000 0.8000 1.0000
0.4000 0.8000 1.0000
0.6000 0.8000 1.0000
0.8000 0.8000 1.0000
1.0000 0.8000 1.0000
0.0000 1.0000 1.0000
0.2000 1.0000 1.0000
0.4000 1.0000 1.0000
0.0000 1.0000 0.0000
0.0000 1.0000 0.0000
0.0000 1.0000 0.0000
