mpv/090-color-v2.cube
TITLE "16x16x16 custom LUT (strength & grayscale)"
LUT_3D_SIZE 16
DOMAIN_MIN 0.0 0.0 0.0
DOMAIN_MAX 1.0 1.0 1.0
0.7500 0.3750 0.0000
0.3750 0.7500 0.0000
0.7500 0.3750 0.0000
0.3750 0.7500 0.0000
0.7500 0.3750 0.0000
0.3333 0.0000 0.0000
0.4000 0.0000 0.0000
0.4667 0.0000 0.0000
0.5333 0.0000 0.0000
0.6000 0.0000 0.0000
0.6667 0.0000 0.0000
0.7333 0.0000 0.0000
0.8000 0.0000 0.0000
0.8667 0.0000 0.0000
0.9333 0.0000 0.0000
1.0000 0.0000 0.0000
0.3750 0.7500 0.0000
0.7500 0.3750 0.0000
0.3750 0.7500 0.0000
0.7500 0.3750 0.0000
0.2667 0.0667 0.0000
0.3333 0.0667 0.0000
0.4000 0.0667 0.0000
0.4667 0.0667 0.0000
0.5333 0.0667 0.0000
0.6000 0.0667 0.0000
0.6667 0.0667 0.0000
0.7333 0.0667 0.0000
0.8000 0.0667 0.0000
0.8667 0.0667 0.0000
0.9333 0.0667 0.0000
1.0000 0.0667 0.0000
0.3750 0.7500 0.0000
0.7500 0.3750 0.0000
0.3750 0.7500 0.0000
0.2000 0.1333 0.0000
0.2667 0.1333 0.0000
0.3333 0.1333 0.0000
0.4000 0.1333 0.0000
0.4667 0.1333 0.0000
0.5333 0.1333 0.0000
0.6000 0.1333 0.0000
0.6667 0.1333 0.0000
0.7333 0.1333 0.0000
0.8000 0.1333 0.0000
0.8667 0.1333 0.0000
0.9333 0.1333 0.0000
1.0000 0.1333 0.0000
0.7500 0.3750 0.0000
0.3750 0.7500 0.0000
0.1333 0.2000 0.0000
0.2000 0.2000 0.0000
0.2667 0.2000 0.0000
0.3333 0.2000 0.0000
0.4000 0.2000 0.0000
0.4667 0.2000 0.0000
0.5333 0.2000 0.0000
0.6000 0.2000 0.0000
0.6667 0.2000 0.0000
0.7333 0.2000 0.0000
0.8000 0.2000 0.0000
0.8667 0.2000 0.0000
0.9333 0.2000 0.0000
1.0000 0.2000 0.0000
0.7500 0.3750 0.0000
0.0667 0.2667 0.0000
0.1333 0.2667 0.0000
0.2000 0.2667 0.0000
0.2667 0.2667 0.0000
0.3333 0.2667 0.0000
0.4000 0.2667 0.0000
0.4667 0.2667 0.0000
0.5333 0.2667 0.0000
0.6000 0.2667 0.0000
0.6667 0.2667 0.0000
0.7333 0.2667 0.0000
0.8000 0.2667 0.0000
0.8667 0.2667 0.0000
0.9333 0.2667 0.0000
1.0000 0.2667 0.0000
0.0000 0.3333 0.0000
0.0667 0.3333 0.0000
0.1333 0.3333 0.0000
0.2000 0.3333 0.0000
0.2667 0.3333 0.0000
0.3333 0.3333 0.0000
0.4000 0.3333 0.0000
0.4667 0.3333 0.0000
0.5333 0.3333 0.0000
0.6000 0.3333 0.0000
0.6667 0.3333 0.0000
0.7333 0.3333 0.0000
0.8000 0.3333 0.0000
0.8667 0.3333 0.0000
0.9333 0.3333 0.0000
1.0000 0.3333 0.0000
0.0000 0.4000 0.0000
0.0667 0.4000 0.0000
0.1333 0.4000 0.0000
0.2000 0.4000 0.0000
0.2667 0.4000 0.0000
0.3333 0.4000 0.0000
0.4000 0.4000 0.0000
0.4667 0.4000 0.0000
0.5333 0.4000 0.0000
0.6000 0.4000 0.0000
0.6667 0.4000 0.0000
0.7333 0.4000 0.0000
0.8000 0.4000 0.0000
0.8667 0.4000 0.0000
0.9333 0.4000 0.0000
0.0000 0.7500 0.0000
0.0000 0.4667 0.0000
0.0667 0.4667 0.0000
0.1333 0.4667 0.0000
0.2000 0.4667 0.0000
0.2667 0.4667 0.0000
0.3333 0.4667 0.0000
0.4000 0.4667 0.0000
0.4667 0.4667 0.0000
0.5333 0.4667 0.0000
0.6000 0.4667 0.0000
0.6667 0.4667 0.0000
0.7333 0.4667 0.0000
0.8000 0.4667 0.0000
0.8667 0.4667 0.0000
0.0000 0.7500 0.3750
0.0000 0.3750 0.7500
0.0000 0.5333 0.0000
0.0667 0.5333 0.0000
0.1333 0.5333 0.0000
0.2000 0.5333 0.0000
0.2667 0.5333 0.0000
0.3333 0.5333 0.0000
0.4000 0.5333 0.0000
0.4667 0.5333 0.0000
0.5333 0.5333 0.0000
0.6000 0.5333 0.0000
0.6667 0.5333 0.0000
0.7333 0.5333 0.0000
0.8000 0.5333 0.0000
0.0000 0.7500 0.0000
0.0000 0.7500 0.3750
0.0000 0.3750 0.7500
0.0000 0.6000 0.0000
0.0667 0.6000 0.0000
0.1333 0.6000 0.0000
0.2000 0.6000 0.0000
0.2667 0.6000 0.0000
0.3333 0.6000 0.0000
0.4000 0.6000 0.0000
0.4667 0.6000 0.0000
0.5333 0.6000 0.0000
0.6000 0.6000 0.0000
0.6667 0.6000 0.0000
0.7333 0.6000 0.0000
0.0000 0.7500 0.0000
0.0000 0.7500 0.3750
0.0000 0.3750 0.7500
0.0000 0.7500 0.0000
0.0000 0.6667 0.0000
0.0667 0.6667 0.0000
0.1333 0.6667 0.0000
0.2000 0.6667 0.0000
0.2667 0.6667 0.0000
0.3333 0.6667 0.0000
0.4000 0.6667 0.0000
0.4667 0.6667 0.0000
0.5333 0.6667 0.0000
0.6000 0.6667 0.0000
0.6667 0.6667 0.0000
0.0000 0.7500 0.3750
0.0000 0.3750 0.7500
0.0000 0.7500 0.0000
0.0000 0.7500 0.3750
1.0000 0.6667 0.0000
0.0000 0.7333 0.0000
0.0667 0.7333 0.0000
0.1333 0.7333 0.0000
0.2000 0.7333 0.0000
0.2667 0.7333 0.0000
0.3333 0.7333 0.0000
0.4000 0.7333 0.0000
0.4667 0.7333 0.0000
0.5333 0.7333 0.0000
0.6000 0.7333 0.0000
0.0000 0.3750 0.7500
0.0000 0.7500 0.0000
0.0000 0.7500 0.3750
0.0000 0.3750 0.7500
0.9333 0.7333 0.0000
1.0000 0.7333 0.0000
0.0000 0.8000 0.0000
0.0667 0.8000 0.0000
0.1333 0.8000 0.0000
0.2000 0.8000 0.0000
0.2667 0.8000 0.0000
0.3333 0.8000 0.0000
0.4000 0.8000 0.0000
0.4667 0.8000 0.0000
0.5333 0.8000 0.0000
0.0000 0.7500 0.0000
0.0000 0.7500 0.3750
0.0000 0.3750 0.7500
0.0000 0.7500 0.0000
0.8667 0.8000 0.0000
0.9333 0.8000 0.0000
1.0000 0.8000 0.0000
0.0000 0.8667 0.0000
0.0667 0.8667 0.0000
0.1333 0.8667 0.0000
0.2000 0.8667 0.0000
0.2667 0.8667 0.0000
0.3333 0.8667 0.0000
0.4000 0.8667 0.0000
0.4667 0.8667 0.0000
0.0000 0.7500 0.3750
0.0000 0.3750 0.7500
0.0000 0.7500 0.0000
0.0000 0.7500 0.3750
0.8000 0.8667 0.0000
0.8667 0.8667 0.0000
0.9333 0.8667 0.0000
1.0000 0.8667 0.0000
0.0000 0.9333 0.0000
0.0667 0.9333 0.0000
0.1333 0.9333 0.0000
0.2000 0.9333 0.0000
0.2667 0.9333 0.0000
0.3333 0.9333 0.0000
0.4000 0.9333 0.0000
0.0000 0.3750 0.7500
0.0000 0.7500 0.0000
0.0000 0.7500 0.3750
0.0000 0.3750 0.7500
0.7333 0.9333 0.0000
0.8000 0.9333 0.0000
0.8667 0.9333 0.0000
0.9333 0.9333 0.0000
1.0000 0.9333 0.0000
0.0000 1.0000 0.0000
0.0667 1.0000 0.0000
0.1333 1.0000 0.0000
0.2000 1.0000 0.0000
0.2667 1.0000 0.0000
0.3333 1.0000 0.0000
0.0000 0.7500 0.0000
0.0000 0.7500 0.3750
0.0000 0.3750 0.7500
0.0000 0.7500 0.0000
0.6667 1.0000 0.0000
0.7333 1.0000 0.0000
0.8000 1.0000 0.0000
0.8667 1.0000 0.0000
0.9333 1.0000 0.0000
1.0000 1.0000 0.0000
0.3750 0.7500 0.0000
0.7500 0.3750 0.0000
0.3750 0.7500 0.0000
0.7500 0.3750 0.0000
0.2667 0.0000 0.0667
0.3333 0.0000 0.0667
0.4000 0.0000 0.0667
0.4667 0.0000 0.0667
0.5333 0.0000 0.0667
0.6000 0.0000 0.0667
0.6667 0.0000 0.0667
0.7333 0.0000 0.0667
0.8000 0.0000 0.0667
0.8667 0.0000 0.0667
0.9333 0.0000 0.0667
1.0000 0.0000 0.0667
0.3750 0.7500 0.0000
0.7500 0.3750 0.0000
0.3750 0.7500 0.0000
0.2000 0.0667 0.0667
0.2667 0.0667 0.0667
0.3333 0.0667 0.0667
0.4000 0.0667 0.0667
0.4667 0.0667 0.0667
0.5333 0.0667 0.0667
0.6000 0.0667 0.0667
0.6667 0.0667 0.0667
0.7333 0.0667 0.0667
0.8000 0.0667 0.0667
0.8667 0.0667 0.0667
0.9333 0.0667 0.0667
1.0000 0.0667 0.0667
0.7500 0.3750 0.0000
0.3750 0.7500 0.0000
0.1333 0.1333 0.0667
0.2000 0.1333 0.0667
0.2667 0.1333 0.0667
0.3333 0.1333 0.0667
0.4000 0.1333 0.0667
0.4667 0.1333 0.0667
0.5333 0.1333 0.0667
0.6000 0.1333 0.0667
0.6667 0.1333 0.0667
0.7333 0.1333 0.0667
0.8000 0.1333 0.0667
0.8667 0.1333 0.0667
0.9333 0.1333 0.0667
1.0000 0.1333 0.0667
0.7500 0.3750 0.0000
0.0667 0.2000 0.0667
0.1333 0.2000 0.0667
0.2000 0.2000 0.0667
0.2667 0.2000 0.0667
0.3333 0.2000 0.0667
0.4000 0.2000 0.0667
0.4667 0.2000 0.0667
0.5333 0.2000 0.0667
0.6000 0.2000 0.0667
0.6667 0.2000 0.0667
0.7333 0.2000 0.0667
0.8000 0.2000 0.0667
0.8667 0.2000 0.0667
0.9333 0.2000 0.0667
1.0000 0.2000 0.0667
0.0000 0.2667 0.0667
0.0667 0.2667 0.0667
0.1333 0.2667 0.0667
0.2000 0.2667 0.0667
0.2667 0.2667 0.0667
0.3333 0.2667 0.0667
0.4000 0.2667 0.0667
0.4667 0.2667 0.0667
0.5333 0.2667 0.0667
0.6000 0.2667 0.0667
0.6667 0.2667 0.0667
0.7333 0.2667 0.0667
0.8000 0.2667 0.0667
0.8667 0.2667 0.0667
0.9333 0.2667 0.0667
1.0000 0.2667 0.0667
0.0000 0.3333 0.0667
0.0667 0.3333 0.0667
0.1333 0.3333 0.0667
0.2000 0.3333 0.0667
0.2667 0.3333 0.0667
0.3333 0.3333 0.0667
0.4000 0.3333 0.0667
0.4667 0.3333 0.0667
0.5333 0.3333 0.0667
0.6000 0.3333 0.0667
0.6667 0.3333 0.0667
0.7333 0.3333 0.0667
0.8000 0.3333 0.0667
0.8667 0.3333 0.0667
0.9333 0.3333 0.0667
0.0000 0.7500 0.3750
0.0000 0.4000 0.0667
0.0667 0.4000 0.0667
0.1333 0.4000 0.0667
0.2000 0.4000 0.0667
0.2667 0.4000 0.0667
0.3333 0.4000 0.0667
0.4000 0.4000 0.0667
0.4667 0.4000 0.0667
0.5333 0.4000 0.0667
0.6000 0.4000 0.0667
0.6667 0.4000 0.0667
0.7333 0.4000 0.0667
0.8000 0.4000 0.0667
0.8667 0.4000 0.0667
0.0000 0.3750 0.7500
0.0000 0.7500 0.0000
0.0000 0.4667 0.0667
0.0667 0.4667 0.0667
0.1333 0.4667 0.0667
0.2000 0.4667 0.0667
0.2667 0.4667 0.0667
0.3333 0.4667 0.0667
0.4000 0.4667 0.0667
0.4667 0.4667 0.0667
0.5333 0.4667 0.0667
0.6000 0.4667 0.0667
0.6667 0.4667 0.0667
0.7333 0.4667 0.0667
0.8000 0.4667 0.0667
0.0000 0.7500 0.3750
0.0000 0.3750 0.7500
0.0000 0.7500 0.0000
0.0000 0.5333 0.0667
0.0667 0.5333 0.0667
0.1333 0.5333 0.0667
0.2000 0.5333 0.0667
0.2667 0.5333 0.0667
0.3333 0.5333 0.0667
0.4000 0.5333 0.0667
0.4667 0.5333 0.0667
0.5333 0.5333 0.0667
0.6000 0.5333 0.0667
0.6667 0.5333 0.0667
0.7333 0.5333 0.0667
0.0000 0.7500 0.3750
0.0000 0.3750 0.7500
0.0000 0.7500 0.0000
0.0000 0.7500 0.3750
0.0000 0.6000 0.0667
0.0667 0.6000 0.0667
0.1333 0.6000 0.0667
0.2000 0.6000 0.0667
0.2667 0.6000 0.0667
0.3333 0.6000 0.0667
0.4000 0.6000 0.0667
0.4667 0.6000 0.0667
0.5333 0.6000 0.0667
0.6000 0.6000 0.0667
0.6667 0.6000 0.0667
0.0000 0.3750 0.7500
0.0000 0.7500 0.0000
0.0000 0.7500 0.3750
0.0000 0.3750 0.7500
1.0000 0.6000 0.0667
0.0000 0.6667 0.0667
0.0667 0.6667 0.0667
0.1333 0.6667 0.0667
0.2000 0.6667 0.0667
0.2667 0.6667 0.0667
0.3333 0.6667 0.0667
0.4000 0.6667 0.0667
0.4667 0.6667 0.0667
0.5333 0.6667 0.0667
0.6000 0.6667 0.0667
0.0000 0.7500 0.0000
0.0000 0.7500 0.3750
0.0000 0.3750 0.7500
0.0000 0.7500 0.0000
0.9333 0.6667 0.0667
1.0000 0.6667 0.0667
0.0000 0.7333 0.0667
0.0667 0.7333 0.0667
0.1333 0.7333 0.0667
0.2000 0.7333 0.0667
0.2667 0.7333 0.0667
0.3333 0.7333 0.0667
0.4000 0.7333 0.0667
0.4667 0.7333 0.0667
0.5333 0.7333 0.0667
0.0000 0.7500 0.3750
0.0000 0.3750 0.7500
0.0000 0.7500 0.0000
0.0000 0.7500 0.3750
0.8667 0.7333 0.0667
0.9333 0.7333 0.0667
1.0000 0.7333 0.0667
0.0000 0.8000 0.0667
0.0667 0.8000 0.0667
0.1333 0.8000 0.0667
0.2000 0.8000 0.0667
0.2667 0.8000 0.0667
0.3333 0.8000 0.0667
0.4000 0.8000 0.0667
0.4667 0.8000 0.0667
0.0000 0.3750 0.7500
0.0000 0.7500 0.0000
0.0000 0.7500 0.3750
0.0000 0.3750 0.7500
0.8000 0.8000 0.0667
0.8667 0.8000 0.0667
0.9333 0.8000 0.0667
1.0000 0.8000 0.0667
0.0000 0.8667 0.0667
0.0667 0.8667 0.0667
0.1333 0.8667 0.0667
0.2000 0.8667 0.0667
0.2667 0.8667 0.0667
0.3333 0.8667 0.0667
0.4000 0.8667 0.0667
0.0000 0.7500 0.0000
0.0000 0.7500 0.3750
0.0000 0.3750 0.7500
0.0000 0.7500 0.0000
0.7333 0.8667 0.0667
0.8000 0.8667 0.0667
0.8667 0.8667 0.0667
0.9333 0.8667 0.0667
1.0000 0.8667 0.0667
0.0000 0.9333 0.0667
0.0667 0.9333 0.0667
0.1333 0.9333 0.0667
0.2000 0.9333 0.0667
0.2667 0.9333 0.0667
0.3333 0.9333 0.0667
0.0000 0.7500 0.3750
0.0000 0.3750 0.7500
0.0000 0.7500 0.0000
0.0000 0.7500 0.3750
0.6667 0.9333 0.0667
0.7333 0.9333 0.0667
0.8000 0.9333 0.0667
0.8667 0.9333 0.0667
0.9333 0.9333 0.0667
1.0000 0.9333 0.0667
0.0000 1.0000 0.0667
0.0667 1.0000 0.0667
0.1333 1.0000 0.0667
0.2000 1.0000 0.0667
0.2667 1.0000 0.0667
0.0000 0.3750 0.7500
0.0000 0.7500 0.0000
0.0000 0.7500 0.3750
0.0000 0.3750 0.7500
0.6000 1.0000 0.0667
0.6667 1.0000 0.0667
0.7333 1.0000 0.0667
0.8000 1.0000 0.0667
0.8667 1.0000 0.0667
0.9333 1.0000 0.0667
1.0000 1.0000 0.0667
0.3750 0.7500 0.0000
0.7500 0.3750 0.0000
0.3750 0.7500 0.0000
0.2000 0.0000 0.1333
0.2667 0.0000 0.1333
0.3333 0.0000 0.1333
0.4000 0.0000 0.1333
0.4667 0.0000 0.1333
0.5333 0.0000 0.1333
0.6000 0.0000 0.1333
0.6667 0.0000 0.1333
0.7333 0.0000 0.1333
0.8000 0.0000 0.1333
0.8667 0.0000 0.1333
0.9333 0.0000 0.1333
1.0000 0.0000 0.1333
0.7500 0.3750 0.0000
0.3750 0.7500 0.0000
0.1333 0.0667 0.1333
0.2000 0.0667 0.1333
0.2667 0.0667 0.1333
0.3333 0.0667 0.1333
0.4000 0.0667 0.1333
0.4667 0.0667 0.1333
0.5333 0.0667 0.1333
0.6000 0.0667 0.1333
0.6667 0.0667 0.1333
0.7333 0.0667 0.1333
0.8000 0.0667 0.1333
0.8667 0.0667 0.1333
0.9333 0.0667 0.1333
1.0000 0.0667 0.1333
0.7500 0.3750 0.0000
0.0667 0.1333 0.1333
0.1333 0.1333 0.1333
0.2000 0.1333 0.1333
0.2667 0.1333 0.1333
0.3333 0.1333 0.1333
0.4000 0.1333 0.1333
0.4667 0.1333 0.1333
0.5333 0.1333 0.1333
0.6000 0.1333 0.1333
0.6667 0.1333 0.1333
0.7333 0.1333 0.1333
0.8000 0.1333 0.1333
0.8667 0.1333 0.1333
0.9333 0.1333 0.1333
1.0000 0.1333 0.1333
0.0000 0.2000 0.1333
0.0667 0.2000 0.1333
0.1333 0.2000 0.1333
0.2000 0.2000 0.1333
0.2667 0.2000 0.1333
0.3333 0.2000 0.1333
0.4000 0.2000 0.1333
0.4667 0.2000 0.1333
0.5333 0.2000 0.1333
0.6000 0.2000 0.1333
0.6667 0.2000 0.1333
0.7333 0.2000 0.1333
0.8000 0.2000 0.1333
0.8667 0.2000 0.1333
0.9333 0.2000 0.1333
1.0000 0.2000 0.1333
0.0000 0.2667 0.1333
0.0667 0.2667 0.1333
0.1333 0.2667 0.1333
0.2000 0.2667 0.1333
0.2667 0.2667 0.1333
0.3333 0.2667 0.1333
0.4000 0.2667 0.1333
0.4667 0.2667 0.1333
0.5333 0.2667 0.1333
0.6000 0.2667 0.1333
0.6667 0.2667 0.1333
0.7333 0.2667 0.1333
0.8000 0.2667 0.1333
0.8667 0.2667 0.1333
0.9333 0.2667 0.1333
0.0000 0.7500 0.0000
0.0000 0.3333 0.1333
0.0667 0.3333 0.1333
0.1333 0.3333 0.1333
0.2000 0.3333 0.1333
0.2667 0.3333 0.1333
0.3333 0.3333 0.1333
0.4000 0.3333 0.1333
0.4667 0.3333 0.1333
0.5333 0.3333 0.1333
0.6000 0.3333 0.1333
0.6667 0.3333 0.1333
0.7333 0.3333 0.1333
0.8000 0.3333 0.1333
0.8667 0.3333 0.1333
0.0000 0.7500 0.3750
0.0000 0.3750 0.7500
0.0000 0.4000 0.1333
0.0667 0.4000 0.1333
0.1333 0.4000 0.1333
0.2000 0.4000 0.1333
0.2667 0.4000 0.1333
0.3333 0.4000 0.1333
0.4000 0.4000 0.1333
0.4667 0.4000 0.1333
0.5333 0.4000 0.1333
0.6000 0.4000 0.1333
0.6667 0.4000 0.1333
0.7333 0.4000 0.1333
0.8000 0.4000 0.1333
0.0000 0.7500 0.0000
0.0000 0.7500 0.3750
0.0000 0.3750 0.7500
0.0000 0.4667 0.1333
0.0667 0.4667 0.1333
0.1333 0.4667 0.1333
0.2000 0.4667 0.1333
0.2667 0.4667 0.1333
0.3333 0.4667 0.1333
0.4000 0.4667 0.1333
0.4667 0.4667 0.1333
0.5333 0.4667 0.1333
0.6000 0.4667 0.1333
0.6667 0.4667 0.1333
0.7333 0.4667 0.1333
0.0000 0.7500 0.0000
0.0000 0.7500 0.3750
0.0000 0.3750 0.7500
0.0000 0.7500 0.0000
0.0000 0.5333 0.1333
0.0667 0.5333 0.1333
0.1333 0.5333 0.1333
0.2000 0.5333 0.1333
0.2667 0.5333 0.1333
0.3333 0.5333 0.1333
0.4000 0.5333 0.1333
0.4667 0.5333 0.1333
0.5333 0.5333 0.1333
0.6000 0.5333 0.1333
0.6667 0.5333 0.1333
0.0000 0.7500 0.3750
0.0000 0.3750 0.7500
0.0000 0.7500 0.0000
0.0000 0.7500 0.3750
1.0000 0.5333 0.1333
0.0000 0.6000 0.1333
0.0667 0.6000 0.1333
0.1333 0.6000 0.1333
0.2000 0.6000 0.1333
0.2667 0.6000 0.1333
0.3333 0.6000 0.1333
0.4000 0.6000 0.1333
0.4667 0.6000 0.1333
0.5333 0.6000 0.1333
0.6000 0.6000 0.1333
0.0000 0.3750 0.7500
0.0000 0.7500 0.0000
0.0000 0.7500 0.3750
0.0000 0.3750 0.7500
0.9333 0.6000 0.1333
1.0000 0.6000 0.1333
0.0000 0.6667 0.1333
0.0667 0.6667 0.1333
0.1333 0.6667 0.1333
0.2000 0.6667 0.1333
0.2667 0.6667 0.1333
0.3333 0.6667 0.1333
0.4000 0.6667 0.1333
0.4667 0.6667 0.1333
0.5333 0.6667 0.1333
0.0000 0.7500 0.0000
0.0000 0.7500 0.3750
0.0000 0.3750 0.7500
0.0000 0.7500 0.0000
0.8667 0.6667 0.1333
0.9333 0.6667 0.1333
1.0000 0.6667 0.1333
0.0000 0.7333 0.1333
0.0667 0.7333 0.1333
0.1333 0.7333 0.1333
0.2000 0.7333 0.1333
0.2667 0.7333 0.1333
0.3333 0.7333 0.1333
0.4000 0.7333 0.1333
0.4667 0.7333 0.1333
0.0000 0.7500 0.3750
0.0000 0.3750 0.7500
0.0000 0.7500 0.0000
0.0000 0.7500 0.3750
0.8000 0.7333 0.1333
0.8667 0.7333 0.1333
0.9333 0.7333 0.1333
1.0000 0.7333 0.1333
0.0000 0.8000 0.1333
0.0667 0.8000 0.1333
0.1333 0.8000 0.1333
0.2000 0.8000 0.1333
0.2667 0.8000 0.1333
0.3333 0.8000 0.1333
0.4000 0.8000 0.1333
0.0000 0.3750 0.7500
0.0000 0.7500 0.0000
0.0000 0.7500 0.3750
0.0000 0.3750 0.7500
0.7333 0.8000 0.1333
0.8000 0.8000 0.1333
0.8667 0.8000 0.1333
0.9333 0.8000 0.1333
1.0000 0.8000 0.1333
0.0000 0.8667 0.1333
0.0667 0.8667 0.1333
0.1333 0.8667 0.1333
0.2000 0.8667 0.1333
0.2667 0.8667 0.1333
0.3333 0.8667 0.1333
0.0000 0.7500 0.0000
0.0000 0.7500 0.3750
0.0000 0.3750 0.7500
0.0000 0.7500 0.0000
0.6667 0.8667 0.1333
0.7333 0.8667 0.1333
0.8000 0.8667 0.1333
0.8667 0.8667 0.1333
0.9333 0.8667 0.1333
1.0000 0.8667 0.1333
0.0000 0.9333 0.1333
0.0667 0.9333 0.1333
0.1333 0.9333 0.1333
0.2000 0.9333 0.1333
0.2667 0.9333 0.1333
0.0000 0.7500 0.3750
0.0000 0.3750 0.7500
0.0000 0.7500 0.0000
0.0000 0.7500 0.3750
0.6000 0.9333 0.1333
0.6667 0.9333 0.1333
0.7333 0.9333 0.1333
0.8000 0.9333 0.1333
0.8667 0.9333 0.1333
0.9333 0.9333 0.1333
1.0000 0.9333 0.1333
0.0000 1.0000 0.1333
0.0667 1.0000 0.1333
0.1333 1.0000 0.1333
0.2000 1.0000 0.1333
0.0000 0.3750 0.7500
0.0000 0.7500 0.0000
0.0000 0.7500 0.3750
0.0000 0.3750 0.7500
0.5333 1.0000 0.1333
0.6000 1.0000 0.1333
0.6667 1.0000 0.1333
0.7333 1.0000 0.1333
0.8000 1.0000 0.1333
0.8667 1.0000 0.1333
0.9333 1.0000 0.1333
1.0000 1.0000 0.1333
0.3750 0.7500 0.0000
0.7500 0.3750 0.0000
0.1333 0.0000 0.2000
0.2000 0.0000 0.2000
0.2667 0.0000 0.2000
0.3333 0.0000 0.2000
0.4000 0.0000 0.2000
0.4667 0.0000 0.2000
0.5333 0.0000 0.2000
0.6000 0.0000 0.2000
0.6667 0.0000 0.2000
0.7333 0.0000 0.2000
0.8000 0.0000 0.2000
0.8667 0.0000 0.2000
0.9333 0.0000 0.2000
1.0000 0.0000 0.2000
0.3750 0.7500 0.0000
0.0667 0.0667 0.2000
0.1333 0.0667 0.2000
0.2000 0.0667 0.2000
0.2667 0.0667 0.2000
0.3333 0.0667 0.2000
0.4000 0.0667 0.2000
0.4667 0.0667 0.2000
0.5333 0.0667 0.2000
0.6000 0.0667 0.2000
0.6667 0.0667 0.2000
0.7333 0.0667 0.2000
0.8000 0.0667 0.2000
0.8667 0.0667 0.2000
0.9333 0.0667 0.2000
1.0000 0.0667 0.2000
0.0000 0.1333 0.2000
0.0667 0.1333 0.2000
0.1333 0.1333 0.2000
0.2000 0.1333 0.2000
0.2667 0.1333 0.2000
0.3333 0.1333 0.2000
0.4000 0.1333 0.2000
0.4667 0.1333 0.2000
0.5333 0.1333 0.2000
0.6000 0.1333 0.2000
0.6667 0.1333 0.2000
0.7333 0.1333 0.2000
0.8000 0.1333 0.2000
0.8667 0.1333 0.2000
0.9333 0.1333 0.2000
1.0000 0.1333 0.2000
0.0000 0.2000 0.2000
0.0667 0.2000 0.2000
0.1333 0.2000 0.2000
0.2000 0.2000 0.2000
0.2667 0.2000 0.2000
0.3333 0.2000 0.2000
0.4000 0.2000 0.2000
0.4667 0.2000 0.2000
0.5333 0.2000 0.2000
0.6000 0.2000 0.2000
0.6667 0.2000 0.2000
0.7333 0.2000 0.2000
0.8000 0.2000 0.2000
0.8667 0.2000 0.2000
0.9333 0.2000 0.2000
0.0000 0.7500 0.0000
0.0000 0.2667 0.2000
0.0667 0.2667 0.2000
0.1333 0.2667 0.2000
0.2000 0.2667 0.2000
0.2667 0.2667 0.2000
0.3333 0.2667 0.2000
0.4000 0.2667 0.2000
0.4667 0.2667 0.2000
0.5333 0.2667 0.2000
0.6000 0.2667 0.2000
0.6667 0.2667 0.2000
0.7333 0.2667 0.2000
0.8000 0.2667 0.2000
0.8667 0.2667 0.2000
0.0000 0.7500 0.3750
0.0000 0.3750 0.7500
0.0000 0.3333 0.2000
0.0667 0.3333 0.2000
0.1333 0.3333 0.2000
0.2000 0.3333 0.2000
0.2667 0.3333 0.2000
0.3333 0.3333 0.2000
0.4000 0.3333 0.2000
0.4667 0.3333 0.2000
0.5333 0.3333 0.2000
0.6000 0.3333 0.2000
0.6667 0.3333 0.2000
0.7333 0.3333 0.2000
0.8000 0.3333 0.2000
0.0000 0.7500 0.0000
0.0000 0.7500 0.3750
0.0000 0.3750 0.7500
0.0000 0.4000 0.2000
0.0667 0.4000 0.2000
0.1333 0.4000 0.2000
0.2000 0.4000 0.2000
0.2667 0.4000 0.2000
0.3333 0.4000 0.2000
0.4000 0.4000 0.2000
0.4667 0.4000 0.2000
0.5333 0.4000 0.2000
0.6000 0.4000 0.2000
0.6667 0.4000 0.2000
0.7333 0.4000 0.2000
0.0000 0.7500 0.0000
0.0000 0.7500 0.3750
0.0000 0.3750 0.7500
0.0000 0.7500 0.0000
0.0000 0.4667 0.2000
0.0667 0.4667 0.2000
0.1333 0.4667 0.2000
0.2000 0.4667 0.2000
0.2667 0.4667 0.2000
0.3333 0.4667 0.2000
0.4000 0.4667 0.2000
0.4667 0.4667 0.2000
0.5333 0.4667 0.2000
0.6000 0.4667 0.2000
0.6667 0.4667 0.2000
0.0000 0.7500 0.3750
0.0000 0.3750 0.7500
0.0000 0.7500 0.0000
0.0000 0.7500 0.3750
1.0000 0.4667 0.2000
0.0000 0.5333 0.2000
0.0667 0.5333 0.2000
0.1333 0.5333 0.2000
0.2000 0.5333 0.2000
