mpv/090-gray.cube
TITLE "Custom Controlled LUT"
LUT_3D_SIZE 6
1.0000 0.0000 0.5000
1.0000 0.0000 0.5000
1.0000 0.0000 0.5000
0.1276 0.1276 0.1276
0.1701 0.1701 0.1701
0.2126 0.2126 0.2126
0.1430 0.1430 0.1430
0.1856 0.1856 0.1856
0.2281 0.2281 0.2281
0.2706 0.2706 0.2706
0.3131 0.3131 0.3131
0.3556 0.3556 0.3556
0.2861 0.2861 0.2861
0.3286 0.3286 0.3286
0.3711 0.3711 0.3711
0.4136 0.4136 0.4136
0.5000 1.0000 0.0000
0.5000 1.0000 0.0000
0.4291 0.4291 0.4291
0.5000 1.0000 0.0000
0.5000 1.0000 0.0000
0.5567 0.5567 0.5567
0.5992 0.5992 0.5992
0.6417 0.6417 0.6417
0.5722 0.5722 0.5722
0.6147 0.6147 0.6147
0.6572 0.6572 0.6572
0.6997 0.6997 0.6997
0.7422 0.7422 0.7422
0.7848 0.7848 0.7848
0.7152 0.7152 0.7152
0.7577 0.7577 0.7577
0.8002 0.8002 0.8002
0.8428 0.8428 0.8428
0.8853 0.8853 0.8853
0.0000 0.5000 1.0000
1.0000 0.0000 0.5000
1.0000 0.0000 0.5000
1.0000 0.0000 0.5000
0.1420 0.1420 0.1420
0.1845 0.1845 0.1845
0.2270 0.2270 0.2270
0.1575 0.1575 0.1575
0.2000 0.2000 0.2000
0.2425 0.2425 0.2425
0.2850 0.2850 0.2850
0.3276 0.3276 0.3276
0.3701 0.3701 0.3701
0.3005 0.3005 0.3005
0.3430 0.3430 0.3430
0.3856 0.3856 0.3856
0.4281 0.4281 0.4281
0.5000 1.0000 0.0000
0.5000 1.0000 0.0000
0.4436 0.4436 0.4436
0.5000 1.0000 0.0000
0.5000 1.0000 0.0000
0.5711 0.5711 0.5711
0.6136 0.6136 0.6136
0.6562 0.6562 0.6562
0.5866 0.5866 0.5866
0.6291 0.6291 0.6291
0.6716 0.6716 0.6716
0.7142 0.7142 0.7142
0.7567 0.7567 0.7567
0.7992 0.7992 0.7992
0.7296 0.7296 0.7296
0.7722 0.7722 0.7722
0.8147 0.8147 0.8147
0.8572 0.8572 0.8572
0.8997 0.8997 0.8997
0.0000 0.5000 1.0000
1.0000 0.0000 0.5000
1.0000 0.0000 0.5000
0.1139 0.1139 0.1139
0.1564 0.1564 0.1564
0.1990 0.1990 0.1990
0.2415 0.2415 0.2415
0.1719 0.1719 0.1719
0.2144 0.2144 0.2144
0.2570 0.2570 0.2570
0.2995 0.2995 0.2995
0.3420 0.3420 0.3420
0.3845 0.3845 0.3845
0.3150 0.3150 0.3150
0.3575 0.3575 0.3575
0.4000 0.4000 0.4000
0.4425 0.4425 0.4425
0.5000 1.0000 0.0000
0.5000 1.0000 0.0000
0.5000 1.0000 0.0000
0.5000 1.0000 0.0000
0.5000 1.0000 0.0000
0.5856 0.5856 0.5856
0.6281 0.6281 0.6281
0.6706 0.6706 0.6706
0.6010 0.6010 0.6010
0.6436 0.6436 0.6436
0.6861 0.6861 0.6861
0.7286 0.7286 0.7286
0.7711 0.7711 0.7711
0.8136 0.8136 0.8136
0.7441 0.7441 0.7441
0.7866 0.7866 0.7866
0.8291 0.8291 0.8291
0.8716 0.8716 0.8716
0.0000 0.5000 1.0000
0.0000 0.5000 1.0000
1.0000 0.0000 0.5000
1.0000 0.0000 0.5000
0.1284 0.1284 0.1284
0.1709 0.1709 0.1709
0.2134 0.2134 0.2134
0.2559 0.2559 0.2559
0.1864 0.1864 0.1864
0.2289 0.2289 0.2289
0.2714 0.2714 0.2714
0.3139 0.3139 0.3139
0.3564 0.3564 0.3564
0.3990 0.3990 0.3990
0.3294 0.3294 0.3294
0.3719 0.3719 0.3719
0.4144 0.4144 0.4144
0.5000 1.0000 0.0000
0.5000 1.0000 0.0000
0.5000 1.0000 0.0000
0.5000 1.0000 0.0000
0.5000 1.0000 0.0000
0.5575 0.5575 0.5575
0.6000 0.6000 0.6000
0.6425 0.6425 0.6425
0.6850 0.6850 0.6850
0.6155 0.6155 0.6155
0.6580 0.6580 0.6580
0.7005 0.7005 0.7005
0.7430 0.7430 0.7430
0.7856 0.7856 0.7856
0.8281 0.8281 0.8281
0.7585 0.7585 0.7585
0.8010 0.8010 0.8010
0.8436 0.8436 0.8436
0.8861 0.8861 0.8861
0.0000 0.5000 1.0000
0.0000 0.5000 1.0000
1.0000 0.0000 0.5000
0.1003 0.1003 0.1003
0.1428 0.1428 0.1428
0.1853 0.1853 0.1853
0.2278 0.2278 0.2278
0.2704 0.2704 0.2704
0.2008 0.2008 0.2008
0.2433 0.2433 0.2433
0.2858 0.2858 0.2858
0.3284 0.3284 0.3284
0.3709 0.3709 0.3709
0.4134 0.4134 0.4134
0.3438 0.3438 0.3438
0.3864 0.3864 0.3864
0.4289 0.4289 0.4289
0.5000 1.0000 0.0000
0.5000 1.0000 0.0000
0.5564 0.5564 0.5564
0.5000 1.0000 0.0000
0.5000 1.0000 0.0000
0.5719 0.5719 0.5719
0.6144 0.6144 0.6144
0.6570 0.6570 0.6570
0.6995 0.6995 0.6995
0.6299 0.6299 0.6299
0.6724 0.6724 0.6724
0.7150 0.7150 0.7150
0.7575 0.7575 0.7575
0.8000 0.8000 0.8000
0.8425 0.8425 0.8425
0.7730 0.7730 0.7730
0.8155 0.8155 0.8155
0.8580 0.8580 0.8580
0.0000 0.5000 1.0000
0.0000 0.5000 1.0000
0.0000 0.5000 1.0000
1.0000 0.0000 0.5000
0.1147 0.1147 0.1147
0.1572 0.1572 0.1572
0.1998 0.1998 0.1998
0.2423 0.2423 0.2423
0.2848 0.2848 0.2848
0.2152 0.2152 0.2152
0.2578 0.2578 0.2578
0.3003 0.3003 0.3003
0.3428 0.3428 0.3428
0.3853 0.3853 0.3853
0.4278 0.4278 0.4278
0.3583 0.3583 0.3583
0.4008 0.4008 0.4008
0.4433 0.4433 0.4433
0.5000 1.0000 0.0000
0.5000 1.0000 0.0000
0.5709 0.5709 0.5709
0.5000 1.0000 0.0000
0.5000 1.0000 0.0000
0.5864 0.5864 0.5864
0.6289 0.6289 0.6289
0.6714 0.6714 0.6714
0.7139 0.7139 0.7139
0.6444 0.6444 0.6444
0.6869 0.6869 0.6869
0.7294 0.7294 0.7294
0.7719 0.7719 0.7719
0.8144 0.8144 0.8144
0.8570 0.8570 0.8570
0.7874 0.7874 0.7874
0.8299 0.8299 0.8299
0.8724 0.8724 0.8724
0.0000 0.5000 1.0000
0.0000 0.5000 1.0000
0.0000 0.5000 1.0000
