mpv/180-color-v2.cube
TITLE "16x16x16 custom LUT (strength & grayscale)"
LUT_3D_SIZE 6
DOMAIN_MIN 0.0 0.0 0.0
DOMAIN_MAX 1.0 1.0 1.0
0.0000 0.7500 0.0000
0.0000 0.7500 0.7500
0.4000 0.0000 0.0000
0.6000 0.0000 0.0000
0.8000 0.0000 0.0000
1.0000 0.0000 0.0000
0.0000 0.7500 0.0000
0.2000 0.2000 0.0000
0.4000 0.2000 0.0000
0.6000 0.2000 0.0000
0.8000 0.2000 0.0000
1.0000 0.2000 0.0000
0.0000 0.4000 0.0000
0.2000 0.4000 0.0000
0.4000 0.4000 0.0000
0.6000 0.4000 0.0000
0.8000 0.4000 0.0000
0.0000 0.3750 0.7500
0.0000 0.6000 0.0000
0.2000 0.6000 0.0000
0.4000 0.6000 0.0000
0.6000 0.6000 0.0000
0.0000 0.3750 0.7500
0.0000 0.3750 0.7500
0.0000 0.8000 0.0000
0.2000 0.8000 0.0000
0.4000 0.8000 0.0000
0.0000 0.3750 0.7500
0.0000 0.3750 0.7500
1.0000 0.8000 0.0000
0.0000 1.0000 0.0000
0.2000 1.0000 0.0000
0.0000 0.3750 0.7500
0.0000 0.3750 0.7500
0.8000 1.0000 0.0000
1.0000 1.0000 0.0000
0.0000 0.7500 0.7500
0.2000 0.0000 0.2000
0.4000 0.0000 0.2000
0.6000 0.0000 0.2000
0.8000 0.0000 0.2000
1.0000 0.0000 0.2000
0.0000 0.2000 0.2000
0.2000 0.2000 0.2000
0.4000 0.2000 0.2000
0.6000 0.2000 0.2000
0.8000 0.2000 0.2000
0.0000 0.3750 0.7500
0.0000 0.4000 0.2000
0.2000 0.4000 0.2000
0.4000 0.4000 0.2000
0.6000 0.4000 0.2000
0.0000 0.3750 0.7500
0.0000 0.3750 0.7500
0.0000 0.6000 0.2000
0.2000 0.6000 0.2000
0.4000 0.6000 0.2000
0.0000 0.3750 0.7500
0.0000 0.3750 0.7500
1.0000 0.6000 0.2000
0.0000 0.8000 0.2000
0.2000 0.8000 0.2000
0.0000 0.3750 0.7500
0.0000 0.3750 0.7500
0.8000 0.8000 0.2000
1.0000 0.8000 0.2000
0.0000 1.0000 0.2000
0.0000 0.3750 0.7500
0.0000 0.3750 0.7500
0.6000 1.0000 0.2000
0.8000 1.0000 0.2000
1.0000 1.0000 0.2000
0.0000 0.0000 0.4000
0.2000 0.0000 0.4000
0.4000 0.0000 0.4000
0.6000 0.0000 0.4000
0.8000 0.0000 0.4000
0.0000 0.3750 0.7500
0.0000 0.2000 0.4000
0.2000 0.2000 0.4000
0.4000 0.2000 0.4000
0.6000 0.2000 0.4000
0.0000 0.3750 0.7500
0.0000 0.3750 0.7500
0.0000 0.4000 0.4000
0.2000 0.4000 0.4000
0.4000 0.4000 0.4000
0.0000 0.3750 0.7500
0.0000 0.3750 0.7500
1.0000 0.4000 0.4000
0.0000 0.6000 0.4000
0.2000 0.6000 0.4000
0.0000 0.3750 0.7500
0.0000 0.3750 0.7500
0.8000 0.6000 0.4000
1.0000 0.6000 0.4000
0.0000 0.8000 0.4000
0.0000 0.3750 0.7500
0.0000 0.3750 0.7500
0.6000 0.8000 0.4000
0.8000 0.8000 0.4000
1.0000 0.8000 0.4000
0.0000 0.3750 0.7500
0.0000 0.3750 0.7500
0.4000 1.0000 0.4000
0.6000 1.0000 0.4000
0.8000 1.0000 0.4000
1.0000 1.0000 0.4000
0.0000 0.0000 0.6000
0.2000 0.0000 0.6000
0.4000 0.0000 0.6000
0.6000 0.0000 0.6000
0.0000 0.0000 0.7500
0.0000 0.0000 0.7500
0.0000 0.2000 0.6000
0.2000 0.2000 0.6000
0.4000 0.2000 0.6000
0.0000 0.0000 0.7500
0.0000 0.0000 0.7500
1.0000 0.2000 0.6000
0.0000 0.4000 0.6000
0.2000 0.4000 0.6000
0.0000 0.0000 0.7500
0.0000 0.0000 0.7500
0.8000 0.4000 0.6000
1.0000 0.4000 0.6000
0.0000 0.6000 0.6000
0.0000 0.0000 0.7500
0.0000 0.0000 0.7500
0.6000 0.6000 0.6000
0.8000 0.6000 0.6000
1.0000 0.6000 0.6000
0.0000 0.0000 0.7500
0.0000 0.0000 0.7500
0.4000 0.8000 0.6000
0.6000 0.8000 0.6000
0.8000 0.8000 0.6000
1.0000 0.8000 0.6000
0.0000 0.0000 0.7500
0.2000 1.0000 0.6000
0.4000 1.0000 0.6000
0.6000 1.0000 0.6000
0.8000 1.0000 0.6000
1.0000 1.0000 0.6000
0.0000 0.0000 0.8000
0.2000 0.0000 0.8000
0.4000 0.0000 0.8000
0.0000 0.0000 0.7500
0.0000 0.0000 0.7500
1.0000 0.0000 0.8000
0.0000 0.2000 0.8000
0.2000 0.2000 0.8000
0.0000 0.0000 0.7500
0.0000 0.0000 0.7500
0.8000 0.2000 0.8000
1.0000 0.2000 0.8000
0.0000 0.4000 0.8000
0.0000 0.0000 0.7500
0.0000 0.0000 0.7500
0.6000 0.4000 0.8000
0.8000 0.4000 0.8000
1.0000 0.4000 0.8000
0.0000 0.0000 0.7500
0.0000 0.0000 0.7500
0.4000 0.6000 0.8000
0.6000 0.6000 0.8000
0.8000 0.6000 0.8000
1.0000 0.6000 0.8000
0.0000 0.0000 0.7500
0.2000 0.8000 0.8000
0.4000 0.8000 0.8000
0.6000 0.8000 0.8000
0.8000 0.8000 0.8000
1.0000 0.8000 0.8000
0.0000 1.0000 0.8000
0.2000 1.0000 0.8000
0.4000 1.0000 0.8000
0.6000 1.0000 0.8000
0.8000 1.0000 0.8000
0.7500 0.0000 0.0000
0.0000 0.0000 1.0000
0.2000 0.0000 1.0000
0.0000 0.0000 0.7500
0.0000 0.0000 0.7500
0.8000 0.0000 1.0000
1.0000 0.0000 1.0000
0.0000 0.2000 1.0000
0.0000 0.0000 0.7500
0.0000 0.0000 0.7500
0.6000 0.2000 1.0000
0.8000 0.2000 1.0000
1.0000 0.2000 1.0000
0.0000 0.0000 0.7500
0.0000 0.0000 0.7500
0.4000 0.4000 1.0000
0.6000 0.4000 1.0000
0.8000 0.4000 1.0000
1.0000 0.4000 1.0000
0.0000 0.0000 0.7500
0.2000 0.6000 1.0000
0.4000 0.6000 1.0000
0.6000 0.6000 1.0000
0.8000 0.6000 1.0000
1.0000 0.6000 1.0000
0.0000 0.8000 1.0000
0.2000 0.8000 1.0000
0.4000 0.8000 1.0000
0.6000 0.8000 1.0000
0.8000 0.8000 1.0000
0.7500 0.7500 0.0000
0.0000 1.0000 1.0000
0.2000 1.0000 1.0000
0.4000 1.0000 1.0000
0.6000 1.0000 1.0000
0.7500 0.0000 0.0000
0.7500 0.7500 0.0000
