mpv/180-gray-v2.cube
TITLE "16x16x16 custom LUT (strength & grayscale)"
LUT_3D_SIZE 6
DOMAIN_MIN 0.0 0.0 0.0
DOMAIN_MAX 1.0 1.0 1.0
0.0000 0.7500 0.0000
0.0000 0.7500 0.7500
0.0850 0.0850 0.0850
0.1276 0.1276 0.1276
0.1701 0.1701 0.1701
0.2126 0.2126 0.2126
0.0000 0.7500 0.0000
0.1856 0.1856 0.1856
0.2281 0.2281 0.2281
0.2706 0.2706 0.2706
0.3131 0.3131 0.3131
0.3556 0.3556 0.3556
0.2861 0.2861 0.2861
0.3286 0.3286 0.3286
0.3711 0.3711 0.3711
0.4136 0.4136 0.4136
0.4562 0.4562 0.4562
0.0000 0.3750 0.7500
0.4291 0.4291 0.4291
0.4716 0.4716 0.4716
0.5142 0.5142 0.5142
0.5567 0.5567 0.5567
0.0000 0.3750 0.7500
0.0000 0.3750 0.7500
0.5722 0.5722 0.5722
0.6147 0.6147 0.6147
0.6572 0.6572 0.6572
0.0000 0.3750 0.7500
0.0000 0.3750 0.7500
0.7848 0.7848 0.7848
0.7152 0.7152 0.7152
0.7577 0.7577 0.7577
0.0000 0.3750 0.7500
0.0000 0.3750 0.7500
0.8853 0.8853 0.8853
0.9278 0.9278 0.9278
0.0000 0.7500 0.7500
0.0570 0.0570 0.0570
0.0995 0.0995 0.0995
0.1420 0.1420 0.1420
0.1845 0.1845 0.1845
0.2270 0.2270 0.2270
0.1575 0.1575 0.1575
0.2000 0.2000 0.2000
0.2425 0.2425 0.2425
0.2850 0.2850 0.2850
0.3276 0.3276 0.3276
0.0000 0.3750 0.7500
0.3005 0.3005 0.3005
0.3430 0.3430 0.3430
0.3856 0.3856 0.3856
0.4281 0.4281 0.4281
0.0000 0.3750 0.7500
0.0000 0.3750 0.7500
0.4436 0.4436 0.4436
0.4861 0.4861 0.4861
0.5286 0.5286 0.5286
0.0000 0.3750 0.7500
0.0000 0.3750 0.7500
0.6562 0.6562 0.6562
0.5866 0.5866 0.5866
0.6291 0.6291 0.6291
0.0000 0.3750 0.7500
0.0000 0.3750 0.7500
0.7567 0.7567 0.7567
0.7992 0.7992 0.7992
0.7296 0.7296 0.7296
0.0000 0.3750 0.7500
0.0000 0.3750 0.7500
0.8572 0.8572 0.8572
0.8997 0.8997 0.8997
0.9422 0.9422 0.9422
0.0289 0.0289 0.0289
0.0714 0.0714 0.0714
0.1139 0.1139 0.1139
0.1564 0.1564 0.1564
0.1990 0.1990 0.1990
0.0000 0.3750 0.7500
0.1719 0.1719 0.1719
0.2144 0.2144 0.2144
0.2570 0.2570 0.2570
0.2995 0.2995 0.2995
0.0000 0.3750 0.7500
0.0000 0.3750 0.7500
0.3150 0.3150 0.3150
0.3575 0.3575 0.3575
0.4000 0.4000 0.4000
0.0000 0.3750 0.7500
0.0000 0.3750 0.7500
0.5276 0.5276 0.5276
0.4580 0.4580 0.4580
0.5005 0.5005 0.5005
0.0000 0.3750 0.7500
0.0000 0.3750 0.7500
0.6281 0.6281 0.6281
0.6706 0.6706 0.6706
0.6010 0.6010 0.6010
0.0000 0.3750 0.7500
0.0000 0.3750 0.7500
0.7286 0.7286 0.7286
0.7711 0.7711 0.7711
0.8136 0.8136 0.8136
0.0000 0.3750 0.7500
0.0000 0.3750 0.7500
0.8291 0.8291 0.8291
0.8716 0.8716 0.8716
0.9142 0.9142 0.9142
0.9567 0.9567 0.9567
0.0433 0.0433 0.0433
0.0858 0.0858 0.0858
0.1284 0.1284 0.1284
0.1709 0.1709 0.1709
0.0000 0.0000 0.7500
0.0000 0.0000 0.7500
0.1864 0.1864 0.1864
0.2289 0.2289 0.2289
0.2714 0.2714 0.2714
0.0000 0.0000 0.7500
0.0000 0.0000 0.7500
0.3990 0.3990 0.3990
0.3294 0.3294 0.3294
0.3719 0.3719 0.3719
0.0000 0.0000 0.7500
0.0000 0.0000 0.7500
0.4995 0.4995 0.4995
0.5420 0.5420 0.5420
0.4724 0.4724 0.4724
0.0000 0.0000 0.7500
0.0000 0.0000 0.7500
0.6000 0.6000 0.6000
0.6425 0.6425 0.6425
0.6850 0.6850 0.6850
0.0000 0.0000 0.7500
0.0000 0.0000 0.7500
0.7005 0.7005 0.7005
0.7430 0.7430 0.7430
0.7856 0.7856 0.7856
0.8281 0.8281 0.8281
0.0000 0.0000 0.7500
0.8010 0.8010 0.8010
0.8436 0.8436 0.8436
0.8861 0.8861 0.8861
0.9286 0.9286 0.9286
0.9711 0.9711 0.9711
0.0578 0.0578 0.0578
0.1003 0.1003 0.1003
0.1428 0.1428 0.1428
0.0000 0.0000 0.7500
0.0000 0.0000 0.7500
0.2704 0.2704 0.2704
0.2008 0.2008 0.2008
0.2433 0.2433 0.2433
0.0000 0.0000 0.7500
0.0000 0.0000 0.7500
0.3709 0.3709 0.3709
0.4134 0.4134 0.4134
0.3438 0.3438 0.3438
0.0000 0.0000 0.7500
0.0000 0.0000 0.7500
0.4714 0.4714 0.4714
0.5139 0.5139 0.5139
0.5564 0.5564 0.5564
0.0000 0.0000 0.7500
0.0000 0.0000 0.7500
0.5719 0.5719 0.5719
0.6144 0.6144 0.6144
0.6570 0.6570 0.6570
0.6995 0.6995 0.6995
0.0000 0.0000 0.7500
0.6724 0.6724 0.6724
0.7150 0.7150 0.7150
0.7575 0.7575 0.7575
0.8000 0.8000 0.8000
0.8425 0.8425 0.8425
0.7730 0.7730 0.7730
0.8155 0.8155 0.8155
0.8580 0.8580 0.8580
0.9005 0.9005 0.9005
0.9430 0.9430 0.9430
0.7500 0.0000 0.0000
0.0722 0.0722 0.0722
0.1147 0.1147 0.1147
0.0000 0.0000 0.7500
0.0000 0.0000 0.7500
0.2423 0.2423 0.2423
0.2848 0.2848 0.2848
0.2152 0.2152 0.2152
0.0000 0.0000 0.7500
0.0000 0.0000 0.7500
0.3428 0.3428 0.3428
0.3853 0.3853 0.3853
0.4278 0.4278 0.4278
0.0000 0.0000 0.7500
0.0000 0.0000 0.7500
0.4433 0.4433 0.4433
0.4858 0.4858 0.4858
0.5284 0.5284 0.5284
0.5709 0.5709 0.5709
0.0000 0.0000 0.7500
0.5438 0.5438 0.5438
0.5864 0.5864 0.5864
0.6289 0.6289 0.6289
0.6714 0.6714 0.6714
0.7139 0.7139 0.7139
0.6444 0.6444 0.6444
0.6869 0.6869 0.6869
0.7294 0.7294 0.7294
0.7719 0.7719 0.7719
0.8144 0.8144 0.8144
0.7500 0.7500 0.0000
0.7874 0.7874 0.7874
0.8299 0.8299 0.8299
0.8724 0.8724 0.8724
0.9150 0.9150 0.9150
0.7500 0.0000 0.0000
0.7500 0.7500 0.0000
