mpv/270-gray-v2.cube
TITLE "16x16x16 custom LUT (strength & grayscale)"
LUT_3D_SIZE 16
DOMAIN_MIN 0.0 0.0 0.0
DOMAIN_MAX 1.0 1.0 1.0
0.0000 0.3750 0.7500
0.3750 0.0000 0.7500
0.0000 0.3750 0.7500
0.3750 0.0000 0.7500
0.0000 0.3750 0.7500
0.0709 0.0709 0.0709
0.0850 0.0850 0.0850
0.0992 0.0992 0.0992
0.1134 0.1134 0.1134
0.1276 0.1276 0.1276
0.1417 0.1417 0.1417
0.1559 0.1559 0.1559
0.1701 0.1701 0.1701
0.1843 0.1843 0.1843
0.1984 0.1984 0.1984
0.2126 0.2126 0.2126
0.3750 0.0000 0.7500
0.0000 0.3750 0.7500
0.3750 0.0000 0.7500
0.0000 0.3750 0.7500
0.1044 0.1044 0.1044
0.1185 0.1185 0.1185
0.1327 0.1327 0.1327
0.1469 0.1469 0.1469
0.1611 0.1611 0.1611
0.1752 0.1752 0.1752
0.1894 0.1894 0.1894
0.2036 0.2036 0.2036
0.2178 0.2178 0.2178
0.2319 0.2319 0.2319
0.2461 0.2461 0.2461
0.2603 0.2603 0.2603
0.3750 0.0000 0.7500
0.0000 0.3750 0.7500
0.3750 0.0000 0.7500
0.1379 0.1379 0.1379
0.1521 0.1521 0.1521
0.1662 0.1662 0.1662
0.1804 0.1804 0.1804
0.1946 0.1946 0.1946
0.2087 0.2087 0.2087
0.2229 0.2229 0.2229
0.2371 0.2371 0.2371
0.2513 0.2513 0.2513
0.2654 0.2654 0.2654
0.2796 0.2796 0.2796
0.2938 0.2938 0.2938
0.3080 0.3080 0.3080
0.0000 0.3750 0.7500
0.3750 0.0000 0.7500
0.1714 0.1714 0.1714
0.1856 0.1856 0.1856
0.1997 0.1997 0.1997
0.2139 0.2139 0.2139
0.2281 0.2281 0.2281
0.2423 0.2423 0.2423
0.2564 0.2564 0.2564
0.2706 0.2706 0.2706
0.2848 0.2848 0.2848
0.2989 0.2989 0.2989
0.3131 0.3131 0.3131
0.3273 0.3273 0.3273
0.3415 0.3415 0.3415
0.3556 0.3556 0.3556
0.0000 0.3750 0.7500
0.2049 0.2049 0.2049
0.2191 0.2191 0.2191
0.2332 0.2332 0.2332
0.2474 0.2474 0.2474
0.2616 0.2616 0.2616
0.2758 0.2758 0.2758
0.2899 0.2899 0.2899
0.3041 0.3041 0.3041
0.3183 0.3183 0.3183
0.3325 0.3325 0.3325
0.3466 0.3466 0.3466
0.3608 0.3608 0.3608
0.3750 0.3750 0.3750
0.3891 0.3891 0.3891
0.4033 0.4033 0.4033
0.2384 0.2384 0.2384
0.2526 0.2526 0.2526
0.2667 0.2667 0.2667
0.2809 0.2809 0.2809
0.2951 0.2951 0.2951
0.3093 0.3093 0.3093
0.3234 0.3234 0.3234
0.3376 0.3376 0.3376
0.3518 0.3518 0.3518
0.3660 0.3660 0.3660
0.3801 0.3801 0.3801
0.3943 0.3943 0.3943
0.4085 0.4085 0.4085
0.4227 0.4227 0.4227
0.4368 0.4368 0.4368
0.4510 0.4510 0.4510
0.2861 0.2861 0.2861
0.3003 0.3003 0.3003
0.3144 0.3144 0.3144
0.3286 0.3286 0.3286
0.3428 0.3428 0.3428
0.3569 0.3569 0.3569
0.3711 0.3711 0.3711
0.3853 0.3853 0.3853
0.3995 0.3995 0.3995
0.4136 0.4136 0.4136
0.4278 0.4278 0.4278
0.4420 0.4420 0.4420
0.4562 0.4562 0.4562
0.4703 0.4703 0.4703
0.4845 0.4845 0.4845
0.7500 0.0000 0.7500
0.3338 0.3338 0.3338
0.3479 0.3479 0.3479
0.3621 0.3621 0.3621
0.3763 0.3763 0.3763
0.3905 0.3905 0.3905
0.4046 0.4046 0.4046
0.4188 0.4188 0.4188
0.4330 0.4330 0.4330
0.4471 0.4471 0.4471
0.4613 0.4613 0.4613
0.4755 0.4755 0.4755
0.4897 0.4897 0.4897
0.5038 0.5038 0.5038
0.5180 0.5180 0.5180
0.7500 0.0000 0.3750
0.7500 0.3750 0.0000
0.3814 0.3814 0.3814
0.3956 0.3956 0.3956
0.4098 0.4098 0.4098
0.4240 0.4240 0.4240
0.4381 0.4381 0.4381
0.4523 0.4523 0.4523
0.4665 0.4665 0.4665
0.4807 0.4807 0.4807
0.4948 0.4948 0.4948
0.5090 0.5090 0.5090
0.5232 0.5232 0.5232
0.5373 0.5373 0.5373
0.5515 0.5515 0.5515
0.7500 0.0000 0.7500
0.7500 0.0000 0.3750
0.7500 0.3750 0.0000
0.4291 0.4291 0.4291
0.4433 0.4433 0.4433
0.4575 0.4575 0.4575
0.4716 0.4716 0.4716
0.4858 0.4858 0.4858
0.5000 0.5000 0.5000
0.5142 0.5142 0.5142
0.5283 0.5283 0.5283
0.5425 0.5425 0.5425
0.5567 0.5567 0.5567
0.5709 0.5709 0.5709
0.5850 0.5850 0.5850
0.7500 0.0000 0.7500
0.7500 0.0000 0.3750
0.7500 0.3750 0.0000
0.7500 0.0000 0.7500
0.4768 0.4768 0.4768
0.4910 0.4910 0.4910
0.5051 0.5051 0.5051
0.5193 0.5193 0.5193
0.5335 0.5335 0.5335
0.5477 0.5477 0.5477
0.5618 0.5618 0.5618
0.5760 0.5760 0.5760
0.5902 0.5902 0.5902
0.6044 0.6044 0.6044
0.6185 0.6185 0.6185
0.7500 0.0000 0.3750
0.7500 0.3750 0.0000
0.7500 0.0000 0.7500
0.7500 0.0000 0.3750
0.6894 0.6894 0.6894
0.5245 0.5245 0.5245
0.5387 0.5387 0.5387
0.5528 0.5528 0.5528
0.5670 0.5670 0.5670
0.5812 0.5812 0.5812
0.5953 0.5953 0.5953
0.6095 0.6095 0.6095
0.6237 0.6237 0.6237
0.6379 0.6379 0.6379
0.6520 0.6520 0.6520
0.7500 0.3750 0.0000
0.7500 0.0000 0.7500
0.7500 0.0000 0.3750
0.7500 0.3750 0.0000
0.7229 0.7229 0.7229
0.7371 0.7371 0.7371
0.5722 0.5722 0.5722
0.5863 0.5863 0.5863
0.6005 0.6005 0.6005
0.6147 0.6147 0.6147
0.6289 0.6289 0.6289
0.6430 0.6430 0.6430
0.6572 0.6572 0.6572
0.6714 0.6714 0.6714
0.6855 0.6855 0.6855
0.7500 0.0000 0.7500
0.7500 0.0000 0.3750
0.7500 0.3750 0.0000
0.7500 0.0000 0.7500
0.7564 0.7564 0.7564
0.7706 0.7706 0.7706
0.7848 0.7848 0.7848
0.6198 0.6198 0.6198
0.6340 0.6340 0.6340
0.6482 0.6482 0.6482
0.6624 0.6624 0.6624
0.6765 0.6765 0.6765
0.6907 0.6907 0.6907
0.7049 0.7049 0.7049
0.7191 0.7191 0.7191
0.7500 0.0000 0.3750
0.7500 0.3750 0.0000
0.7500 0.0000 0.7500
0.7500 0.0000 0.3750
0.7899 0.7899 0.7899
0.8041 0.8041 0.8041
0.8183 0.8183 0.8183
0.8324 0.8324 0.8324
0.6675 0.6675 0.6675
0.6817 0.6817 0.6817
0.6959 0.6959 0.6959
0.7100 0.7100 0.7100
0.7242 0.7242 0.7242
0.7384 0.7384 0.7384
0.7526 0.7526 0.7526
0.7500 0.3750 0.0000
0.7500 0.0000 0.7500
0.7500 0.0000 0.3750
0.7500 0.3750 0.0000
0.8234 0.8234 0.8234
0.8376 0.8376 0.8376
0.8518 0.8518 0.8518
0.8659 0.8659 0.8659
0.8801 0.8801 0.8801
0.7152 0.7152 0.7152
0.7294 0.7294 0.7294
0.7435 0.7435 0.7435
0.7577 0.7577 0.7577
0.7719 0.7719 0.7719
0.7861 0.7861 0.7861
0.7500 0.0000 0.7500
0.7500 0.0000 0.3750
0.7500 0.3750 0.0000
0.7500 0.0000 0.7500
0.8569 0.8569 0.8569
0.8711 0.8711 0.8711
0.8853 0.8853 0.8853
0.8995 0.8995 0.8995
0.9136 0.9136 0.9136
0.9278 0.9278 0.9278
0.3750 0.0000 0.7500
0.0000 0.3750 0.7500
0.3750 0.0000 0.7500
0.0000 0.3750 0.7500
0.0615 0.0615 0.0615
0.0757 0.0757 0.0757
0.0899 0.0899 0.0899
0.1040 0.1040 0.1040
0.1182 0.1182 0.1182
0.1324 0.1324 0.1324
0.1465 0.1465 0.1465
0.1607 0.1607 0.1607
0.1749 0.1749 0.1749
0.1891 0.1891 0.1891
0.2032 0.2032 0.2032
0.2174 0.2174 0.2174
0.3750 0.0000 0.7500
0.0000 0.3750 0.7500
0.3750 0.0000 0.7500
0.0950 0.0950 0.0950
0.1092 0.1092 0.1092
0.1234 0.1234 0.1234
0.1375 0.1375 0.1375
0.1517 0.1517 0.1517
0.1659 0.1659 0.1659
0.1801 0.1801 0.1801
0.1942 0.1942 0.1942
0.2084 0.2084 0.2084
0.2226 0.2226 0.2226
0.2367 0.2367 0.2367
0.2509 0.2509 0.2509
0.2651 0.2651 0.2651
0.0000 0.3750 0.7500
0.3750 0.0000 0.7500
0.1285 0.1285 0.1285
0.1427 0.1427 0.1427
0.1569 0.1569 0.1569
0.1710 0.1710 0.1710
0.1852 0.1852 0.1852
0.1994 0.1994 0.1994
0.2136 0.2136 0.2136
0.2277 0.2277 0.2277
0.2419 0.2419 0.2419
0.2561 0.2561 0.2561
0.2703 0.2703 0.2703
0.2844 0.2844 0.2844
0.2986 0.2986 0.2986
0.3128 0.3128 0.3128
0.0000 0.3750 0.7500
0.1620 0.1620 0.1620
0.1762 0.1762 0.1762
0.1904 0.1904 0.1904
0.2045 0.2045 0.2045
0.2187 0.2187 0.2187
0.2329 0.2329 0.2329
0.2471 0.2471 0.2471
0.2612 0.2612 0.2612
0.2754 0.2754 0.2754
0.2896 0.2896 0.2896
0.3038 0.3038 0.3038
0.3179 0.3179 0.3179
0.3321 0.3321 0.3321
0.3463 0.3463 0.3463
0.3605 0.3605 0.3605
0.1955 0.1955 0.1955
0.2097 0.2097 0.2097
0.2239 0.2239 0.2239
0.2381 0.2381 0.2381
0.2522 0.2522 0.2522
0.2664 0.2664 0.2664
0.2806 0.2806 0.2806
0.2947 0.2947 0.2947
0.3089 0.3089 0.3089
0.3231 0.3231 0.3231
0.3373 0.3373 0.3373
0.3514 0.3514 0.3514
0.3656 0.3656 0.3656
0.3798 0.3798 0.3798
0.3940 0.3940 0.3940
0.4081 0.4081 0.4081
0.2432 0.2432 0.2432
0.2574 0.2574 0.2574
0.2716 0.2716 0.2716
0.2857 0.2857 0.2857
0.2999 0.2999 0.2999
0.3141 0.3141 0.3141
0.3283 0.3283 0.3283
0.3424 0.3424 0.3424
0.3566 0.3566 0.3566
0.3708 0.3708 0.3708
0.3849 0.3849 0.3849
0.3991 0.3991 0.3991
0.4133 0.4133 0.4133
0.4275 0.4275 0.4275
0.4416 0.4416 0.4416
0.7500 0.0000 0.3750
0.2909 0.2909 0.2909
0.3051 0.3051 0.3051
0.3192 0.3192 0.3192
0.3334 0.3334 0.3334
0.3476 0.3476 0.3476
0.3618 0.3618 0.3618
0.3759 0.3759 0.3759
0.3901 0.3901 0.3901
0.4043 0.4043 0.4043
0.4185 0.4185 0.4185
0.4326 0.4326 0.4326
0.4468 0.4468 0.4468
0.4610 0.4610 0.4610
0.4751 0.4751 0.4751
0.7500 0.3750 0.0000
0.7500 0.0000 0.7500
0.3386 0.3386 0.3386
0.3527 0.3527 0.3527
0.3669 0.3669 0.3669
0.3811 0.3811 0.3811
0.3953 0.3953 0.3953
0.4094 0.4094 0.4094
0.4236 0.4236 0.4236
0.4378 0.4378 0.4378
0.4520 0.4520 0.4520
0.4661 0.4661 0.4661
0.4803 0.4803 0.4803
0.4945 0.4945 0.4945
0.5087 0.5087 0.5087
0.7500 0.0000 0.3750
0.7500 0.3750 0.0000
0.7500 0.0000 0.7500
0.3863 0.3863 0.3863
0.4004 0.4004 0.4004
0.4146 0.4146 0.4146
0.4288 0.4288 0.4288
0.4429 0.4429 0.4429
0.4571 0.4571 0.4571
0.4713 0.4713 0.4713
0.4855 0.4855 0.4855
0.4996 0.4996 0.4996
0.5138 0.5138 0.5138
0.5280 0.5280 0.5280
0.5422 0.5422 0.5422
0.7500 0.0000 0.3750
0.7500 0.3750 0.0000
0.7500 0.0000 0.7500
0.7500 0.0000 0.3750
0.4339 0.4339 0.4339
0.4481 0.4481 0.4481
0.4623 0.4623 0.4623
0.4765 0.4765 0.4765
0.4906 0.4906 0.4906
0.5048 0.5048 0.5048
0.5190 0.5190 0.5190
0.5331 0.5331 0.5331
0.5473 0.5473 0.5473
0.5615 0.5615 0.5615
0.5757 0.5757 0.5757
0.7500 0.3750 0.0000
0.7500 0.0000 0.7500
0.7500 0.0000 0.3750
0.7500 0.3750 0.0000
0.6465 0.6465 0.6465
0.4816 0.4816 0.4816
0.4958 0.4958 0.4958
0.5100 0.5100 0.5100
0.5241 0.5241 0.5241
0.5383 0.5383 0.5383
0.5525 0.5525 0.5525
0.5667 0.5667 0.5667
0.5808 0.5808 0.5808
0.5950 0.5950 0.5950
0.6092 0.6092 0.6092
0.7500 0.0000 0.7500
0.7500 0.0000 0.3750
0.7500 0.3750 0.0000
0.7500 0.0000 0.7500
0.6800 0.6800 0.6800
0.6942 0.6942 0.6942
0.5293 0.5293 0.5293
0.5435 0.5435 0.5435
0.5576 0.5576 0.5576
0.5718 0.5718 0.5718
0.5860 0.5860 0.5860
0.6002 0.6002 0.6002
0.6143 0.6143 0.6143
0.6285 0.6285 0.6285
0.6427 0.6427 0.6427
0.7500 0.0000 0.3750
0.7500 0.3750 0.0000
0.7500 0.0000 0.7500
0.7500 0.0000 0.3750
0.7135 0.7135 0.7135
0.7277 0.7277 0.7277
0.7419 0.7419 0.7419
0.5770 0.5770 0.5770
0.5911 0.5911 0.5911
0.6053 0.6053 0.6053
0.6195 0.6195 0.6195
0.6337 0.6337 0.6337
0.6478 0.6478 0.6478
0.6620 0.6620 0.6620
0.6762 0.6762 0.6762
0.7500 0.3750 0.0000
0.7500 0.0000 0.7500
0.7500 0.0000 0.3750
0.7500 0.3750 0.0000
0.7471 0.7471 0.7471
0.7612 0.7612 0.7612
0.7754 0.7754 0.7754
0.7896 0.7896 0.7896
0.6247 0.6247 0.6247
0.6388 0.6388 0.6388
0.6530 0.6530 0.6530
0.6672 0.6672 0.6672
0.6813 0.6813 0.6813
0.6955 0.6955 0.6955
0.7097 0.7097 0.7097
0.7500 0.0000 0.7500
0.7500 0.0000 0.3750
0.7500 0.3750 0.0000
0.7500 0.0000 0.7500
0.7806 0.7806 0.7806
0.7947 0.7947 0.7947
0.8089 0.8089 0.8089
0.8231 0.8231 0.8231
0.8373 0.8373 0.8373
0.6723 0.6723 0.6723
0.6865 0.6865 0.6865
0.7007 0.7007 0.7007
0.7149 0.7149 0.7149
0.7290 0.7290 0.7290
0.7432 0.7432 0.7432
0.7500 0.0000 0.3750
0.7500 0.3750 0.0000
0.7500 0.0000 0.7500
0.7500 0.0000 0.3750
0.8141 0.8141 0.8141
0.8282 0.8282 0.8282
0.8424 0.8424 0.8424
0.8566 0.8566 0.8566
0.8708 0.8708 0.8708
0.8849 0.8849 0.8849
0.7200 0.7200 0.7200
0.7342 0.7342 0.7342
0.7484 0.7484 0.7484
0.7625 0.7625 0.7625
0.7767 0.7767 0.7767
0.7500 0.3750 0.0000
0.7500 0.0000 0.7500
0.7500 0.0000 0.3750
0.7500 0.3750 0.0000
0.8476 0.8476 0.8476
0.8617 0.8617 0.8617
0.8759 0.8759 0.8759
0.8901 0.8901 0.8901
0.9043 0.9043 0.9043
0.9184 0.9184 0.9184
0.9326 0.9326 0.9326
0.3750 0.0000 0.7500
0.0000 0.3750 0.7500
0.3750 0.0000 0.7500
0.0521 0.0521 0.0521
0.0663 0.0663 0.0663
0.0805 0.0805 0.0805
0.0947 0.0947 0.0947
0.1088 0.1088 0.1088
0.1230 0.1230 0.1230
0.1372 0.1372 0.1372
0.1514 0.1514 0.1514
0.1655 0.1655 0.1655
0.1797 0.1797 0.1797
0.1939 0.1939 0.1939
0.2081 0.2081 0.2081
0.2222 0.2222 0.2222
0.0000 0.3750 0.7500
0.3750 0.0000 0.7500
0.0857 0.0857 0.0857
0.0998 0.0998 0.0998
0.1140 0.1140 0.1140
0.1282 0.1282 0.1282
0.1423 0.1423 0.1423
0.1565 0.1565 0.1565
0.1707 0.1707 0.1707
0.1849 0.1849 0.1849
0.1990 0.1990 0.1990
0.2132 0.2132 0.2132
0.2274 0.2274 0.2274
0.2416 0.2416 0.2416
0.2557 0.2557 0.2557
0.2699 0.2699 0.2699
0.0000 0.3750 0.7500
0.1192 0.1192 0.1192
0.1333 0.1333 0.1333
0.1475 0.1475 0.1475
0.1617 0.1617 0.1617
0.1759 0.1759 0.1759
0.1900 0.1900 0.1900
0.2042 0.2042 0.2042
0.2184 0.2184 0.2184
0.2325 0.2325 0.2325
0.2467 0.2467 0.2467
0.2609 0.2609 0.2609
0.2751 0.2751 0.2751
0.2892 0.2892 0.2892
0.3034 0.3034 0.3034
0.3176 0.3176 0.3176
0.1527 0.1527 0.1527
0.1668 0.1668 0.1668
0.1810 0.1810 0.1810
0.1952 0.1952 0.1952
0.2094 0.2094 0.2094
0.2235 0.2235 0.2235
0.2377 0.2377 0.2377
0.2519 0.2519 0.2519
0.2661 0.2661 0.2661
0.2802 0.2802 0.2802
0.2944 0.2944 0.2944
0.3086 0.3086 0.3086
0.3227 0.3227 0.3227
0.3369 0.3369 0.3369
0.3511 0.3511 0.3511
0.3653 0.3653 0.3653
0.2003 0.2003 0.2003
0.2145 0.2145 0.2145
0.2287 0.2287 0.2287
0.2429 0.2429 0.2429
0.2570 0.2570 0.2570
0.2712 0.2712 0.2712
0.2854 0.2854 0.2854
0.2996 0.2996 0.2996
0.3137 0.3137 0.3137
0.3279 0.3279 0.3279
0.3421 0.3421 0.3421
0.3563 0.3563 0.3563
0.3704 0.3704 0.3704
0.3846 0.3846 0.3846
0.3988 0.3988 0.3988
0.7500 0.0000 0.7500
0.2480 0.2480 0.2480
0.2622 0.2622 0.2622
0.2764 0.2764 0.2764
0.2905 0.2905 0.2905
0.3047 0.3047 0.3047
0.3189 0.3189 0.3189
0.3331 0.3331 0.3331
0.3472 0.3472 0.3472
0.3614 0.3614 0.3614
0.3756 0.3756 0.3756
0.3898 0.3898 0.3898
0.4039 0.4039 0.4039
0.4181 0.4181 0.4181
0.4323 0.4323 0.4323
0.7500 0.0000 0.3750
0.7500 0.3750 0.0000
0.2957 0.2957 0.2957
0.3099 0.3099 0.3099
0.3241 0.3241 0.3241
0.3382 0.3382 0.3382
0.3524 0.3524 0.3524
0.3666 0.3666 0.3666
0.3807 0.3807 0.3807
0.3949 0.3949 0.3949
0.4091 0.4091 0.4091
0.4233 0.4233 0.4233
0.4374 0.4374 0.4374
0.4516 0.4516 0.4516
0.4658 0.4658 0.4658
0.7500 0.0000 0.7500
0.7500 0.0000 0.3750
0.7500 0.3750 0.0000
0.3434 0.3434 0.3434
0.3576 0.3576 0.3576
0.3717 0.3717 0.3717
0.3859 0.3859 0.3859
0.4001 0.4001 0.4001
0.4143 0.4143 0.4143
0.4284 0.4284 0.4284
0.4426 0.4426 0.4426
0.4568 0.4568 0.4568
0.4709 0.4709 0.4709
0.4851 0.4851 0.4851
0.4993 0.4993 0.4993
0.7500 0.0000 0.7500
0.7500 0.0000 0.3750
0.7500 0.3750 0.0000
0.7500 0.0000 0.7500
0.3911 0.3911 0.3911
0.4052 0.4052 0.4052
0.4194 0.4194 0.4194
0.4336 0.4336 0.4336
0.4478 0.4478 0.4478
0.4619 0.4619 0.4619
0.4761 0.4761 0.4761
0.4903 0.4903 0.4903
0.5045 0.5045 0.5045
0.5186 0.5186 0.5186
0.5328 0.5328 0.5328
0.7500 0.0000 0.3750
0.7500 0.3750 0.0000
0.7500 0.0000 0.7500
0.7500 0.0000 0.3750
0.6037 0.6037 0.6037
0.4387 0.4387 0.4387
0.4529 0.4529 0.4529
0.4671 0.4671 0.4671
0.4813 0.4813 0.4813
0.4954 0.4954 0.4954
0.5096 0.5096 0.5096
0.5238 0.5238 0.5238
0.5380 0.5380 0.5380
0.5521 0.5521 0.5521
0.5663 0.5663 0.5663
0.7500 0.3750 0.0000
0.7500 0.0000 0.7500
0.7500 0.0000 0.3750
0.7500 0.3750 0.0000
0.6372 0.6372 0.6372
0.6513 0.6513 0.6513
0.4864 0.4864 0.4864
0.5006 0.5006 0.5006
0.5148 0.5148 0.5148
0.5289 0.5289 0.5289
0.5431 0.5431 0.5431
0.5573 0.5573 0.5573
0.5715 0.5715 0.5715
0.5856 0.5856 0.5856
0.5998 0.5998 0.5998
0.7500 0.0000 0.7500
0.7500 0.0000 0.3750
0.7500 0.3750 0.0000
0.7500 0.0000 0.7500
0.6707 0.6707 0.6707
0.6849 0.6849 0.6849
0.6990 0.6990 0.6990
0.5341 0.5341 0.5341
0.5483 0.5483 0.5483
0.5625 0.5625 0.5625
0.5766 0.5766 0.5766
0.5908 0.5908 0.5908
0.6050 0.6050 0.6050
0.6191 0.6191 0.6191
0.6333 0.6333 0.6333
0.7500 0.0000 0.3750
0.7500 0.3750 0.0000
0.7500 0.0000 0.7500
0.7500 0.0000 0.3750
0.7042 0.7042 0.7042
0.7184 0.7184 0.7184
0.7325 0.7325 0.7325
0.7467 0.7467 0.7467
0.5818 0.5818 0.5818
0.5960 0.5960 0.5960
0.6101 0.6101 0.6101
0.6243 0.6243 0.6243
0.6385 0.6385 0.6385
0.6527 0.6527 0.6527
0.6668 0.6668 0.6668
0.7500 0.3750 0.0000
0.7500 0.0000 0.7500
0.7500 0.0000 0.3750
0.7500 0.3750 0.0000
0.7377 0.7377 0.7377
0.7519 0.7519 0.7519
0.7660 0.7660 0.7660
0.7802 0.7802 0.7802
0.7944 0.7944 0.7944
0.6295 0.6295 0.6295
0.6436 0.6436 0.6436
0.6578 0.6578 0.6578
0.6720 0.6720 0.6720
0.6862 0.6862 0.6862
0.7003 0.7003 0.7003
0.7500 0.0000 0.7500
0.7500 0.0000 0.3750
0.7500 0.3750 0.0000
0.7500 0.0000 0.7500
0.7712 0.7712 0.7712
0.7854 0.7854 0.7854
0.7995 0.7995 0.7995
0.8137 0.8137 0.8137
0.8279 0.8279 0.8279
0.8421 0.8421 0.8421
0.6771 0.6771 0.6771
0.6913 0.6913 0.6913
0.7055 0.7055 0.7055
0.7197 0.7197 0.7197
0.7338 0.7338 0.7338
0.7500 0.0000 0.3750
0.7500 0.3750 0.0000
0.7500 0.0000 0.7500
0.7500 0.0000 0.3750
0.8047 0.8047 0.8047
0.8189 0.8189 0.8189
0.8331 0.8331 0.8331
0.8472 0.8472 0.8472
0.8614 0.8614 0.8614
0.8756 0.8756 0.8756
0.8897 0.8897 0.8897
0.7248 0.7248 0.7248
0.7390 0.7390 0.7390
0.7532 0.7532 0.7532
0.7673 0.7673 0.7673
0.7500 0.3750 0.0000
0.7500 0.0000 0.7500
0.7500 0.0000 0.3750
0.7500 0.3750 0.0000
0.8382 0.8382 0.8382
0.8524 0.8524 0.8524
0.8666 0.8666 0.8666
0.8807 0.8807 0.8807
0.8949 0.8949 0.8949
0.9091 0.9091 0.9091
0.9233 0.9233 0.9233
0.9374 0.9374 0.9374
0.3750 0.0000 0.7500
0.0000 0.3750 0.7500
0.0428 0.0428 0.0428
0.0570 0.0570 0.0570
0.0711 0.0711 0.0711
0.0853 0.0853 0.0853
0.0995 0.0995 0.0995
0.1137 0.1137 0.1137
0.1278 0.1278 0.1278
0.1420 0.1420 0.1420
0.1562 0.1562 0.1562
0.1703 0.1703 0.1703
0.1845 0.1845 0.1845
0.1987 0.1987 0.1987
0.2129 0.2129 0.2129
0.2270 0.2270 0.2270
0.3750 0.0000 0.7500
0.0763 0.0763 0.0763
0.0905 0.0905 0.0905
0.1046 0.1046 0.1046
0.1188 0.1188 0.1188
0.1330 0.1330 0.1330
0.1472 0.1472 0.1472
0.1613 0.1613 0.1613
0.1755 0.1755 0.1755
0.1897 0.1897 0.1897
0.2039 0.2039 0.2039
0.2180 0.2180 0.2180
0.2322 0.2322 0.2322
0.2464 0.2464 0.2464
0.2605 0.2605 0.2605
0.2747 0.2747 0.2747
0.1098 0.1098 0.1098
0.1240 0.1240 0.1240
0.1381 0.1381 0.1381
0.1523 0.1523 0.1523
0.1665 0.1665 0.1665
0.1807 0.1807 0.1807
0.1948 0.1948 0.1948
0.2090 0.2090 0.2090
0.2232 0.2232 0.2232
0.2374 0.2374 0.2374
0.2515 0.2515 0.2515
0.2657 0.2657 0.2657
0.2799 0.2799 0.2799
0.2941 0.2941 0.2941
0.3082 0.3082 0.3082
0.3224 0.3224 0.3224
0.1575 0.1575 0.1575
0.1717 0.1717 0.1717
0.1858 0.1858 0.1858
0.2000 0.2000 0.2000
0.2142 0.2142 0.2142
0.2283 0.2283 0.2283
0.2425 0.2425 0.2425
0.2567 0.2567 0.2567
0.2709 0.2709 0.2709
0.2850 0.2850 0.2850
0.2992 0.2992 0.2992
0.3134 0.3134 0.3134
0.3276 0.3276 0.3276
0.3417 0.3417 0.3417
0.3559 0.3559 0.3559
0.7500 0.0000 0.7500
0.2052 0.2052 0.2052
0.2193 0.2193 0.2193
0.2335 0.2335 0.2335
0.2477 0.2477 0.2477
0.2619 0.2619 0.2619
0.2760 0.2760 0.2760
0.2902 0.2902 0.2902
0.3044 0.3044 0.3044
0.3185 0.3185 0.3185
0.3327 0.3327 0.3327
0.3469 0.3469 0.3469
0.3611 0.3611 0.3611
0.3752 0.3752 0.3752
0.3894 0.3894 0.3894
0.7500 0.0000 0.3750
0.7500 0.3750 0.0000
0.2528 0.2528 0.2528
0.2670 0.2670 0.2670
0.2812 0.2812 0.2812
0.2954 0.2954 0.2954
0.3095 0.3095 0.3095
0.3237 0.3237 0.3237
0.3379 0.3379 0.3379
0.3521 0.3521 0.3521
0.3662 0.3662 0.3662
0.3804 0.3804 0.3804
0.3946 0.3946 0.3946
0.4087 0.4087 0.4087
0.4229 0.4229 0.4229
0.7500 0.0000 0.7500
0.7500 0.0000 0.3750
0.7500 0.3750 0.0000
0.3005 0.3005 0.3005
0.3147 0.3147 0.3147
0.3289 0.3289 0.3289
0.3430 0.3430 0.3430
0.3572 0.3572 0.3572
0.3714 0.3714 0.3714
0.3856 0.3856 0.3856
0.3997 0.3997 0.3997
0.4139 0.4139 0.4139
0.4281 0.4281 0.4281
0.4423 0.4423 0.4423
0.4564 0.4564 0.4564
0.7500 0.0000 0.7500
0.7500 0.0000 0.3750
0.7500 0.3750 0.0000
0.7500 0.0000 0.7500
0.3482 0.3482 0.3482
0.3624 0.3624 0.3624
0.3765 0.3765 0.3765
0.3907 0.3907 0.3907
0.4049 0.4049 0.4049
0.4191 0.4191 0.4191
0.4332 0.4332 0.4332
0.4474 0.4474 0.4474
0.4616 0.4616 0.4616
0.4758 0.4758 0.4758
0.4899 0.4899 0.4899
0.7500 0.0000 0.3750
0.7500 0.3750 0.0000
0.7500 0.0000 0.7500
0.7500 0.0000 0.3750
0.5608 0.5608 0.5608
0.3959 0.3959 0.3959
0.4101 0.4101 0.4101
0.4242 0.4242 0.4242
0.4384 0.4384 0.4384
