mpv/borders-no.cube
TITLE "glitched_lut"
LUT_3D_SIZE 16
0.0000 0.0000 0.0000
0.0667 0.0000 0.0000
0.1333 0.0000 0.0000
0.2000 0.0000 0.0000
0.2667 0.0000 0.0000
0.3333 0.0000 0.0000
0.4000 0.0000 0.0000
0.4667 0.0000 0.0000
0.5333 0.0000 0.0000
0.6000 0.0000 0.0000
0.6667 0.0000 0.0000
0.7568 0.1319 0.0000
0.8155 0.1163 0.0000
0.8752 0.0966 0.0000
0.9366 0.0734 0.0000
1.0000 0.0477 0.0000
0.0000 0.0667 0.0000
0.0667 0.0667 0.0000
0.1333 0.0667 0.0000
0.2000 0.0667 0.0000
0.2667 0.0667 0.0000
0.3333 0.0667 0.0000
0.4000 0.0667 0.0000
0.4667 0.0667 0.0000
0.5333 0.0667 0.0000
0.6353 0.1991 0.0000
0.6927 0.1836 0.0000
0.7506 0.1640 0.0000
0.8099 0.1410 0.0000
0.8710 0.1153 0.0000
0.9343 0.0880 0.0000
1.0000 0.0599 0.0000
0.0000 0.1333 0.0000
0.0667 0.1333 0.0000
0.1333 0.1333 0.0000
0.2000 0.1333 0.0000
0.2667 0.1333 0.0000
0.3333 0.1333 0.0000
0.4000 0.1333 0.0000
0.5139 0.2662 0.0000
0.5699 0.2509 0.0000
0.6262 0.2315 0.0000
0.6834 0.2086 0.0000
0.7422 0.1830 0.0000
0.8030 0.1557 0.0000
0.8662 0.1276 0.0000
0.9318 0.0997 0.0000
1.0000 0.0730 0.0000
0.0000 0.2000 0.0000
0.0667 0.2000 0.0000
0.1333 0.2000 0.0000
0.2000 0.2000 0.0000
0.2667 0.2000 0.0000
0.3926 0.3334 0.0000
0.4473 0.3182 0.0000
0.5018 0.2989 0.0000
0.5570 0.2761 0.0000
0.6135 0.2506 0.0000
0.6719 0.2234 0.0000
0.7325 0.1953 0.0000
0.7956 0.1674 0.0000
0.8614 0.1406 0.0000
0.9296 0.1159 0.0000
1.0000 0.0942 0.0000
0.0000 0.2667 0.0000
0.0667 0.2667 0.0000
0.1333 0.2667 0.0000
0.2714 0.4005 0.0000
0.3248 0.3855 0.0000
0.3776 0.3664 0.0000
0.4308 0.3437 0.0000
0.4850 0.3183 0.0000
0.5409 0.2911 0.0000
0.5990 0.2630 0.0000
0.6596 0.2350 0.0000
0.7229 0.2082 0.0000
0.7889 0.1834 0.0000
0.8573 0.1616 0.0000
0.9279 0.1435 0.0000
1.0000 0.1296 0.0000
0.0000 0.3333 0.0000
0.1502 0.4677 0.0000
0.2024 0.4528 0.0000
0.2536 0.4338 0.0000
0.3047 0.4112 0.0000
0.3567 0.3859 0.0000
0.4102 0.3588 0.0000
0.4657 0.3307 0.0000
0.5238 0.3027 0.0000
0.5847 0.2758 0.0000
0.6484 0.2510 0.0000
0.7148 0.2290 0.0000
0.7837 0.2107 0.0000
0.8545 0.1967 0.0000
0.9269 0.1876 0.0000
1.0000 0.1835 0.0000
0.0801 0.5201 0.0000
0.1297 0.5012 0.0000
0.1788 0.4788 0.0000
0.2286 0.4535 0.0000
0.2796 0.4264 0.0000
0.3326 0.3984 0.0000
0.3882 0.3704 0.0000
0.4466 0.3435 0.0000
0.5080 0.3185 0.0000
0.5724 0.2964 0.0000
0.6396 0.2780 0.0000
0.7091 0.2638 0.0000
0.7806 0.2545 0.0000
0.8534 0.2502 0.0000
0.9267 0.2513 0.0000
1.0000 0.2575 0.0000
0.0531 0.5463 0.0000
0.1006 0.5212 0.0000
0.1492 0.4941 0.0000
0.1997 0.4661 0.0000
0.2527 0.4381 0.0000
0.3086 0.4111 0.0000
0.3678 0.3861 0.0000
0.4301 0.3638 0.0000
0.4956 0.3453 0.0000
0.5638 0.3309 0.0000
0.6344 0.3214 0.0000
0.7067 0.3170 0.0000
0.7802 0.3178 0.0000
0.8540 0.3239 0.0000
0.9275 0.3350 0.0000
1.0000 0.3507 0.0000
0.0190 0.5049 0.0000
0.0670 0.5329 0.0000
0.1174 0.5609 0.0000
0.1709 0.5879 0.0000
0.2277 0.6131 0.0000
0.2880 0.6354 0.0000
0.3517 0.6541 0.0000
0.4186 0.6686 0.0000
0.4882 0.6783 0.0000
0.5601 0.6830 0.0000
0.6336 0.6823 0.0000
0.7079 0.6764 0.0000
0.7824 0.6655 0.0000
0.8563 0.6499 0.0000
0.9290 0.6302 0.0000
1.0000 0.6072 0.0000
0.0000 0.6265 0.0000
0.0333 0.6536 0.0000
0.0878 0.6789 0.0000
0.1460 0.7013 0.0000
0.2079 0.7202 0.0000
0.2734 0.7348 0.0000
0.3421 0.7447 0.0000
0.4135 0.7495 0.0000
0.4869 0.7491 0.0000
0.5618 0.7434 0.0000
0.6372 0.7327 0.0000
0.7125 0.7172 0.0000
0.7870 0.6977 0.0000
0.8600 0.6747 0.0000
0.9312 0.6491 0.0000
1.0000 0.6218 0.0000
0.0000 0.7446 0.0000
0.0041 0.7672 0.0000
0.0643 0.7862 0.0000
0.1283 0.8010 0.0000
0.1960 0.8111 0.0000
0.2669 0.8161 0.0000
0.3403 0.8159 0.0000
0.4156 0.8104 0.0000
0.4919 0.7998 0.0000
0.5686 0.7846 0.0000
0.6448 0.7652 0.0000
0.7199 0.7423 0.0000
0.7933 0.7168 0.0000
0.8646 0.6895 0.0000
0.9336 0.6614 0.0000
1.0000 0.6335 0.0000
0.0000 0.8523 0.0000
0.0000 0.8672 0.0000
0.0500 0.8775 0.0000
0.1203 0.8827 0.0000
0.1937 0.8826 0.0000
0.2693 0.8773 0.0000
0.3466 0.8669 0.0000
0.4245 0.8519 0.0000
0.5025 0.8326 0.0000
0.5796 0.8099 0.0000
0.6553 0.7844 0.0000
0.7291 0.7572 0.0000
0.8006 0.7291 0.0000
0.8695 0.7012 0.0000
0.9360 0.6744 0.0000
1.0000 0.6496 0.0000
0.0000 0.9439 0.0000
0.0000 0.9493 0.0000
0.0470 0.9494 0.0000
0.1231 0.9443 0.0000
0.2011 0.9341 0.0000
0.2804 0.9192 0.0000
0.3600 0.9000 0.0000
0.4391 0.8774 0.0000
0.5171 0.8521 0.0000
0.5934 0.8249 0.0000
0.6674 0.7968 0.0000
0.7389 0.7688 0.0000
0.8077 0.7420 0.0000
0.8740 0.7172 0.0000
0.9380 0.6953 0.0000
1.0000 0.6771 0.0000
0.0000 1.0000 0.0000
0.0000 1.0000 0.0000
0.0556 1.0000 0.0000
0.1361 0.9864 0.0000
0.2174 0.9675 0.0000
0.2985 0.9450 0.0000
0.3788 0.9197 0.0000
0.4575 0.8925 0.0000
0.5340 0.8645 0.0000
0.6080 0.8365 0.0000
0.6793 0.8096 0.0000
0.7479 0.7847 0.0000
0.8139 0.7627 0.0000
0.8775 0.7443 0.0000
0.9394 0.7303 0.0000
1.0000 0.8667 0.0000
0.0000 1.0000 0.0000
0.0000 1.0000 0.0000
0.0746 1.0000 0.0000
0.1578 1.0000 0.0000
0.2403 0.9873 0.0000
0.3214 0.9602 0.0000
0.4005 0.9322 0.0000
0.4770 0.9042 0.0000
0.5508 0.8772 0.0000
0.6216 0.8522 0.0000
0.6896 0.8301 0.0000
0.7550 0.8116 0.0000
0.8181 0.7974 0.0000
0.8667 0.9333 0.0000
0.9333 0.9333 0.0000
1.0000 0.9333 0.0000
0.0000 1.0000 0.0000
0.0169 1.0000 0.0000
0.1016 1.0000 0.0000
0.1851 1.0000 0.0000
0.2667 0.9999 0.0000
0.3458 0.9719 0.0000
0.4221 0.9449 0.0000
0.4952 0.9198 0.0000
0.5652 0.8975 0.0000
0.6323 0.8789 0.0000
0.6968 0.8645 0.0000
0.7333 1.0000 0.0000
0.8000 1.0000 0.0000
0.8667 1.0000 0.0000
0.9333 1.0000 0.0000
1.0000 1.0000 0.0000
0.0000 0.0000 0.0667
0.0667 0.0000 0.0667
0.1333 0.0000 0.0667
0.2000 0.0000 0.0667
0.2667 0.0000 0.0667
0.3333 0.0000 0.0667
0.4000 0.0000 0.0667
0.4667 0.0000 0.0667
0.5333 0.0000 0.0667
0.6000 0.0000 0.0667
0.6976 0.1393 0.0716
0.7558 0.1265 0.0712
0.8146 0.1092 0.0705
0.8745 0.0881 0.0698
0.9362 0.0639 0.0689
1.0000 0.0374 0.0680
0.0000 0.0667 0.0667
0.0667 0.0667 0.0667
0.1333 0.0667 0.0667
0.2000 0.0667 0.0667
0.2667 0.0667 0.0667
0.3333 0.0667 0.0667
0.4000 0.0667 0.0667
0.4667 0.0667 0.0667
0.5768 0.2064 0.0716
0.6339 0.1937 0.0712
0.6911 0.1766 0.0706
0.7491 0.1556 0.0698
0.8086 0.1315 0.0690
0.8701 0.1051 0.0680
0.9338 0.0773 0.0670
1.0000 0.0492 0.0660
0.0000 0.1333 0.0667
0.0667 0.1333 0.0667
0.1333 0.1333 0.0667
0.2000 0.1333 0.0667
0.2667 0.1333 0.0667
0.3333 0.1333 0.0667
0.4560 0.2734 0.0716
0.5120 0.2609 0.0712
0.5678 0.2440 0.0706
0.6239 0.2231 0.0699
0.6813 0.1991 0.0690
0.7403 0.1727 0.0681
0.8016 0.1450 0.0671
0.8652 0.1169 0.0661
0.9314 0.0893 0.0651
1.0000 0.0633 0.0642
0.0000 0.2000 0.0667
0.0667 0.2000 0.0667
0.1333 0.2000 0.0667
0.2000 0.2000 0.0667
0.3353 0.3404 0.0717
0.3903 0.3281 0.0712
0.4445 0.3113 0.0706
0.4989 0.2906 0.0699
0.5541 0.2667 0.0690
0.6108 0.2404 0.0681
0.6695 0.2127 0.0671
0.7306 0.1846 0.0661
0.7943 0.1570 0.0651
0.8605 0.1309 0.0642
0.9292 0.1072 0.0634
1.0000 0.0869 0.0626
0.0000 0.2667 0.0667
0.0667 0.2667 0.0667
0.2147 0.4075 0.0717
0.2686 0.3953 0.0712
0.3214 0.3787 0.0706
0.3740 0.3581 0.0699
0.4270 0.3343 0.0691
0.4814 0.3081 0.0681
0.5376 0.2804 0.0672
0.5962 0.2523 0.0662
0.6573 0.2246 0.0652
0.7212 0.1985 0.0642
0.7877 0.1747 0.0634
0.8567 0.1542 0.0627
0.9276 0.1377 0.0621
1.0000 0.1256 0.0617
0.0941 0.4745 0.0717
0.1471 0.4625 0.0713
0.1985 0.4460 0.0707
0.2492 0.4256 0.0699
0.3002 0.4019 0.0691
0.3522 0.3757 0.0682
0.4059 0.3481 0.0672
0.4619 0.3200 0.0662
0.5206 0.2923 0.0652
0.5821 0.2661 0.0643
0.6464 0.2422 0.0634
0.7135 0.2216 0.0627
0.7829 0.2049 0.0621
0.8542 0.1927 0.0617
0.9268 0.1854 0.0614
1.0000 0.1834 0.0613
0.0756 0.5134 0.0707
0.1246 0.4930 0.0700
0.1735 0.4694 0.0691
0.2231 0.4434 0.0682
0.2744 0.4158 0.0672
0.3279 0.3877 0.0662
0.3840 0.3600 0.0652
0.4431 0.3337 0.0643
0.5052 0.3097 0.0635
0.5704 0.2889 0.0627
0.6382 0.2721 0.0621
0.7084 0.2597 0.0617
0.7803 0.2522 0.0614
0.8533 0.2500 0.0613
0.9268 0.2531 0.0614
1.0000 0.2613 0.0617
0.0469 0.5370 0.0692
0.0943 0.5110 0.0682
0.1431 0.4835 0.0673
0.1940 0.4554 0.0663
0.2476 0.4276 0.0653
0.3043 0.4013 0.0643
0.3642 0.3772 0.0635
0.4274 0.3563 0.0627
0.4937 0.3393 0.0621
0.5627 0.3267 0.0617
0.6339 0.3191 0.0614
0.7067 0.3167 0.0613
0.7804 0.3195 0.0614
0.8543 0.3275 0.0617
0.9277 0.3405 0.0622
1.0000 0.3578 0.0628
0.0119 0.5155 0.0673
0.0603 0.5436 0.0663
0.1114 0.5714 0.0653
0.1656 0.5978 0.0644
0.2233 0.6220 0.0635
0.2846 0.6430 0.0628
0.3493 0.6602 0.0622
0.4170 0.6729 0.0617
0.4875 0.6807 0.0614
0.5600 0.6833 0.0613
0.6339 0.6807 0.0614
0.7085 0.6728 0.0617
0.7831 0.6601 0.0622
0.8569 0.6429 0.0628
0.9294 0.6218 0.0635
1.0000 0.5976 0.0644
0.0000 0.6370 0.0654
0.0271 0.6635 0.0644
0.0826 0.6878 0.0635
0.1419 0.7090 0.0628
0.2049 0.7263 0.0622
0.2715 0.7392 0.0617
0.3411 0.7472 0.0614
0.4133 0.7500 0.0613
0.4874 0.7475 0.0614
0.5627 0.7399 0.0617
0.6384 0.7273 0.0621
0.7137 0.7102 0.0627
0.7881 0.6893 0.0635
0.8609 0.6652 0.0643
0.9316 0.6389 0.0653
1.0000 0.6111 0.0663
0.0000 0.7536 0.0636
0.0000 0.7749 0.0628
0.0607 0.7924 0.0622
0.1260 0.8055 0.0617
0.1948 0.8136 0.0614
0.2667 0.8167 0.0613
0.3409 0.8144 0.0614
0.4168 0.8069 0.0617
0.4936 0.7945 0.0621
0.5704 0.7776 0.0627
0.6466 0.7568 0.0635
0.7216 0.7328 0.0643
0.7947 0.7065 0.0652
0.8656 0.6788 0.0662
0.9340 0.6507 0.0672
1.0000 0.6231 0.0682
0.0000 0.8585 0.0622
0.0000 0.8717 0.0617
0.0485 0.8801 0.0614
0.1200 0.8833 0.0613
0.1944 0.8812 0.0614
0.2708 0.8739 0.0617
0.3486 0.8617 0.0621
0.4270 0.8450 0.0627
0.5050 0.8243 0.0634
0.5821 0.8004 0.0643
0.6576 0.7742 0.0652
0.7310 0.7465 0.0662
0.8020 0.7184 0.0672
0.8705 0.6908 0.0682
0.9364 0.6646 0.0691
1.0000 0.6410 0.0700
0.0000 0.9466 0.0615
0.0000 0.9499 0.0613
0.0478 0.9481 0.0614
0.1248 0.9410 0.0617
0.2036 0.9289 0.0621
0.2834 0.9123 0.0627
0.3633 0.8918 0.0634
0.4425 0.8680 0.0642
0.5203 0.8418 0.0652
0.5962 0.8142 0.0662
0.6698 0.7861 0.0672
0.7407 0.7584 0.0681
0.8090 0.7322 0.0691
0.8748 0.7084 0.0699
0.9383 0.6879 0.0707
1.0000 0.6712 0.0712
0.0000 1.0000 0.0614
0.0000 1.0000 0.0616
0.0585 0.9961 0.0621
0.1397 0.9797 0.0626
0.2214 0.9593 0.0634
0.3027 0.9356 0.0642
0.3829 0.9095 0.0651
0.4612 0.8819 0.0661
0.5373 0.8538 0.0671
0.6108 0.8261 0.0681
0.6815 0.7998 0.0690
0.7495 0.7759 0.0699
0.8149 0.7552 0.0706
0.8781 0.7384 0.0712
0.9396 0.7262 0.0717
1.0000 0.8667 0.0667
0.0000 1.0000 0.0620
0.0000 1.0000 0.0626
0.0794 1.0000 0.0633
0.1627 1.0000 0.0642
0.2452 0.9772 0.0651
0.3261 0.9496 0.0661
0.4047 0.9215 0.0671
0.4807 0.8938 0.0681
0.5538 0.8674 0.0690
0.6240 0.8434 0.0699
0.6913 0.8226 0.0706
0.7560 0.8056 0.0712
0.8187 0.7932 0.0716
0.8667 0.9333 0.0667
0.9333 0.9333 0.0667
1.0000 0.9333 0.0667
0.0000 1.0000 0.0633
0.0226 1.0000 0.0642
0.1074 1.0000 0.0651
0.1908 1.0000 0.0661
0.2720 0.9892 0.0671
0.3505 0.9614 0.0680
0.4260 0.9350 0.0690
0.4983 0.9109 0.0698
0.5676 0.8899 0.0706
0.6339 0.8728 0.0712
0.6977 0.8602 0.0716
0.7333 1.0000 0.0667
0.8000 1.0000 0.0667
0.8667 1.0000 0.0667
0.9333 1.0000 0.0667
1.0000 1.0000 0.0667
0.0000 0.0000 0.1333
0.0667 0.0000 0.1333
0.1333 0.0000 0.1333
0.2000 0.0000 0.1333
0.2667 0.0000 0.1333
0.3333 0.0000 0.1333
0.4000 0.0000 0.1333
0.4667 0.0000 0.1333
0.5333 0.0000 0.1333
0.6000 0.0000 0.1333
0.6967 0.1350 0.1429
0.7547 0.1204 0.1419
0.8135 0.1016 0.1406
0.8737 0.0792 0.1390
0.9357 0.0540 0.1372
1.0000 0.0269 0.1352
0.0000 0.0667 0.1333
0.0667 0.0667 0.1333
0.1333 0.0667 0.1333
0.2000 0.0667 0.1333
0.2667 0.0667 0.1333
0.3333 0.0667 0.1333
0.4000 0.0667 0.1333
0.4667 0.0667 0.1333
0.5755 0.2021 0.1430
0.6323 0.1877 0.1419
0.6894 0.1690 0.1406
0.7476 0.1467 0.1390
0.8073 0.1216 0.1372
0.8691 0.0946 0.1353
0.9333 0.0666 0.1333
1.0000 0.0386 0.1313
0.0000 0.1333 0.1333
0.0667 0.1333 0.1333
0.1333 0.1333 0.1333
0.2000 0.1333 0.1333
0.2667 0.1333 0.1333
0.3333 0.1333 0.1333
0.4544 0.2692 0.1430
0.5099 0.2550 0.1420
0.5654 0.2364 0.1407
0.6216 0.2143 0.1391
0.6791 0.1893 0.1373
0.7385 0.1623 0.1354
0.8001 0.1343 0.1334
0.8643 0.1062 0.1314
0.9309 0.0792 0.1295
1.0000 0.0540 0.1277
0.0000 0.2000 0.1333
0.0667 0.2000 0.1333
0.1333 0.2000 0.1333
0.2000 0.2000 0.1333
0.3333 0.3363 0.1430
0.3877 0.3222 0.1420
0.4415 0.3038 0.1407
0.4958 0.2818 0.1392
0.5510 0.2569 0.1374
0.6080 0.2300 0.1355
0.6671 0.2020 0.1335
0.7287 0.1739 0.1315
0.7929 0.1468 0.1296
0.8597 0.1215 0.1278
0.9288 0.0990 0.1262
1.0000 0.0801 0.1248
0.0000 0.2667 0.1333
0.0667 0.2667 0.1333
0.2123 0.4034 0.1431
0.2655 0.3895 0.1421
0.3178 0.3713 0.1408
0.3701 0.3493 0.1392
0.4231 0.3245 0.1374
0.4777 0.2976 0.1355
0.5343 0.2697 0.1335
0.5933 0.2416 0.1316
0.6551 0.2144 0.1296
0.7195 0.1891 0.1278
0.7866 0.1665 0.1262
0.8561 0.1474 0.1249
0.9274 0.1325 0.1238
1.0000 0.1223 0.1231
0.0914 0.4705 0.1431
0.1435 0.4568 0.1421
0.1942 0.4387 0.1408
0.2446 0.4169 0.1393
0.2954 0.3921 0.1375
0.3475 0.3653 0.1356
0.4016 0.3374 0.1336
0.4581 0.3093 0.1316
0.5174 0.2821 0.1297
0.5796 0.2567 0.1279
0.6446 0.2339 0.1263
0.7122 0.2147 0.1249
0.7822 0.1996 0.1238
0.8539 0.1893 0.1231
0.9267 0.1840 0.1227
1.0000 0.1840 0.1227
0.0707 0.5061 0.1409
0.1192 0.4844 0.1393
0.1679 0.4597 0.1376
0.2176 0.4330 0.1357
0.2692 0.4051 0.1337
0.3231 0.3770 0.1317
0.3799 0.3497 0.1298
0.4397 0.3242 0.1279
0.5026 0.3014 0.1263
0.5685 0.2820 0.1249
0.6371 0.2668 0.1239
0.7078 0.2562 0.1231
0.7801 0.2508 0.1227
0.8534 0.2506 0.1227
0.9269 0.2556 0.1231
1.0000 0.2657 0.1238
0.0405 0.5274 0.1376
0.0878 0.5007 0.1358
0.1369 0.4728 0.1338
0.1883 0.4447 0.1318
0.2426 0.4174 0.1298
0.3000 0.3918 0.1280
0.3609 0.3688 0.1264
0.4249 0.3493 0.1250
0.4920 0.3339 0.1239
0.5617 0.3232 0.1231
0.6335 0.3176 0.1227
0.7068 0.3171 0.1227
0.7807 0.3220 0.1230
0.8547 0.3319 0.1238
0.9280 0.3466 0.1248
1.0000 0.3655 0.1261
0.0048 0.5262 0.1338
0.0536 0.5543 0.1318
0.1054 0.5817 0.1299
0.1605 0.6073 0.1281
0.2192 0.6304 0.1264
0.2815 0.6500 0.1250
0.3471 0.6656 0.1239
0.4158 0.6765 0.1232
0.4870 0.6823 0.1227
0.5601 0.6829 0.1227
0.6345 0.6783 0.1230
0.7093 0.6685 0.1237
0.7839 0.6540 0.1248
0.8576 0.6353 0.1261
0.9298 0.6129 0.1277
1.0000 0.5878 0.1295
0.0000 0.6473 0.1300
0.0212 0.6731 0.1281
0.0777 0.6963 0.1265
0.1381 0.7161 0.1251
0.2022 0.7318 0.1240
0.2699 0.7428 0.1232
0.3404 0.7489 0.1227
0.4134 0.7497 0.1227
0.4882 0.7452 0.1230
0.5638 0.7356 0.1237
0.6397 0.7213 0.1247
0.7151 0.7027 0.1260
0.7893 0.6805 0.1276
0.8617 0.6554 0.1294
0.9321 0.6284 0.1313
1.0000 0.6004 0.1333
0.0000 0.7621 0.1265
0.0000 0.7821 0.1251
0.0575 0.7979 0.1240
0.1240 0.8092 0.1232
0.1939 0.8154 0.1228
0.2668 0.8164 0.1227
0.3418 0.8121 0.1230
0.4183 0.8027 0.1237
0.4954 0.7886 0.1247
0.5724 0.7701 0.1260
0.6486 0.7480 0.1276
0.7233 0.7230 0.1293
0.7961 0.6961 0.1312
0.8665 0.6681 0.1332
0.9345 0.6400 0.1352
1.0000 0.6129 0.1372
0.0000 0.8641 0.1240
0.0000 0.8755 0.1232
0.0475 0.8819 0.1228
0.1201 0.8831 0.1227
0.1954 0.8791 0.1230
0.2727 0.8698 0.1236
0.3510 0.8558 0.1246
0.4296 0.8375 0.1259
0.5078 0.8155 0.1275
0.5847 0.7906 0.1293
0.6599 0.7638 0.1312
0.7329 0.7358 0.1332
0.8034 0.7077 0.1352
0.8714 0.6806 0.1371
0.9368 0.6553 0.1389
1.0000 0.6327 0.1405
0.0000 0.9485 0.1228
0.0000 0.9499 0.1227
0.0490 0.9460 0.1230
0.1270 0.9369 0.1236
0.2065 0.9231 0.1246
0.2867 0.9049 0.1259
0.3668 0.8831 0.1274
0.4459 0.8583 0.1292
0.5236 0.8314 0.1311
0.5991 0.8035 0.1331
0.6721 0.7754 0.1351
0.7425 0.7482 0.1370
0.8103 0.7228 0.1388
0.8755 0.7002 0.1404
0.9386 0.6810 0.1418
1.0000 0.6661 0.1429
0.0000 1.0000 0.1229
0.0000 1.0000 0.1236
0.0619 0.9904 0.1245
0.1436 0.9723 0.1258
0.2256 0.9506 0.1274
0.3070 0.9259 0.1291
0.3870 0.8991 0.1310
0.4651 0.8712 0.1330
0.5407 0.8431 0.1350
0.6135 0.8159 0.1369
0.6836 0.7904 0.1388
0.7509 0.7676 0.1404
0.8158 0.7483 0.1417
0.8785 0.7332 0.1428
0.9333 0.8667 0.1333
1.0000 0.8667 0.1333
0.0000 1.0000 0.1245
0.0005 1.0000 0.1258
0.0843 1.0000 0.1273
0.1679 0.9935 0.1291
0.2503 0.9668 0.1310
0.3309 0.9389 0.1329
0.4090 0.9108 0.1349
0.4844 0.8835 0.1369
0.5568 0.8580 0.1387
0.6262 0.8351 0.1403
0.6928 0.8156 0.1417
0.7570 0.8003 0.1428
0.8000 0.9333 0.1333
0.8667 0.9333 0.1333
0.9333 0.9333 0.1333
1.0000 0.9333 0.1333
0.0000 1.0000 0.1272
0.0286 1.0000 0.1290
0.1134 1.0000 0.1309
0.1965 1.0000 0.1329
0.2772 0.9785 0.1349
0.3550 0.9511 0.1368
0.4298 0.9255 0.1386
0.5013 0.9025 0.1403
0.5698 0.8829 0.1417
0.6353 0.8675 0.1428
0.6667 1.0000 0.1333
0.7333 1.0000 0.1333
0.8000 1.0000 0.1333
0.8667 1.0000 0.1333
0.9333 1.0000 0.1333
1.0000 1.0000 0.1333
0.0000 0.0000 0.2000
0.0667 0.0000 0.2000
0.1333 0.0000 0.2000
0.2000 0.0000 0.2000
0.2667 0.0000 0.2000
0.3333 0.0000 0.2000
0.4000 0.0000 0.2000
0.4667 0.0000 0.2000
0.5333 0.0000 0.2000
0.6378 0.1417 0.2151
0.6955 0.1300 0.2139
0.7535 0.1137 0.2121
0.8125 0.0934 0.2100
0.8729 0.0699 0.2075
0.9353 0.0438 0.2047
1.0000 0.0163 0.2017
0.0000 0.0667 0.2000
0.0667 0.0667 0.2000
0.1333 0.0667 0.2000
0.2000 0.0667 0.2000
0.2667 0.0667 0.2000
0.3333 0.0667 0.2000
0.4000 0.0667 0.2000
0.5172 0.2087 0.2151
0.5739 0.1971 0.2139
0.6305 0.1810 0.2122
0.6876 0.1609 0.2101
0.7459 0.1374 0.2075
0.8060 0.1115 0.2048
0.8682 0.0840 0.2018
0.9329 0.0558 0.1988
1.0000 0.0281 0.1959
0.0000 0.1333 0.2000
0.0667 0.1333 0.2000
0.1333 0.1333 0.2000
0.2000 0.1333 0.2000
0.2667 0.1333 0.2000
0.3966 0.2757 0.2152
0.4524 0.2643 0.2140
0.5076 0.2484 0.2123
0.5629 0.2284 0.2101
0.6191 0.2050 0.2076
0.6768 0.1791 0.2049
0.7366 0.1517 0.2020
0.7987 0.1235 0.1990
0.8633 0.0958 0.1960
0.9305 0.0693 0.1932
1.0000 0.0451 0.1906
0.0000 0.2000 0.2000
0.0667 0.2000 0.2000
0.1333 0.2000 0.2000
0.2761 0.3427 0.2152
0.3310 0.3315 0.2140
0.3848 0.3157 0.2123
0.4383 0.2958 0.2102
0.4925 0.2726 0.2077
0.5479 0.2468 0.2050
0.6052 0.2194 0.2021
0.6647 0.1912 0.1991
0.7268 0.1634 0.1961
0.7916 0.1369 0.1933
0.8589 0.1126 0.1907
0.9285 0.0914 0.1884
1.0000 0.0740 0.1866
0.0000 0.2667 0.2000
0.0667 0.2667 0.2000
0.2096 0.3987 0.2141
0.2621 0.3830 0.2124
0.3139 0.3633 0.2103
0.3660 0.3402 0.2078
0.4191 0.3145 0.2051
0.4739 0.2871 0.2022
0.5309 0.2589 0.1992
0.5905 0.2311 0.1962
0.6529 0.2045 0.1934
0.7179 0.1801 0.1908
0.7856 0.1588 0.1885
0.8555 0.1412 0.1866
0.9272 0.1280 0.1852
1.0000 0.1198 0.1843
0.0883 0.4658 0.2141
0.1395 0.4503 0.2125
0.1896 0.4308 0.2104
0.2397 0.4077 0.2079
0.2905 0.3821 0.2052
0.3429 0.3547 0.2023
0.3973 0.3266 0.1993
0.4544 0.2988 0.1963
0.5143 0.2721 0.1935
0.5771 0.2476 0.1909
0.6428 0.2261 0.1886
0.7111 0.2084 0.1867
0.7816 0.1951 0.1853
0.8536 0.1867 0.1844
0.9267 0.1834 0.1840
1.0000 0.1854 0.1842
0.0655 0.4982 0.2105
0.1135 0.4753 0.2080
0.1621 0.4497 0.2053
0.2120 0.4224 0.2024
0.2639 0.3943 0.1994
0.3184 0.3665 0.1964
0.3759 0.3397 0.1936
0.4365 0.3151 0.1909
0.5002 0.2935 0.1886
0.5668 0.2757 0.1867
0.6360 0.2622 0.1853
0.7073 0.2536 0.1844
0.7800 0.2501 0.1840
0.8535 0.2519 0.1842
0.9271 0.2589 0.1849
1.0000 0.2708 0.1862
0.0338 0.5174 0.2054
0.0813 0.4901 0.2025
0.1307 0.4620 0.1995
0.1826 0.4341 0.1965
0.2377 0.4074 0.1937
0.2960 0.3827 0.1910
0.3577 0.3609 0.1887
0.4227 0.3429 0.1868
0.4906 0.3293 0.1853
0.5610 0.3204 0.1844
0.6334 0.3168 0.1840
0.7070 0.3184 0.1842
0.7811 0.3252 0.1849
0.8551 0.3370 0.1862
0.9283 0.3533 0.1879
1.0000 0.3737 0.1901
0.0000 0.5369 0.1996
0.0471 0.5649 0.1966
0.0996 0.5917 0.1938
0.1557 0.6165 0.1911
