mpv/borders-no.cube
TITLE "glitched_lut"
LUT_3D_SIZE 6
0.0000 0.0000 0.0000
0.2000 0.0000 0.0000
0.4000 0.0000 0.0000
0.6000 0.0000 0.0000
0.8155 0.1163 0.0000
1.0000 0.0477 0.0000
0.0000 0.2000 0.0000
0.2000 0.2000 0.0000
0.4473 0.3182 0.0000
0.6135 0.2506 0.0000
0.7956 0.1674 0.0000
1.0000 0.0942 0.0000
0.0801 0.5201 0.0000
0.2286 0.4535 0.0000
0.3882 0.3704 0.0000
0.5724 0.2964 0.0000
0.7806 0.2545 0.0000
1.0000 0.2575 0.0000
0.0000 0.6265 0.0000
0.1460 0.7013 0.0000
0.3421 0.7447 0.0000
0.5618 0.7434 0.0000
0.7870 0.6977 0.0000
1.0000 0.6218 0.0000
0.0000 0.9439 0.0000
0.1231 0.9443 0.0000
0.3600 0.9000 0.0000
0.5934 0.8249 0.0000
0.8077 0.7420 0.0000
1.0000 0.6771 0.0000
0.0000 1.0000 0.0000
0.1851 1.0000 0.0000
0.4221 0.9449 0.0000
0.6323 0.8789 0.0000
0.8000 1.0000 0.0000
1.0000 1.0000 0.0000
0.0000 0.0000 0.2000
0.2000 0.0000 0.2000
0.4000 0.0000 0.2000
0.6378 0.1417 0.2151
0.8125 0.0934 0.2100
1.0000 0.0163 0.2017
0.0000 0.2000 0.2000
0.2761 0.3427 0.2152
0.4383 0.2958 0.2102
0.6052 0.2194 0.2021
0.7916 0.1369 0.1933
1.0000 0.0740 0.1866
0.0655 0.4982 0.2105
0.2120 0.4224 0.2024
0.3759 0.3397 0.1936
0.5668 0.2757 0.1867
0.7800 0.2501 0.1840
1.0000 0.2708 0.1862
0.0000 0.6574 0.1939
0.1346 0.7226 0.1869
0.3401 0.7498 0.1840
0.5651 0.7307 0.1861
0.7905 0.6712 0.1924
1.0000 0.5896 0.2011
0.0000 0.9496 0.1840
0.1295 0.9322 0.1859
0.3704 0.8739 0.1921
0.6019 0.7927 0.2008
0.8115 0.7138 0.2092
1.0000 0.6616 0.2148
0.0000 1.0000 0.1918
0.2022 0.9959 0.2004
0.4334 0.9164 0.2089
0.6366 0.8628 0.2146
0.8000 1.0000 0.2000
1.0000 1.0000 0.2000
0.0000 0.0000 0.4000
0.2000 0.0000 0.4000
0.4000 0.0000 0.4000
0.6341 0.1279 0.4273
0.8088 0.0662 0.4141
1.0000 0.0000 0.3966
0.0000 0.2000 0.4000
0.2691 0.3295 0.4276
0.4276 0.2690 0.4147
0.5966 0.1872 0.3973
0.7879 0.1093 0.3807
1.0000 0.0595 0.3700
0.0478 0.4718 0.4153
0.1948 0.3903 0.3979
0.3647 0.3118 0.3812
0.5628 0.2606 0.3703
0.7803 0.2526 0.3685
1.0000 0.2901 0.3765
0.0000 0.6856 0.3817
0.1263 0.7382 0.3705
0.3408 0.7480 0.3684
0.5701 0.7120 0.3761
0.7945 0.6414 0.3912
1.0000 0.5580 0.4090
0.0000 0.9485 0.3683
0.1392 0.9141 0.3757
0.3822 0.8444 0.3905
0.6104 0.7610 0.4083
0.8147 0.6896 0.4235
1.0000 0.8000 0.4000
0.0000 1.0000 0.3899
0.2192 0.9640 0.4077
0.4433 0.8918 0.4231
0.6000 1.0000 0.4000
0.8000 1.0000 0.4000
1.0000 1.0000 0.4000
0.0000 0.0000 0.6000
0.2000 0.0000 0.6000
0.4000 0.0000 0.6000
0.6289 0.1082 0.6346
0.8048 0.0360 0.6115
1.0000 0.0000 0.5849
0.0000 0.2000 0.6000
0.2589 0.3104 0.6353
0.4156 0.2390 0.6125
0.5882 0.1556 0.5858
0.7848 0.0859 0.5635
1.0000 0.0515 0.5525
0.0280 0.4420 0.6134
0.1779 0.3586 0.5868
0.3552 0.2880 0.5642
0.5605 0.2520 0.5526
0.7816 0.2618 0.5558
1.0000 0.3144 0.5726
0.0000 0.7099 0.5648
0.1214 0.7474 0.5528
0.3443 0.7394 0.5554
0.5765 0.6882 0.5718
0.7987 0.6097 0.5969
1.0000 0.5282 0.6230
0.0000 0.9405 0.5550
0.1516 0.8907 0.5710
0.3949 0.8128 0.5959
0.6184 0.7310 0.6221
0.8173 0.6705 0.6414
1.0000 0.8000 0.6000
0.0000 1.0000 0.5949
0.2353 0.9338 0.6212
0.4512 0.8721 0.6409
0.6000 1.0000 0.6000
0.8000 1.0000 0.6000
1.0000 1.0000 0.6000
0.0000 0.0000 0.8000
0.2000 0.0000 0.8000
0.4549 0.1372 0.8585
0.6223 0.0836 0.8357
0.8006 0.0041 0.8018
1.0000 0.0000 0.7673
0.0923 0.3384 0.8591
0.2460 0.2862 0.8368
0.4029 0.2073 0.8031
0.5803 0.1261 0.7685
0.7824 0.0678 0.7436
1.0000 0.0504 0.7362
0.0069 0.4104 0.8044
0.1620 0.3288 0.7696
0.3477 0.2693 0.7442
0.5601 0.2502 0.7361
0.7837 0.2774 0.7477
1.0000 0.3426 0.7755
0.0000 0.7292 0.7449
0.1200 0.7499 0.7360
0.3503 0.7243 0.7470
0.5839 0.6603 0.7743
0.8030 0.5776 0.8096
1.0000 0.5018 0.8419
0.0000 0.9260 0.7462
0.1663 0.8631 0.7731
0.4077 0.7806 0.8083
0.6256 0.7042 0.8409
0.8190 0.6573 0.8609
1.0000 0.8000 0.8000
0.0108 0.9837 0.8069
0.2498 0.9066 0.8399
0.4567 0.8583 0.8604
0.6000 1.0000 0.8000
0.8000 1.0000 0.8000
1.0000 1.0000 0.8000
0.0000 0.0000 1.0000
0.2000 0.0000 1.0000
0.4485 0.1211 1.0000
0.6147 0.0551 1.0000
0.7963 0.0000 0.9851
1.0000 0.0000 0.9454
0.0820 0.3229 1.0000
0.2309 0.2580 1.0000
0.3901 0.1751 0.9867
0.5733 0.1000 0.9466
0.7808 0.0557 0.9231
1.0000 0.0561 0.9233
0.0000 0.3782 0.9884
0.1479 0.3023 0.9479
0.3426 0.2566 0.9235
0.5614 0.2553 0.9228
0.7865 0.2987 0.9460
1.0000 0.3735 0.9858
0.0000 0.7425 0.9240
0.1224 0.7455 0.9224
0.3586 0.7036 0.9448
0.5921 0.6296 0.9842
0.8071 0.5465 1.0000
1.0000 0.4799 1.0000
0.0000 0.9058 0.9436
0.1826 0.8326 0.9826
0.4203 0.7494 1.0000
0.6315 0.6818 1.0000
0.8000 0.8000 1.0000
1.0000 0.8000 1.0000
0.0318 0.9523 1.0000
0.2620 0.8837 1.0000
0.4000 1.0000 1.0000
0.6000 1.0000 1.0000
0.8000 1.0000 1.0000
1.0000 1.0000 1.0000
