mpv/color_merge_000.cube
TITLE "Averaged LUT Profile"
LUT_3D_SIZE 16
DOMAIN_MIN 0 0 0
DOMAIN_MAX 1 1 1
0.696850 0.000000 0.000000
0.000000 0.560923 0.089992
0.529702 0.517161 0.000000
0.000000 0.556372 0.000000
0.870316 0.000000 0.443321
0.669072 0.506531 0.000000
0.098261 0.548261 0.000000
0.142431 0.542181 0.000000
0.533271 0.000000 0.000000
0.600000 0.000000 0.000000
0.666965 0.000000 0.000000
0.733300 0.000000 0.000000
0.800000 0.000000 0.000000
0.866900 0.000000 0.000000
0.933200 0.000000 0.000000
1.000000 0.000000 0.000000
0.510229 0.543037 0.000000
0.000000 0.229199 0.649879
0.759921 0.000000 0.642729
0.000000 0.584568 0.377342
0.266874 0.066824 0.000000
0.333220 0.066821 0.000000
0.400067 0.066817 0.000000
0.466913 0.066813 0.000000
0.533259 0.066810 0.000000
0.600106 0.066806 0.000000
0.666953 0.066803 0.000000
0.733299 0.066800 0.000000
0.800100 0.066800 0.000000
0.866900 0.066800 0.000000
0.933200 0.066800 0.000000
1.000000 0.066800 0.000000
0.623172 0.182224 0.000000
0.066823 0.133172 0.000000
0.133169 0.133169 0.000000
0.200016 0.133165 0.000000
0.266862 0.133162 0.000000
0.333208 0.133158 0.000000
0.400055 0.133155 0.000000
0.466902 0.133151 0.000000
0.533248 0.133148 0.000000
0.600094 0.133144 0.000000
0.666941 0.133141 0.000000
0.733287 0.133137 0.000000
0.800100 0.133133 0.000000
0.866900 0.133130 0.000000
0.933200 0.133126 0.000000
1.000000 0.133123 0.000000
0.000000 0.200000 0.000000
0.066811 0.200011 0.000000
0.133157 0.200007 0.000000
0.200000 0.200000 0.000000
0.266850 0.200000 0.000000
0.333196 0.199997 0.000000
0.400000 0.200000 0.000000
0.466890 0.199989 0.000000
0.533236 0.199986 0.000000
0.600000 0.200000 0.000000
0.666929 0.199979 0.000000
0.733275 0.199975 0.000000
0.800000 0.200000 0.000000
0.866900 0.199968 0.000000
0.933200 0.199965 0.000000
1.000000 0.200000 0.000000
0.000000 0.266852 0.000000
0.066800 0.266849 0.000000
0.133145 0.266845 0.000000
0.199992 0.266842 0.000000
0.266838 0.266838 0.000000
0.333184 0.266835 0.000000
0.400031 0.266831 0.000000
0.466878 0.266828 0.000000
0.533224 0.266824 0.000000
0.600070 0.266821 0.000000
0.666917 0.266817 0.000000
0.733263 0.266814 0.000000
0.800100 0.266810 0.000000
0.866900 0.266806 0.000000
0.933200 0.266803 0.000000
0.454757 0.654757 0.353507
0.000000 0.333190 0.000000
0.066800 0.333187 0.000000
0.133133 0.333183 0.000000
0.199980 0.333180 0.000000
0.266826 0.333176 0.000000
0.333173 0.333173 0.000000
0.400019 0.333169 0.000000
0.466866 0.333165 0.000000
0.533212 0.333162 0.000000
0.600058 0.333158 0.000000
0.666905 0.333155 0.000000
0.733251 0.333151 0.000000
0.800098 0.333148 0.000000
0.353119 0.703118 0.219118
0.584590 0.121840 0.621840
1.000000 0.074247 0.312359
0.000000 0.400000 0.000000
0.066800 0.400025 0.000000
0.133121 0.400021 0.000000
0.200000 0.400000 0.000000
0.266815 0.400014 0.000000
0.333161 0.400011 0.000000
0.400000 0.400000 0.000000
0.466854 0.400004 0.000000
0.533200 0.400000 0.000000
0.600000 0.400000 0.000000
0.666893 0.399993 0.000000
0.251480 0.751480 0.084730
0.439302 0.259302 0.589302
1.000000 0.114267 0.437517
0.971617 0.443746 0.000000
0.566388 0.737388 0.000000
0.000000 0.466867 0.000000
0.066800 0.466863 0.000000
0.133109 0.466860 0.000000
0.199956 0.466856 0.000000
0.266803 0.466853 0.000000
0.333149 0.466849 0.000000
0.399995 0.466845 0.000000
0.466842 0.466842 0.000000
0.533188 0.466838 0.000000
0.164873 0.793207 0.016650
0.302821 0.405571 0.552821
1.000000 0.156809 0.556808
0.930000 0.381957 0.000000
0.589485 0.765185 0.000000
0.933200 0.466817 0.000000
1.000000 0.466814 0.000000
0.000000 0.533204 0.000000
0.066800 0.533201 0.000000
0.133100 0.533197 0.000000
0.199944 0.533194 0.000000
0.266791 0.533190 0.000000
0.333137 0.533187 0.000000
0.399983 0.533183 0.000000
0.103755 0.823754 0.023400
0.166161 0.552411 0.516161
0.872633 0.211383 0.561383
0.930667 0.315098 0.000000
0.611922 0.796197 0.000000
0.800062 0.533162 0.000000
0.866900 0.533158 0.000000
0.933200 0.533155 0.000000
1.000000 0.533151 0.000000
0.000000 0.600000 0.000000
0.066800 0.600039 0.000000
0.133100 0.600036 0.000000
0.200000 0.600000 0.000000
0.266779 0.600029 0.000000
0.070867 0.857052 0.000000
0.029680 0.698680 0.479680
0.643760 0.266010 0.566010
0.941231 0.264565 0.001650
0.634367 0.826767 0.000000
0.666857 0.600007 0.000000
0.733204 0.600004 0.000000
0.800000 0.600000 0.000000
0.866897 0.599997 0.000000
0.933200 0.599993 0.000000
1.000000 0.600000 0.000000
0.000000 0.666881 0.000000
0.066800 0.666877 0.000000
0.133100 0.666874 0.000000
0.099750 0.882063 0.000000
0.000000 0.844950 0.443199
0.415584 0.320585 0.570584
0.852581 0.302582 0.000000
0.653503 0.862568 0.000000
0.533152 0.666853 0.000000
0.599999 0.666849 0.000000
0.666846 0.666846 0.000000
0.733192 0.666842 0.000000
0.800038 0.666838 0.000000
0.866885 0.666835 0.000000
0.933200 0.666831 0.000000
1.000000 0.666828 0.000000
0.000000 0.733219 0.000000
0.118635 0.913013 0.000000
0.000000 0.965792 0.380542
0.187409 0.375158 0.575159
0.744554 0.344553 0.085553
0.629762 0.885512 0.000000
0.399948 0.733197 0.000000
0.466794 0.733194 0.000000
0.533140 0.733190 0.000000
0.599987 0.733187 0.000000
0.666834 0.733183 0.000000
0.733180 0.733180 0.000000
0.800026 0.733176 0.000000
0.866873 0.733173 0.000000
0.933200 0.733169 0.000000
1.000000 0.733166 0.000000
0.000000 1.000000 0.246153
0.000000 0.429786 0.579786
0.636525 0.386525 0.210275
0.556577 0.829577 0.000000
0.080000 0.940000 0.027900
0.333089 0.800039 0.000000
0.400000 0.800000 0.000000
0.466782 0.800032 0.000000
0.533128 0.800029 0.000000
0.600000 0.800000 0.000000
0.666822 0.800021 0.000000
0.733168 0.800018 0.000000
0.800000 0.800000 0.000000
0.866861 0.800011 0.000000
0.933200 0.800007 0.000000
1.000000 0.800000 0.000000
0.528479 0.428479 0.335729
0.483391 0.773641 0.000000
0.086933 0.946667 0.000000
0.199900 0.866885 0.000000
0.266731 0.866881 0.000000
0.333077 0.866877 0.000000
0.399924 0.866874 0.000000
0.466770 0.866870 0.000000
0.533117 0.866867 0.000000
0.599963 0.866863 0.000000
0.666810 0.866860 0.000000
0.733156 0.866856 0.000000
0.800002 0.866853 0.000000
0.866849 0.866849 0.000000
0.933195 0.866846 0.000000
1.000000 0.866842 0.000000
0.079409 0.979717 0.000000
0.066800 0.933200 0.000000
0.133100 0.933200 0.000000
0.199900 0.933200 0.000000
0.266719 0.933200 0.000000
0.333065 0.933200 0.000000
0.399912 0.933200 0.000000
0.466759 0.933200 0.000000
0.533105 0.933200 0.000000
0.599951 0.933200 0.000000
0.666798 0.933197 0.000000
0.733144 0.933194 0.000000
0.799991 0.933190 0.000000
0.866837 0.933187 0.000000
0.933183 0.933183 0.000000
1.000000 0.933180 0.000000
0.000000 1.000000 0.000000
0.066800 1.000000 0.000000
0.133100 1.000000 0.000000
0.200000 1.000000 0.000000
0.266707 1.000000 0.000000
0.333053 1.000000 0.000000
0.400000 1.000000 0.000000
0.466747 1.000000 0.000000
0.533093 1.000000 0.000000
0.600000 1.000000 0.000000
0.666786 1.000000 0.000000
0.733132 1.000000 0.000000
0.800000 1.000000 0.000000
0.866825 1.000000 0.000000
1.000000 0.460905 0.024859
0.383572 0.871944 0.383572
0.000000 0.555719 0.448992
0.000000 0.563957 0.000000
0.000000 0.265914 0.682443
0.380712 0.527223 0.000000
0.199211 0.000000 0.764327
0.917617 0.000000 0.386722
0.118104 0.411127 0.618354
0.466924 0.000000 0.066824
0.533270 0.000000 0.066821
0.600117 0.000000 0.066817
0.666963 0.000000 0.066814
0.733300 0.000000 0.066810
0.800100 0.000000 0.066807
0.866900 0.000000 0.066803
0.933200 0.000000 0.066800
1.000000 0.000000 0.066800
0.000000 0.591470 0.539145
0.715238 0.000000 0.593145
0.000000 0.383886 0.645514
0.091499 0.061516 0.741749
0.266873 0.066823 0.066823
0.333219 0.066819 0.066819
0.400066 0.066816 0.066816
0.466912 0.066812 0.066812
0.533258 0.066809 0.066809
0.600105 0.066805 0.066805
0.666951 0.066802 0.066802
0.733298 0.066800 0.066800
0.800100 0.066800 0.066800
0.866900 0.066800 0.066800
0.933200 0.066800 0.066800
1.000000 0.066800 0.066800
0.000000 0.133175 0.066825
0.066822 0.133171 0.066822
0.133168 0.133168 0.066818
0.200014 0.133164 0.066815
0.266861 0.133161 0.066811
0.333207 0.133157 0.066808
0.400054 0.133154 0.066804
0.466900 0.133150 0.066800
0.533246 0.133146 0.066800
0.600093 0.133143 0.066800
0.666940 0.133139 0.066800
0.733286 0.133136 0.066800
0.800100 0.133132 0.066800
0.866900 0.133129 0.066800
0.933200 0.133125 0.066800
1.000000 0.133122 0.066800
0.000000 0.200013 0.066813
0.066810 0.200009 0.066810
0.133156 0.200006 0.066806
0.200002 0.200002 0.066803
0.266849 0.199999 0.066800
0.333195 0.199995 0.066800
0.400042 0.199992 0.066800
0.466888 0.199988 0.066800
0.533234 0.199985 0.066800
0.600081 0.199981 0.066800
0.666928 0.199978 0.066800
0.733274 0.199974 0.066800
0.800100 0.199971 0.066800
0.866900 0.199967 0.066800
0.933200 0.199963 0.066800
1.000000 0.199960 0.066800
0.000000 0.266851 0.066801
0.066800 0.266848 0.066800
0.133144 0.266844 0.066800
0.199990 0.266841 0.066800
0.266837 0.266837 0.066800
0.333183 0.266834 0.066800
0.400030 0.266830 0.066800
0.466876 0.266826 0.066800
0.533222 0.266823 0.066800
0.600069 0.266819 0.066800
0.666916 0.266816 0.066800
0.733262 0.266812 0.066800
0.800100 0.266809 0.066800
0.866900 0.266805 0.066800
0.933200 0.266802 0.066800
0.532471 0.391221 0.582471
0.000000 0.333189 0.066800
0.066800 0.333185 0.066800
0.133132 0.333182 0.066800
0.199979 0.333178 0.066800
0.266825 0.333175 0.066800
0.333171 0.333171 0.066800
0.400018 0.333168 0.066800
0.466865 0.333164 0.066800
0.533211 0.333161 0.066800
0.600057 0.333157 0.066800
0.666904 0.333154 0.066800
0.733250 0.333150 0.066800
0.800097 0.333147 0.066800
0.395811 0.538061 0.545811
0.994528 0.089278 0.639278
1.000000 0.124204 0.032667
0.000000 0.400027 0.066800
0.066800 0.400024 0.066800
0.133120 0.400020 0.066800
0.199967 0.400017 0.066800
0.266813 0.400013 0.066800
0.333159 0.400010 0.066800
0.400006 0.400006 0.066800
0.466853 0.400002 0.066800
0.533199 0.399999 0.066800
0.600045 0.399995 0.066800
0.666892 0.399992 0.066800
0.259330 0.684330 0.509330
0.765655 0.143905 0.643906
0.973333 0.154228 0.094212
0.992267 0.700357 0.003333
0.437800 0.737800 0.050550
0.000000 0.466866 0.066800
0.066800 0.466862 0.066800
0.133108 0.466858 0.066800
0.199955 0.466855 0.066800
0.266801 0.466851 0.066800
0.333147 0.466848 0.066800
0.399994 0.466844 0.066800
0.466841 0.466841 0.066800
0.533187 0.466837 0.066800
0.138006 0.788007 0.430257
0.537480 0.198480 0.648480
0.960000 0.185967 0.198792
0.966650 0.689644 0.011117
0.336162 0.786161 0.000000
0.933200 0.466816 0.066800
1.000000 0.466812 0.066800
0.000000 0.533203 0.066800
0.066800 0.533200 0.066800
0.133100 0.533196 0.066800
0.199943 0.533193 0.066800
0.266790 0.533189 0.066800
0.333136 0.533186 0.066800
0.399982 0.533182 0.066800
0.036386 0.836386 0.295136
0.309304 0.253054 0.653054
0.960000 0.219444 0.309978
0.883563 0.633355 0.016667
0.234523 0.834523 0.000000
0.800061 0.533161 0.066800
0.866900 0.533157 0.066800
0.933200 0.533154 0.066800
1.000000 0.533150 0.066800
0.000000 0.600041 0.066800
0.066800 0.600038 0.066800
0.133100 0.600034 0.066800
0.199931 0.600031 0.066800
0.266778 0.600027 0.066800
0.041333 0.863730 0.199581
0.133790 0.361040 0.633791
0.899611 0.249611 0.429361
0.832425 0.577725 0.010000
0.250895 0.854355 0.009083
0.666856 0.600006 0.066800
0.733202 0.600003 0.066800
0.800049 0.599999 0.066800
0.866896 0.599995 0.066800
0.933200 0.599992 0.066800
1.000000 0.599988 0.066800
0.000000 0.666880 0.066800
0.066800 0.666876 0.066800
0.133100 0.666873 0.066800
0.050000 0.883221 0.127597
0.000000 0.507310 0.597310
0.791564 0.291565 0.554815
0.778679 0.521788 0.003333
0.304404 0.871904 0.016667
0.533151 0.666851 0.066800
0.599998 0.666848 0.066800
0.666844 0.666844 0.066800
0.733190 0.666841 0.066800
0.800037 0.666837 0.066800
0.866884 0.666834 0.066800
0.933200 0.666830 0.066800
1.000000 0.666827 0.066800
0.000000 0.733217 0.066800
0.020000 0.912595 0.083900
0.000000 0.653578 0.560829
0.596650 0.342650 0.592650
0.714415 0.465164 0.000000
0.339893 0.898493 0.020000
0.399946 0.733196 0.066800
0.466793 0.733193 0.066800
0.533139 0.733189 0.066800
0.599986 0.733186 0.066800
0.666832 0.733182 0.066800
0.733179 0.733179 0.066800
0.800025 0.733175 0.066800
0.866872 0.733171 0.066800
0.933200 0.733168 0.066800
1.000000 0.733164 0.066800
0.000000 0.800419 0.524169
0.368474 0.397224 0.597224
0.641229 0.409229 0.000000
0.318693 0.954940 0.010983
0.266742 0.800042 0.066800
0.333088 0.800038 0.066800
0.399935 0.800034 0.066800
0.466781 0.800031 0.066800
0.533127 0.800027 0.066800
0.599974 0.800024 0.066800
0.666821 0.800020 0.066800
0.733167 0.800017 0.066800
0.800013 0.800013 0.066800
0.866860 0.800010 0.066800
0.933200 0.800006 0.066800
1.000000 0.800003 0.066800
0.537925 0.437925 0.000000
0.285698 1.000000 0.000000
0.133100 0.866887 0.066800
0.199900 0.866883 0.066800
0.266730 0.866880 0.066800
0.333076 0.866876 0.066800
0.399923 0.866873 0.066800
0.466769 0.866869 0.066800
0.533115 0.866866 0.066800
0.599962 0.866862 0.066800
0.666809 0.866859 0.066800
0.733155 0.866855 0.066800
0.800001 0.866851 0.066800
0.866848 0.866848 0.066800
0.933194 0.866844 0.066800
1.000000 0.866841 0.066800
0.000000 0.933200 0.066800
0.066800 0.933200 0.066800
0.133100 0.933200 0.066800
0.199900 0.933200 0.066800
0.266718 0.933200 0.066800
0.333064 0.933200 0.066800
0.399911 0.933200 0.066800
0.466757 0.933200 0.066800
0.533103 0.933200 0.066800
0.599950 0.933200 0.066800
0.666797 0.933196 0.066800
0.733143 0.933193 0.066800
0.799989 0.933189 0.066800
0.866836 0.933186 0.066800
0.933182 0.933182 0.066800
1.000000 0.933179 0.066800
0.000000 1.000000 0.066800
0.066800 1.000000 0.066800
0.133100 1.000000 0.066800
0.199900 1.000000 0.066800
0.266706 1.000000 0.066800
0.333052 1.000000 0.066800
0.399899 1.000000 0.066800
0.466745 1.000000 0.066800
0.533092 1.000000 0.066800
0.599938 1.000000 0.066800
0.666785 1.000000 0.066800
0.733131 1.000000 0.066800
0.799977 1.000000 0.066800
0.289682 0.877804 0.439682
0.981692 0.856513 0.018308
0.564922 1.000000 0.000000
0.686894 0.000000 0.350597
0.189604 0.540517 0.000000
0.784612 0.000000 0.139263
0.002491 0.340864 0.702241
0.872952 0.000000 0.336406
0.170019 0.094688 0.770019
0.485170 0.000000 0.790735
0.466923 0.000000 0.133173
0.533269 0.000000 0.133169
0.600116 0.000000 0.133165
0.666962 0.000000 0.133162
0.733300 0.000000 0.133158
0.800100 0.000000 0.133155
0.866900 0.000000 0.133151
0.933200 0.000000 0.133148
1.000000 0.000000 0.133144
0.033701 0.589765 0.000000
0.000000 0.306501 0.722280
0.384367 0.000000 0.785530
0.528291 0.000000 0.774553
0.266872 0.066822 0.133171
0.333218 0.066818 0.133168
0.400064 0.066815 0.133164
0.466911 0.066811 0.133161
0.533257 0.066808 0.133157
0.600104 0.066804 0.133154
0.666950 0.066800 0.133150
0.733296 0.066800 0.133146
0.800100 0.066800 0.133143
0.866900 0.066800 0.133139
0.933200 0.066800 0.133136
1.000000 0.066800 0.133132
0.000000 0.133174 0.133174
0.066820 0.133170 0.133170
0.133167 0.133167 0.133167
0.200013 0.133163 0.133163
0.266860 0.133159 0.133159
0.333206 0.133156 0.133156
0.400052 0.133152 0.133152
0.466899 0.133149 0.133149
0.533245 0.133145 0.133145
0.600092 0.133142 0.133142
0.666938 0.133138 0.133138
0.733284 0.133135 0.133135
0.800100 0.133131 0.133131
0.866900 0.133128 0.133128
0.933200 0.133124 0.133124
1.000000 0.133120 0.133120
0.000000 0.200012 0.133162
0.066809 0.200008 0.133158
0.133155 0.200005 0.133155
0.200001 0.200001 0.133151
0.266848 0.199998 0.133147
0.333194 0.199994 0.133144
0.400041 0.199991 0.133140
0.466887 0.199987 0.133137
0.533233 0.199984 0.133133
0.600080 0.199980 0.133130
0.666927 0.199976 0.133126
0.733273 0.199973 0.133123
0.800100 0.199969 0.133119
0.866900 0.199966 0.133116
0.933200 0.199962 0.133112
1.000000 0.199959 0.133109
0.000000 0.266850 0.133150
0.066800 0.266847 0.133146
0.133143 0.266843 0.133143
0.199989 0.266839 0.133139
0.266836 0.266836 0.133136
0.333182 0.266832 0.133132
0.400029 0.266829 0.133128
0.466875 0.266825 0.133125
0.533221 0.266822 0.133121
0.600068 0.266818 0.133118
0.666915 0.266815 0.133114
0.733261 0.266811 0.133111
0.800100 0.266808 0.133107
0.866900 0.266804 0.133104
0.408601 0.658601 0.344851
0.659375 0.076375 0.726374
0.000000 0.333188 0.133138
0.066800 0.333184 0.133134
0.133131 0.333181 0.133131
0.199977 0.333177 0.133127
0.266824 0.333174 0.133124
0.333170 0.333170 0.133120
0.400017 0.333167 0.133117
0.466863 0.333163 0.133113
0.533209 0.333159 0.133110
0.600056 0.333156 0.133106
0.666903 0.333152 0.133102
0.733249 0.333149 0.133100
0.306981 0.706980 0.209730
0.500100 0.199849 0.700099
1.000000 0.070724 0.523724
1.000000 0.415483 0.047500
0.000000 0.400026 0.133126
0.066800 0.400023 0.133122
0.133119 0.400019 0.133119
0.199965 0.400015 0.133115
0.266812 0.400012 0.133112
0.333158 0.400008 0.133108
0.400005 0.400005 0.133105
0.466851 0.400001 0.133101
0.533197 0.399998 0.133100
0.600044 0.399994 0.133100
0.666891 0.399991 0.133100
0.363440 0.346690 0.663440
1.000000 0.112696 0.648446
0.946667 0.364328 0.053333
0.623207 0.727922 0.005633
0.427325 0.722075 0.527325
0.000000 0.466864 0.133114
0.066800 0.466861 0.133110
0.133107 0.466857 0.133107
0.199954 0.466854 0.133103
0.266800 0.466850 0.133100
0.333146 0.466847 0.133100
0.399993 0.466843 0.133100
0.466840 0.466840 0.133100
0.533186 0.466836 0.133100
0.226959 0.492959 0.626959
0.946721 0.165971 0.665971
0.925800 0.297044 0.037100
0.643007 0.759674 0.013333
0.324327 0.774327 0.396076
0.933200 0.466815 0.133100
1.000000 0.466811 0.133100
0.000000 0.533202 0.133102
0.066800 0.533198 0.133100
0.133100 0.533195 0.133100
0.199942 0.533191 0.133100
0.266788 0.533188 0.133100
0.333134 0.533184 0.133100
0.399981 0.533181 0.133100
0.090478 0.639228 0.590478
0.718545 0.220545 0.670545
0.960000 0.226987 0.014033
0.663387 0.791412 0.020000
0.222688 0.822688 0.261688
0.800060 0.533160 0.133100
0.866900 0.533156 0.133100
0.933200 0.533152 0.133100
1.000000 0.533149 0.133100
0.000000 0.600040 0.133100
0.066800 0.600037 0.133100
0.133100 0.600033 0.133100
0.199930 0.600030 0.133100
0.266776 0.600026 0.133100
0.000000 0.786068 0.553818
0.490369 0.275119 0.675119
0.891468 0.263135 0.058201
0.685051 0.822634 0.026667
0.138945 0.863945 0.144986
0.666855 0.600005 0.133100
0.733201 0.600001 0.133100
0.800048 0.599998 0.133100
0.866894 0.599994 0.133100
0.933200 0.599991 0.133100
1.000000 0.599987 0.133100
0.000000 0.666879 0.133100
0.066800 0.666875 0.133100
0.133100 0.666871 0.133100
0.000000 0.921275 0.506274
0.261497 0.329747 0.679746
0.801010 0.301011 0.171760
0.682814 0.852948 0.006667
0.083600 0.893601 0.064550
0.533150 0.666850 0.133100
0.599996 0.666847 0.133100
0.666843 0.666843 0.133100
0.733189 0.666840 0.133100
0.800036 0.666836 0.133100
0.866882 0.666833 0.133100
0.933200 0.666829 0.133100
1.000000 0.666825 0.133100
0.000000 0.733216 0.133100
0.000000 0.969636 0.371886
0.033321 0.384321 0.684321
0.692964 0.342964 0.297214
0.607719 0.800969 0.000000
0.083333 0.917228 0.063333
0.399945 0.733195 0.133100
0.466792 0.733191 0.133100
0.533138 0.733188 0.133100
0.599985 0.733184 0.133100
0.666831 0.733181 0.133100
0.733177 0.733177 0.133100
0.800024 0.733174 0.133100
0.866871 0.733170 0.133100
0.933200 0.733167 0.133100
1.000000 0.733163 0.133100
0.000000 0.462207 0.678457
0.584936 0.384936 0.421936
0.534712 0.744462 0.000000
0.089950 0.930000 0.046667
0.266741 0.800040 0.133100
0.333087 0.800037 0.133100
0.399933 0.800033 0.133100
0.466780 0.800030 0.133100
0.533126 0.800026 0.133100
0.599973 0.800023 0.133100
0.666819 0.800019 0.133100
0.733165 0.800016 0.133100
0.800012 0.800012 0.133100
0.866859 0.800008 0.133100
0.933200 0.800005 0.133100
1.000000 0.800001 0.133100
0.461526 0.688527 0.000000
0.112748 0.950167 0.049833
0.133100 0.866886 0.133100
0.199900 0.866882 0.133100
0.266729 0.866879 0.133100
0.333075 0.866875 0.133100
0.399921 0.866872 0.133100
0.466768 0.866868 0.133100
0.533114 0.866864 0.133100
0.599961 0.866861 0.133100
0.666807 0.866857 0.133100
0.733153 0.866854 0.133100
0.800000 0.866850 0.133100
0.866847 0.866847 0.133100
0.933193 0.866843 0.133100
1.000000 0.866840 0.133100
0.000000 0.933200 0.133100
0.066800 0.933200 0.133100
0.133100 0.933200 0.133100
0.199900 0.933200 0.133100
0.266717 0.933200 0.133100
0.333063 0.933200 0.133100
0.399910 0.933200 0.133100
0.466756 0.933200 0.133100
0.533102 0.933200 0.133100
0.599949 0.933199 0.133100
0.666796 0.933195 0.133100
0.733142 0.933192 0.133100
0.799988 0.933188 0.133100
0.866835 0.933184 0.133100
0.933181 0.933181 0.133100
1.000000 0.933177 0.133100
0.000000 1.000000 0.133100
0.066800 1.000000 0.133100
0.133100 1.000000 0.133100
0.199900 1.000000 0.133100
0.266705 1.000000 0.133100
0.333051 1.000000 0.133100
0.399898 1.000000 0.133100
0.466744 1.000000 0.133100
0.533090 1.000000 0.133100
0.599937 1.000000 0.133100
0.666784 1.000000 0.133100
0.733130 1.000000 0.133100
0.799976 1.000000 0.133100
0.797047 1.000000 0.053233
1.000000 0.448430 0.530738
0.356223 0.949246 0.455973
0.678128 0.000000 0.706035
0.008396 0.027914 0.858146
0.768291 0.000000 0.801099
0.000000 0.555281 0.025048
0.147766 0.017284 0.847516
0.826212 0.000000 0.813671
0.954350 0.000000 0.786908
0.466922 0.000000 0.200022
0.533268 0.000000 0.200018
0.600000 0.000000 0.200000
0.666961 0.000000 0.200011
0.733300 0.000000 0.200007
0.800000 0.000000 0.200000
0.866900 0.000000 0.200000
0.933200 0.000000 0.199997
1.000000 0.000000 0.200000
0.000000 0.468257 0.724984
0.434400 0.000000 0.830662
0.000000 0.592075 0.220895
0.200024 0.066824 0.200024
0.266870 0.066820 0.200020
0.333216 0.066817 0.200017
0.400063 0.066813 0.200013
0.466910 0.066810 0.200010
0.533256 0.066806 0.200006
0.600102 0.066803 0.200003
0.666949 0.066800 0.199999
0.733295 0.066800 0.199995
0.800100 0.066800 0.199992
0.866900 0.066800 0.199988
0.933200 0.066800 0.199985
1.000000 0.066800 0.199981
0.000000 0.133172 0.200023
0.066819 0.133169 0.200019
0.133165 0.133165 0.200015
0.200012 0.133162 0.200012
0.266859 0.133158 0.200008
0.333205 0.133155 0.200005
0.400051 0.133151 0.200001
0.466898 0.133148 0.199998
0.533244 0.133144 0.199994
0.600091 0.133141 0.199991
0.666937 0.133137 0.199987
0.733283 0.133133 0.199984
0.800100 0.133130 0.199980
0.866900 0.133126 0.199977
0.933200 0.133123 0.199973
1.000000 0.133119 0.199969
0.000000 0.200000 0.200000
0.066807 0.200007 0.200007
0.133153 0.200004 0.200004
0.200000 0.200000 0.200000
0.266847 0.199996 0.199996
0.333193 0.199993 0.199993
0.400000 0.200000 0.200000
0.466886 0.199986 0.199986
0.533232 0.199982 0.199982
0.600000 0.200000 0.200000
0.666925 0.199975 0.199975
0.733271 0.199972 0.199972
0.800000 0.200000 0.200000
0.866900 0.199965 0.199965
0.933200 0.199961 0.199961
1.000000 0.200000 0.200000
0.000000 0.266849 0.199999
0.066800 0.266845 0.199995
0.133141 0.266842 0.199992
0.199988 0.266838 0.199988
0.266835 0.266835 0.199985
0.333181 0.266831 0.199981
0.400027 0.266828 0.199977
0.466874 0.266824 0.199974
0.533220 0.266821 0.199970
0.600067 0.266817 0.199967
0.666913 0.266813 0.199963
0.733259 0.266810 0.199960
0.800100 0.266806 0.199956
0.866900 0.266803 0.199953
0.456608 0.478609 0.656608
1.000000 0.043866 0.743866
0.000000 0.333187 0.199987
0.066800 0.333183 0.199983
0.133130 0.333180 0.199980
0.199976 0.333176 0.199976
0.266823 0.333172 0.199973
0.333169 0.333169 0.199969
0.400016 0.333165 0.199966
0.466862 0.333162 0.199962
0.533208 0.333158 0.199959
0.600055 0.333155 0.199955
0.666902 0.333151 0.199951
0.733248 0.333148 0.199948
0.320128 0.624877 0.620128
0.840441 0.098440 0.748440
0.983333 0.123409 0.174451
1.000000 0.657802 0.000000
0.000000 0.400000 0.200000
0.066800 0.400021 0.199971
0.133118 0.400018 0.199968
0.200000 0.400000 0.200000
0.266811 0.400011 0.199961
0.333157 0.400007 0.199957
0.400000 0.400000 0.200000
0.466850 0.400000 0.199950
0.533196 0.399997 0.199947
0.600000 0.400000 0.200000
0.193507 0.743507 0.555257
0.612264 0.153015 0.753015
0.960000 0.153275 0.278075
0.987033 0.662355 0.019450
0.391644 0.741644 0.041894
1.000000 0.400000 0.200000
0.000000 0.466863 0.199963
0.066800 0.466860 0.199959
0.133106 0.466856 0.199956
0.199952 0.466852 0.199952
0.266799 0.466849 0.199949
0.333145 0.466845 0.199945
