mpv/colortap.cube
#Generated by lutCreator.js
#Coded by SirSerch
#https://github.com/SirSerch/LutCreatorJs
TITLE lutCreatorJs_25
LUT_3D_SIZE 5
0.666667 0.666667 0.647059
0.141176 0.666667 0.647059
0.572549 0.666667 0.647059
0.933333 0.666667 0.647059
0.325490 0.666667 0.647059
0.666667 0.141176 0.647059
0.141176 0.141176 0.647059
0.572549 0.141176 0.647059
0.933333 0.141176 0.647059
0.325490 0.141176 0.647059
0.666667 0.572549 0.647059
0.141176 0.572549 0.647059
0.572549 0.572549 0.647059
0.933333 0.572549 0.647059
0.325490 0.572549 0.647059
0.666667 0.933333 0.647059
0.141176 0.933333 0.647059
0.572549 0.933333 0.647059
0.933333 0.933333 0.647059
0.325490 0.933333 0.647059
0.666667 0.317647 0.647059
0.141176 0.317647 0.647059
0.572549 0.317647 0.647059
0.933333 0.317647 0.647059
0.325490 0.317647 0.647059
0.666667 0.666667 0.145098
0.141176 0.666667 0.145098
0.572549 0.666667 0.145098
0.933333 0.666667 0.145098
0.325490 0.666667 0.145098
0.666667 0.141176 0.145098
0.141176 0.141176 0.145098
0.572549 0.141176 0.145098
0.933333 0.141176 0.145098
0.325490 0.141176 0.145098
0.666667 0.572549 0.145098
0.141176 0.572549 0.145098
0.572549 0.572549 0.145098
0.933333 0.572549 0.145098
0.325490 0.572549 0.145098
0.666667 0.933333 0.145098
0.141176 0.933333 0.145098
0.572549 0.933333 0.145098
0.933333 0.933333 0.145098
0.325490 0.933333 0.145098
0.666667 0.317647 0.145098
0.141176 0.317647 0.145098
0.572549 0.317647 0.145098
0.933333 0.317647 0.145098
0.325490 0.317647 0.145098
0.666667 0.666667 0.572549
0.141176 0.666667 0.572549
0.572549 0.666667 0.572549
0.933333 0.666667 0.572549
0.325490 0.666667 0.572549
0.666667 0.141176 0.572549
0.141176 0.141176 0.572549
0.572549 0.141176 0.572549
0.933333 0.141176 0.572549
0.325490 0.141176 0.572549
0.666667 0.572549 0.572549
0.141176 0.572549 0.572549
0.572549 0.572549 0.572549
0.933333 0.572549 0.572549
0.325490 0.572549 0.572549
0.666667 0.933333 0.572549
0.141176 0.933333 0.572549
0.572549 0.933333 0.572549
0.933333 0.933333 0.572549
0.325490 0.933333 0.572549
0.666667 0.317647 0.572549
0.141176 0.317647 0.572549
0.572549 0.317647 0.572549
0.933333 0.317647 0.572549
0.325490 0.317647 0.572549
0.666667 0.666667 0.933333
0.141176 0.666667 0.933333
0.572549 0.666667 0.933333
0.933333 0.666667 0.933333
0.325490 0.666667 0.933333
0.666667 0.141176 0.933333
0.141176 0.141176 0.933333
0.572549 0.141176 0.933333
0.933333 0.141176 0.933333
0.325490 0.141176 0.933333
0.666667 0.572549 0.933333
0.141176 0.572549 0.933333
0.572549 0.572549 0.933333
0.933333 0.572549 0.933333
0.325490 0.572549 0.933333
0.666667 0.933333 0.933333
0.141176 0.933333 0.933333
0.572549 0.933333 0.933333
0.933333 0.933333 0.933333
0.325490 0.933333 0.933333
0.666667 0.317647 0.933333
0.141176 0.317647 0.933333
0.572549 0.317647 0.933333
0.933333 0.317647 0.933333
0.325490 0.317647 0.933333
0.666667 0.666667 0.317647
0.141176 0.666667 0.317647
0.572549 0.666667 0.317647
0.933333 0.666667 0.317647
0.325490 0.666667 0.317647
0.666667 0.141176 0.317647
0.141176 0.141176 0.317647
0.572549 0.141176 0.317647
0.933333 0.141176 0.317647
0.325490 0.141176 0.317647
0.666667 0.572549 0.317647
0.141176 0.572549 0.317647
0.572549 0.572549 0.317647
0.933333 0.572549 0.317647
0.325490 0.572549 0.317647
0.666667 0.933333 0.317647
0.141176 0.933333 0.317647
0.572549 0.933333 0.317647
0.933333 0.933333 0.317647
0.325490 0.933333 0.317647
0.666667 0.317647 0.317647
0.141176 0.317647 0.317647
0.572549 0.317647 0.317647
0.933333 0.317647 0.317647
0.325490 0.317647 0.317647
