mpv/colortap.cube
#Generated by lutCreator.js
#Coded by SirSerch
#https://github.com/SirSerch/LutCreatorJs
TITLE lutCreatorJs_25
LUT_3D_SIZE 9
0.666667 0.666667 0.647059
0.156863 0.666667 0.647059
0.141176 0.666667 0.647059
0.329412 0.666667 0.647059
0.572549 0.666667 0.647059
0.800000 0.666667 0.647059
0.933333 0.666667 0.647059
0.560784 0.666667 0.647059
0.325490 0.666667 0.647059
0.666667 0.156863 0.647059
0.156863 0.156863 0.647059
0.141176 0.156863 0.647059
0.329412 0.156863 0.647059
0.572549 0.156863 0.647059
0.800000 0.156863 0.647059
0.933333 0.156863 0.647059
0.560784 0.156863 0.647059
0.325490 0.156863 0.647059
0.666667 0.141176 0.647059
0.156863 0.141176 0.647059
0.141176 0.141176 0.647059
0.329412 0.141176 0.647059
0.572549 0.141176 0.647059
0.800000 0.141176 0.647059
0.933333 0.141176 0.647059
0.560784 0.141176 0.647059
0.325490 0.141176 0.647059
0.666667 0.329412 0.647059
0.156863 0.329412 0.647059
0.141176 0.329412 0.647059
0.329412 0.329412 0.647059
0.572549 0.329412 0.647059
0.800000 0.329412 0.647059
0.933333 0.329412 0.647059
0.560784 0.329412 0.647059
0.325490 0.329412 0.647059
0.666667 0.572549 0.647059
0.156863 0.572549 0.647059
0.141176 0.572549 0.647059
0.329412 0.572549 0.647059
0.572549 0.572549 0.647059
0.800000 0.572549 0.647059
0.933333 0.572549 0.647059
0.560784 0.572549 0.647059
0.325490 0.572549 0.647059
0.666667 0.792157 0.647059
0.156863 0.792157 0.647059
0.141176 0.792157 0.647059
0.329412 0.792157 0.647059
0.572549 0.792157 0.647059
0.800000 0.792157 0.647059
0.933333 0.792157 0.647059
0.560784 0.792157 0.647059
0.325490 0.792157 0.647059
0.666667 0.933333 0.647059
0.156863 0.933333 0.647059
0.141176 0.933333 0.647059
0.329412 0.933333 0.647059
0.572549 0.933333 0.647059
0.800000 0.933333 0.647059
0.933333 0.933333 0.647059
0.560784 0.933333 0.647059
0.325490 0.933333 0.647059
0.666667 0.560784 0.647059
0.156863 0.560784 0.647059
0.141176 0.560784 0.647059
0.329412 0.560784 0.647059
0.572549 0.560784 0.647059
0.800000 0.560784 0.647059
0.933333 0.560784 0.647059
0.560784 0.560784 0.647059
0.325490 0.560784 0.647059
0.666667 0.317647 0.647059
0.156863 0.317647 0.647059
0.141176 0.317647 0.647059
0.329412 0.317647 0.647059
0.572549 0.317647 0.647059
0.800000 0.317647 0.647059
0.933333 0.317647 0.647059
0.560784 0.317647 0.647059
0.325490 0.317647 0.647059
0.666667 0.666667 0.149020
0.156863 0.666667 0.149020
0.141176 0.666667 0.149020
0.329412 0.666667 0.149020
0.572549 0.666667 0.149020
0.800000 0.666667 0.149020
0.933333 0.666667 0.149020
0.560784 0.666667 0.149020
0.325490 0.666667 0.149020
0.666667 0.156863 0.149020
0.156863 0.156863 0.149020
0.141176 0.156863 0.149020
0.329412 0.156863 0.149020
0.572549 0.156863 0.149020
0.800000 0.156863 0.149020
0.933333 0.156863 0.149020
0.560784 0.156863 0.149020
0.325490 0.156863 0.149020
0.666667 0.141176 0.149020
0.156863 0.141176 0.149020
0.141176 0.141176 0.149020
0.329412 0.141176 0.149020
0.572549 0.141176 0.149020
0.800000 0.141176 0.149020
0.933333 0.141176 0.149020
0.560784 0.141176 0.149020
0.325490 0.141176 0.149020
0.666667 0.329412 0.149020
0.156863 0.329412 0.149020
0.141176 0.329412 0.149020
0.329412 0.329412 0.149020
0.572549 0.329412 0.149020
0.800000 0.329412 0.149020
0.933333 0.329412 0.149020
0.560784 0.329412 0.149020
0.325490 0.329412 0.149020
0.666667 0.572549 0.149020
0.156863 0.572549 0.149020
0.141176 0.572549 0.149020
0.329412 0.572549 0.149020
0.572549 0.572549 0.149020
0.800000 0.572549 0.149020
0.933333 0.572549 0.149020
0.560784 0.572549 0.149020
0.325490 0.572549 0.149020
0.666667 0.792157 0.149020
0.156863 0.792157 0.149020
0.141176 0.792157 0.149020
0.329412 0.792157 0.149020
0.572549 0.792157 0.149020
0.800000 0.792157 0.149020
0.933333 0.792157 0.149020
0.560784 0.792157 0.149020
0.325490 0.792157 0.149020
0.666667 0.933333 0.149020
0.156863 0.933333 0.149020
0.141176 0.933333 0.149020
0.329412 0.933333 0.149020
0.572549 0.933333 0.149020
0.800000 0.933333 0.149020
0.933333 0.933333 0.149020
0.560784 0.933333 0.149020
0.325490 0.933333 0.149020
0.666667 0.560784 0.149020
0.156863 0.560784 0.149020
0.141176 0.560784 0.149020
0.329412 0.560784 0.149020
0.572549 0.560784 0.149020
0.800000 0.560784 0.149020
0.933333 0.560784 0.149020
0.560784 0.560784 0.149020
0.325490 0.560784 0.149020
0.666667 0.317647 0.149020
0.156863 0.317647 0.149020
0.141176 0.317647 0.149020
0.329412 0.317647 0.149020
0.572549 0.317647 0.149020
0.800000 0.317647 0.149020
0.933333 0.317647 0.149020
0.560784 0.317647 0.149020
0.325490 0.317647 0.149020
0.666667 0.666667 0.145098
0.156863 0.666667 0.145098
0.141176 0.666667 0.145098
0.329412 0.666667 0.145098
0.572549 0.666667 0.145098
0.800000 0.666667 0.145098
0.933333 0.666667 0.145098
0.560784 0.666667 0.145098
0.325490 0.666667 0.145098
0.666667 0.156863 0.145098
0.156863 0.156863 0.145098
0.141176 0.156863 0.145098
0.329412 0.156863 0.145098
0.572549 0.156863 0.145098
0.800000 0.156863 0.145098
0.933333 0.156863 0.145098
0.560784 0.156863 0.145098
0.325490 0.156863 0.145098
0.666667 0.141176 0.145098
0.156863 0.141176 0.145098
0.141176 0.141176 0.145098
0.329412 0.141176 0.145098
0.572549 0.141176 0.145098
0.800000 0.141176 0.145098
0.933333 0.141176 0.145098
0.560784 0.141176 0.145098
0.325490 0.141176 0.145098
0.666667 0.329412 0.145098
0.156863 0.329412 0.145098
0.141176 0.329412 0.145098
0.329412 0.329412 0.145098
0.572549 0.329412 0.145098
0.800000 0.329412 0.145098
0.933333 0.329412 0.145098
0.560784 0.329412 0.145098
0.325490 0.329412 0.145098
0.666667 0.572549 0.145098
0.156863 0.572549 0.145098
0.141176 0.572549 0.145098
0.329412 0.572549 0.145098
0.572549 0.572549 0.145098
0.800000 0.572549 0.145098
0.933333 0.572549 0.145098
0.560784 0.572549 0.145098
0.325490 0.572549 0.145098
0.666667 0.792157 0.145098
0.156863 0.792157 0.145098
0.141176 0.792157 0.145098
0.329412 0.792157 0.145098
0.572549 0.792157 0.145098
0.800000 0.792157 0.145098
0.933333 0.792157 0.145098
0.560784 0.792157 0.145098
0.325490 0.792157 0.145098
0.666667 0.933333 0.145098
0.156863 0.933333 0.145098
0.141176 0.933333 0.145098
0.329412 0.933333 0.145098
0.572549 0.933333 0.145098
0.800000 0.933333 0.145098
0.933333 0.933333 0.145098
0.560784 0.933333 0.145098
0.325490 0.933333 0.145098
0.666667 0.560784 0.145098
0.156863 0.560784 0.145098
0.141176 0.560784 0.145098
0.329412 0.560784 0.145098
0.572549 0.560784 0.145098
0.800000 0.560784 0.145098
0.933333 0.560784 0.145098
0.560784 0.560784 0.145098
0.325490 0.560784 0.145098
0.666667 0.317647 0.145098
0.156863 0.317647 0.145098
0.141176 0.317647 0.145098
0.329412 0.317647 0.145098
0.572549 0.317647 0.145098
0.800000 0.317647 0.145098
0.933333 0.317647 0.145098
0.560784 0.317647 0.145098
0.325490 0.317647 0.145098
0.666667 0.666667 0.329412
0.156863 0.666667 0.329412
0.141176 0.666667 0.329412
0.329412 0.666667 0.329412
0.572549 0.666667 0.329412
0.800000 0.666667 0.329412
0.933333 0.666667 0.329412
0.560784 0.666667 0.329412
0.325490 0.666667 0.329412
0.666667 0.156863 0.329412
0.156863 0.156863 0.329412
0.141176 0.156863 0.329412
0.329412 0.156863 0.329412
0.572549 0.156863 0.329412
0.800000 0.156863 0.329412
0.933333 0.156863 0.329412
0.560784 0.156863 0.329412
0.325490 0.156863 0.329412
0.666667 0.141176 0.329412
0.156863 0.141176 0.329412
0.141176 0.141176 0.329412
0.329412 0.141176 0.329412
0.572549 0.141176 0.329412
0.800000 0.141176 0.329412
0.933333 0.141176 0.329412
0.560784 0.141176 0.329412
0.325490 0.141176 0.329412
0.666667 0.329412 0.329412
0.156863 0.329412 0.329412
0.141176 0.329412 0.329412
0.329412 0.329412 0.329412
0.572549 0.329412 0.329412
0.800000 0.329412 0.329412
0.933333 0.329412 0.329412
0.560784 0.329412 0.329412
0.325490 0.329412 0.329412
0.666667 0.572549 0.329412
0.156863 0.572549 0.329412
0.141176 0.572549 0.329412
0.329412 0.572549 0.329412
0.572549 0.572549 0.329412
0.800000 0.572549 0.329412
0.933333 0.572549 0.329412
0.560784 0.572549 0.329412
0.325490 0.572549 0.329412
0.666667 0.792157 0.329412
0.156863 0.792157 0.329412
0.141176 0.792157 0.329412
0.329412 0.792157 0.329412
0.572549 0.792157 0.329412
0.800000 0.792157 0.329412
0.933333 0.792157 0.329412
0.560784 0.792157 0.329412
0.325490 0.792157 0.329412
0.666667 0.933333 0.329412
0.156863 0.933333 0.329412
0.141176 0.933333 0.329412
0.329412 0.933333 0.329412
0.572549 0.933333 0.329412
0.800000 0.933333 0.329412
0.933333 0.933333 0.329412
0.560784 0.933333 0.329412
0.325490 0.933333 0.329412
0.666667 0.560784 0.329412
0.156863 0.560784 0.329412
0.141176 0.560784 0.329412
0.329412 0.560784 0.329412
0.572549 0.560784 0.329412
0.800000 0.560784 0.329412
0.933333 0.560784 0.329412
0.560784 0.560784 0.329412
0.325490 0.560784 0.329412
0.666667 0.317647 0.329412
0.156863 0.317647 0.329412
0.141176 0.317647 0.329412
0.329412 0.317647 0.329412
0.572549 0.317647 0.329412
0.800000 0.317647 0.329412
0.933333 0.317647 0.329412
0.560784 0.317647 0.329412
0.325490 0.317647 0.329412
0.666667 0.666667 0.572549
0.156863 0.666667 0.572549
0.141176 0.666667 0.572549
0.329412 0.666667 0.572549
0.572549 0.666667 0.572549
0.800000 0.666667 0.572549
0.933333 0.666667 0.572549
0.560784 0.666667 0.572549
0.325490 0.666667 0.572549
0.666667 0.156863 0.572549
0.156863 0.156863 0.572549
0.141176 0.156863 0.572549
0.329412 0.156863 0.572549
0.572549 0.156863 0.572549
0.800000 0.156863 0.572549
0.933333 0.156863 0.572549
0.560784 0.156863 0.572549
0.325490 0.156863 0.572549
0.666667 0.141176 0.572549
0.156863 0.141176 0.572549
0.141176 0.141176 0.572549
0.329412 0.141176 0.572549
0.572549 0.141176 0.572549
0.800000 0.141176 0.572549
0.933333 0.141176 0.572549
0.560784 0.141176 0.572549
0.325490 0.141176 0.572549
0.666667 0.329412 0.572549
0.156863 0.329412 0.572549
0.141176 0.329412 0.572549
0.329412 0.329412 0.572549
0.572549 0.329412 0.572549
0.800000 0.329412 0.572549
0.933333 0.329412 0.572549
0.560784 0.329412 0.572549
0.325490 0.329412 0.572549
0.666667 0.572549 0.572549
0.156863 0.572549 0.572549
0.141176 0.572549 0.572549
0.329412 0.572549 0.572549
0.572549 0.572549 0.572549
0.800000 0.572549 0.572549
0.933333 0.572549 0.572549
0.560784 0.572549 0.572549
0.325490 0.572549 0.572549
0.666667 0.792157 0.572549
0.156863 0.792157 0.572549
0.141176 0.792157 0.572549
0.329412 0.792157 0.572549
0.572549 0.792157 0.572549
0.800000 0.792157 0.572549
0.933333 0.792157 0.572549
0.560784 0.792157 0.572549
0.325490 0.792157 0.572549
0.666667 0.933333 0.572549
0.156863 0.933333 0.572549
0.141176 0.933333 0.572549
0.329412 0.933333 0.572549
0.572549 0.933333 0.572549
0.800000 0.933333 0.572549
0.933333 0.933333 0.572549
0.560784 0.933333 0.572549
0.325490 0.933333 0.572549
0.666667 0.560784 0.572549
0.156863 0.560784 0.572549
0.141176 0.560784 0.572549
0.329412 0.560784 0.572549
0.572549 0.560784 0.572549
0.800000 0.560784 0.572549
0.933333 0.560784 0.572549
0.560784 0.560784 0.572549
0.325490 0.560784 0.572549
0.666667 0.317647 0.572549
0.156863 0.317647 0.572549
0.141176 0.317647 0.572549
0.329412 0.317647 0.572549
0.572549 0.317647 0.572549
0.800000 0.317647 0.572549
0.933333 0.317647 0.572549
0.560784 0.317647 0.572549
0.325490 0.317647 0.572549
0.666667 0.666667 0.800000
0.156863 0.666667 0.800000
0.141176 0.666667 0.800000
0.329412 0.666667 0.800000
0.572549 0.666667 0.800000
0.800000 0.666667 0.800000
0.933333 0.666667 0.800000
0.560784 0.666667 0.800000
0.325490 0.666667 0.800000
0.666667 0.156863 0.800000
0.156863 0.156863 0.800000
0.141176 0.156863 0.800000
0.329412 0.156863 0.800000
0.572549 0.156863 0.800000
0.800000 0.156863 0.800000
0.933333 0.156863 0.800000
0.560784 0.156863 0.800000
0.325490 0.156863 0.800000
0.666667 0.141176 0.800000
0.156863 0.141176 0.800000
0.141176 0.141176 0.800000
0.329412 0.141176 0.800000
0.572549 0.141176 0.800000
0.800000 0.141176 0.800000
0.933333 0.141176 0.800000
0.560784 0.141176 0.800000
0.325490 0.141176 0.800000
0.666667 0.329412 0.800000
0.156863 0.329412 0.800000
0.141176 0.329412 0.800000
0.329412 0.329412 0.800000
0.572549 0.329412 0.800000
0.800000 0.329412 0.800000
0.933333 0.329412 0.800000
0.560784 0.329412 0.800000
0.325490 0.329412 0.800000
0.666667 0.572549 0.800000
0.156863 0.572549 0.800000
0.141176 0.572549 0.800000
0.329412 0.572549 0.800000
0.572549 0.572549 0.800000
0.800000 0.572549 0.800000
0.933333 0.572549 0.800000
0.560784 0.572549 0.800000
0.325490 0.572549 0.800000
0.666667 0.792157 0.800000
0.156863 0.792157 0.800000
0.141176 0.792157 0.800000
0.329412 0.792157 0.800000
0.572549 0.792157 0.800000
0.800000 0.792157 0.800000
0.933333 0.792157 0.800000
0.560784 0.792157 0.800000
0.325490 0.792157 0.800000
0.666667 0.933333 0.800000
0.156863 0.933333 0.800000
0.141176 0.933333 0.800000
0.329412 0.933333 0.800000
0.572549 0.933333 0.800000
0.800000 0.933333 0.800000
0.933333 0.933333 0.800000
0.560784 0.933333 0.800000
0.325490 0.933333 0.800000
0.666667 0.560784 0.800000
0.156863 0.560784 0.800000
0.141176 0.560784 0.800000
0.329412 0.560784 0.800000
0.572549 0.560784 0.800000
0.800000 0.560784 0.800000
0.933333 0.560784 0.800000
0.560784 0.560784 0.800000
0.325490 0.560784 0.800000
0.666667 0.317647 0.800000
0.156863 0.317647 0.800000
0.141176 0.317647 0.800000
0.329412 0.317647 0.800000
0.572549 0.317647 0.800000
0.800000 0.317647 0.800000
0.933333 0.317647 0.800000
0.560784 0.317647 0.800000
0.325490 0.317647 0.800000
0.666667 0.666667 0.933333
0.156863 0.666667 0.933333
0.141176 0.666667 0.933333
0.329412 0.666667 0.933333
0.572549 0.666667 0.933333
0.800000 0.666667 0.933333
0.933333 0.666667 0.933333
0.560784 0.666667 0.933333
0.325490 0.666667 0.933333
0.666667 0.156863 0.933333
0.156863 0.156863 0.933333
0.141176 0.156863 0.933333
0.329412 0.156863 0.933333
0.572549 0.156863 0.933333
0.800000 0.156863 0.933333
0.933333 0.156863 0.933333
0.560784 0.156863 0.933333
0.325490 0.156863 0.933333
0.666667 0.141176 0.933333
0.156863 0.141176 0.933333
0.141176 0.141176 0.933333
0.329412 0.141176 0.933333
0.572549 0.141176 0.933333
0.800000 0.141176 0.933333
0.933333 0.141176 0.933333
0.560784 0.141176 0.933333
0.325490 0.141176 0.933333
0.666667 0.329412 0.933333
0.156863 0.329412 0.933333
0.141176 0.329412 0.933333
0.329412 0.329412 0.933333
0.572549 0.329412 0.933333
0.800000 0.329412 0.933333
0.933333 0.329412 0.933333
0.560784 0.329412 0.933333
0.325490 0.329412 0.933333
0.666667 0.572549 0.933333
0.156863 0.572549 0.933333
0.141176 0.572549 0.933333
0.329412 0.572549 0.933333
0.572549 0.572549 0.933333
0.800000 0.572549 0.933333
0.933333 0.572549 0.933333
0.560784 0.572549 0.933333
0.325490 0.572549 0.933333
0.666667 0.792157 0.933333
0.156863 0.792157 0.933333
0.141176 0.792157 0.933333
0.329412 0.792157 0.933333
0.572549 0.792157 0.933333
0.800000 0.792157 0.933333
0.933333 0.792157 0.933333
0.560784 0.792157 0.933333
0.325490 0.792157 0.933333
0.666667 0.933333 0.933333
0.156863 0.933333 0.933333
0.141176 0.933333 0.933333
0.329412 0.933333 0.933333
0.572549 0.933333 0.933333
0.800000 0.933333 0.933333
0.933333 0.933333 0.933333
0.560784 0.933333 0.933333
0.325490 0.933333 0.933333
0.666667 0.560784 0.933333
0.156863 0.560784 0.933333
0.141176 0.560784 0.933333
0.329412 0.560784 0.933333
0.572549 0.560784 0.933333
0.800000 0.560784 0.933333
0.933333 0.560784 0.933333
0.560784 0.560784 0.933333
0.325490 0.560784 0.933333
0.666667 0.317647 0.933333
0.156863 0.317647 0.933333
0.141176 0.317647 0.933333
0.329412 0.317647 0.933333
0.572549 0.317647 0.933333
0.800000 0.317647 0.933333
0.933333 0.317647 0.933333
0.560784 0.317647 0.933333
0.325490 0.317647 0.933333
0.666667 0.666667 0.560784
0.156863 0.666667 0.560784
0.141176 0.666667 0.560784
0.329412 0.666667 0.560784
0.572549 0.666667 0.560784
0.800000 0.666667 0.560784
0.933333 0.666667 0.560784
0.560784 0.666667 0.560784
0.325490 0.666667 0.560784
0.666667 0.156863 0.560784
0.156863 0.156863 0.560784
0.141176 0.156863 0.560784
0.329412 0.156863 0.560784
0.572549 0.156863 0.560784
0.800000 0.156863 0.560784
0.933333 0.156863 0.560784
0.560784 0.156863 0.560784
0.325490 0.156863 0.560784
0.666667 0.141176 0.560784
0.156863 0.141176 0.560784
0.141176 0.141176 0.560784
0.329412 0.141176 0.560784
0.572549 0.141176 0.560784
0.800000 0.141176 0.560784
0.933333 0.141176 0.560784
0.560784 0.141176 0.560784
0.325490 0.141176 0.560784
0.666667 0.329412 0.560784
0.156863 0.329412 0.560784
0.141176 0.329412 0.560784
0.329412 0.329412 0.560784
0.572549 0.329412 0.560784
0.800000 0.329412 0.560784
0.933333 0.329412 0.560784
0.560784 0.329412 0.560784
0.325490 0.329412 0.560784
0.666667 0.572549 0.560784
0.156863 0.572549 0.560784
0.141176 0.572549 0.560784
0.329412 0.572549 0.560784
0.572549 0.572549 0.560784
0.800000 0.572549 0.560784
0.933333 0.572549 0.560784
0.560784 0.572549 0.560784
0.325490 0.572549 0.560784
0.666667 0.792157 0.560784
0.156863 0.792157 0.560784
0.141176 0.792157 0.560784
0.329412 0.792157 0.560784
0.572549 0.792157 0.560784
0.800000 0.792157 0.560784
0.933333 0.792157 0.560784
0.560784 0.792157 0.560784
0.325490 0.792157 0.560784
0.666667 0.933333 0.560784
0.156863 0.933333 0.560784
0.141176 0.933333 0.560784
0.329412 0.933333 0.560784
0.572549 0.933333 0.560784
0.800000 0.933333 0.560784
0.933333 0.933333 0.560784
0.560784 0.933333 0.560784
0.325490 0.933333 0.560784
0.666667 0.560784 0.560784
0.156863 0.560784 0.560784
0.141176 0.560784 0.560784
0.329412 0.560784 0.560784
0.572549 0.560784 0.560784
0.800000 0.560784 0.560784
0.933333 0.560784 0.560784
0.560784 0.560784 0.560784
0.325490 0.560784 0.560784
0.666667 0.317647 0.560784
0.156863 0.317647 0.560784
0.141176 0.317647 0.560784
0.329412 0.317647 0.560784
0.572549 0.317647 0.560784
0.800000 0.317647 0.560784
0.933333 0.317647 0.560784
0.560784 0.317647 0.560784
0.325490 0.317647 0.560784
0.666667 0.666667 0.317647
0.156863 0.666667 0.317647
0.141176 0.666667 0.317647
0.329412 0.666667 0.317647
0.572549 0.666667 0.317647
0.800000 0.666667 0.317647
0.933333 0.666667 0.317647
0.560784 0.666667 0.317647
0.325490 0.666667 0.317647
0.666667 0.156863 0.317647
0.156863 0.156863 0.317647
0.141176 0.156863 0.317647
0.329412 0.156863 0.317647
0.572549 0.156863 0.317647
0.800000 0.156863 0.317647
0.933333 0.156863 0.317647
0.560784 0.156863 0.317647
0.325490 0.156863 0.317647
0.666667 0.141176 0.317647
0.156863 0.141176 0.317647
0.141176 0.141176 0.317647
0.329412 0.141176 0.317647
0.572549 0.141176 0.317647
0.800000 0.141176 0.317647
0.933333 0.141176 0.317647
0.560784 0.141176 0.317647
0.325490 0.141176 0.317647
0.666667 0.329412 0.317647
0.156863 0.329412 0.317647
0.141176 0.329412 0.317647
0.329412 0.329412 0.317647
0.572549 0.329412 0.317647
0.800000 0.329412 0.317647
0.933333 0.329412 0.317647
0.560784 0.329412 0.317647
0.325490 0.329412 0.317647
0.666667 0.572549 0.317647
0.156863 0.572549 0.317647
0.141176 0.572549 0.317647
0.329412 0.572549 0.317647
0.572549 0.572549 0.317647
0.800000 0.572549 0.317647
0.933333 0.572549 0.317647
0.560784 0.572549 0.317647
0.325490 0.572549 0.317647
0.666667 0.792157 0.317647
0.156863 0.792157 0.317647
0.141176 0.792157 0.317647
0.329412 0.792157 0.317647
0.572549 0.792157 0.317647
0.800000 0.792157 0.317647
0.933333 0.792157 0.317647
0.560784 0.792157 0.317647
0.325490 0.792157 0.317647
0.666667 0.933333 0.317647
0.156863 0.933333 0.317647
0.141176 0.933333 0.317647
0.329412 0.933333 0.317647
0.572549 0.933333 0.317647
0.800000 0.933333 0.317647
0.933333 0.933333 0.317647
0.560784 0.933333 0.317647
0.325490 0.933333 0.317647
0.666667 0.560784 0.317647
0.156863 0.560784 0.317647
0.141176 0.560784 0.317647
0.329412 0.560784 0.317647
0.572549 0.560784 0.317647
0.800000 0.560784 0.317647
0.933333 0.560784 0.317647
0.560784 0.560784 0.317647
0.325490 0.560784 0.317647
0.666667 0.317647 0.317647
0.156863 0.317647 0.317647
0.141176 0.317647 0.317647
0.329412 0.317647 0.317647
0.572549 0.317647 0.317647
0.800000 0.317647 0.317647
0.933333 0.317647 0.317647
0.560784 0.317647 0.317647
0.325490 0.317647 0.317647
