mpv/colortap_16.cube
# Generated by 16³ PNG→.cube converter
LUT_3D_SIZE 6
DOMAIN_MIN 0.0 0.0 0.0
DOMAIN_MAX 1.0 1.0 1.0
0.666667 0.666667 0.647059
0.098039 0.666667 0.647059
0.364706 0.666667 0.647059
0.760784 0.666667 0.647059
0.843137 0.666667 0.647059
0.325490 0.666667 0.647059
0.666667 0.098039 0.647059
0.098039 0.098039 0.647059
0.364706 0.098039 0.647059
0.760784 0.098039 0.647059
0.843137 0.098039 0.647059
0.325490 0.098039 0.647059
0.666667 0.372549 0.647059
0.098039 0.372549 0.647059
0.364706 0.372549 0.647059
0.760784 0.372549 0.647059
0.843137 0.372549 0.647059
0.325490 0.372549 0.647059
0.666667 0.760784 0.647059
0.098039 0.760784 0.647059
0.364706 0.760784 0.647059
0.760784 0.760784 0.647059
0.843137 0.760784 0.647059
0.325490 0.760784 0.647059
0.666667 0.843137 0.647059
0.098039 0.843137 0.647059
0.364706 0.843137 0.647059
0.760784 0.843137 0.647059
0.843137 0.843137 0.647059
0.325490 0.843137 0.647059
0.666667 0.317647 0.647059
0.098039 0.317647 0.647059
0.364706 0.317647 0.647059
0.760784 0.317647 0.647059
0.843137 0.317647 0.647059
0.325490 0.317647 0.647059
0.666667 0.666667 0.101961
0.098039 0.666667 0.101961
0.364706 0.666667 0.101961
0.760784 0.666667 0.101961
0.843137 0.666667 0.101961
0.325490 0.666667 0.101961
0.666667 0.098039 0.101961
0.098039 0.098039 0.101961
0.364706 0.098039 0.101961
0.760784 0.098039 0.101961
0.843137 0.098039 0.101961
0.325490 0.098039 0.101961
0.666667 0.372549 0.101961
0.098039 0.372549 0.101961
0.364706 0.372549 0.101961
0.760784 0.372549 0.101961
0.843137 0.372549 0.101961
0.325490 0.372549 0.101961
0.666667 0.760784 0.101961
0.098039 0.760784 0.101961
0.364706 0.760784 0.101961
0.760784 0.760784 0.101961
0.843137 0.760784 0.101961
0.325490 0.760784 0.101961
0.666667 0.843137 0.101961
0.098039 0.843137 0.101961
0.364706 0.843137 0.101961
0.760784 0.843137 0.101961
0.843137 0.843137 0.101961
0.325490 0.843137 0.101961
0.666667 0.317647 0.101961
0.098039 0.317647 0.101961
0.364706 0.317647 0.101961
0.760784 0.317647 0.101961
0.843137 0.317647 0.101961
0.325490 0.317647 0.101961
0.666667 0.666667 0.372549
0.098039 0.666667 0.372549
0.364706 0.666667 0.372549
0.760784 0.666667 0.372549
0.843137 0.666667 0.372549
0.325490 0.666667 0.372549
0.666667 0.098039 0.372549
0.098039 0.098039 0.372549
0.364706 0.098039 0.372549
0.760784 0.098039 0.372549
0.843137 0.098039 0.372549
0.325490 0.098039 0.372549
0.666667 0.372549 0.372549
0.098039 0.372549 0.372549
0.364706 0.372549 0.372549
0.760784 0.372549 0.372549
0.843137 0.372549 0.372549
0.325490 0.372549 0.372549
0.666667 0.760784 0.372549
0.098039 0.760784 0.372549
0.364706 0.760784 0.372549
0.760784 0.760784 0.372549
0.843137 0.760784 0.372549
0.325490 0.760784 0.372549
0.666667 0.843137 0.372549
0.098039 0.843137 0.372549
0.364706 0.843137 0.372549
0.760784 0.843137 0.372549
0.843137 0.843137 0.372549
0.325490 0.843137 0.372549
0.666667 0.317647 0.372549
0.098039 0.317647 0.372549
0.364706 0.317647 0.372549
0.760784 0.317647 0.372549
0.843137 0.317647 0.372549
0.325490 0.317647 0.372549
0.666667 0.666667 0.760784
0.098039 0.666667 0.760784
0.364706 0.666667 0.760784
0.760784 0.666667 0.760784
0.843137 0.666667 0.760784
0.325490 0.666667 0.760784
0.666667 0.098039 0.760784
0.098039 0.098039 0.760784
0.364706 0.098039 0.760784
0.760784 0.098039 0.760784
0.843137 0.098039 0.760784
0.325490 0.098039 0.760784
0.666667 0.372549 0.760784
0.098039 0.372549 0.760784
0.364706 0.372549 0.760784
0.760784 0.372549 0.760784
0.843137 0.372549 0.760784
0.325490 0.372549 0.760784
0.666667 0.760784 0.760784
0.098039 0.760784 0.760784
0.364706 0.760784 0.760784
0.760784 0.760784 0.760784
0.843137 0.760784 0.760784
0.325490 0.760784 0.760784
0.666667 0.843137 0.760784
0.098039 0.843137 0.760784
0.364706 0.843137 0.760784
0.760784 0.843137 0.760784
0.843137 0.843137 0.760784
0.325490 0.843137 0.760784
0.666667 0.317647 0.760784
0.098039 0.317647 0.760784
0.364706 0.317647 0.760784
0.760784 0.317647 0.760784
0.843137 0.317647 0.760784
0.325490 0.317647 0.760784
0.666667 0.666667 0.843137
0.098039 0.666667 0.843137
0.364706 0.666667 0.843137
0.760784 0.666667 0.843137
0.843137 0.666667 0.843137
0.325490 0.666667 0.843137
0.666667 0.098039 0.843137
0.098039 0.098039 0.843137
0.364706 0.098039 0.843137
0.760784 0.098039 0.843137
0.843137 0.098039 0.843137
0.325490 0.098039 0.843137
0.666667 0.372549 0.843137
0.098039 0.372549 0.843137
0.364706 0.372549 0.843137
0.760784 0.372549 0.843137
0.843137 0.372549 0.843137
0.325490 0.372549 0.843137
0.666667 0.760784 0.843137
0.098039 0.760784 0.843137
0.364706 0.760784 0.843137
0.760784 0.760784 0.843137
0.843137 0.760784 0.843137
0.325490 0.760784 0.843137
0.666667 0.843137 0.843137
0.098039 0.843137 0.843137
0.364706 0.843137 0.843137
0.760784 0.843137 0.843137
0.843137 0.843137 0.843137
0.325490 0.843137 0.843137
0.666667 0.317647 0.843137
0.098039 0.317647 0.843137
0.364706 0.317647 0.843137
0.760784 0.317647 0.843137
0.843137 0.317647 0.843137
0.325490 0.317647 0.843137
0.666667 0.666667 0.317647
0.098039 0.666667 0.317647
0.364706 0.666667 0.317647
0.760784 0.666667 0.317647
0.843137 0.666667 0.317647
0.325490 0.666667 0.317647
0.666667 0.098039 0.317647
0.098039 0.098039 0.317647
0.364706 0.098039 0.317647
0.760784 0.098039 0.317647
0.843137 0.098039 0.317647
0.325490 0.098039 0.317647
0.666667 0.372549 0.317647
0.098039 0.372549 0.317647
0.364706 0.372549 0.317647
0.760784 0.372549 0.317647
0.843137 0.372549 0.317647
0.325490 0.372549 0.317647
0.666667 0.760784 0.317647
0.098039 0.760784 0.317647
0.364706 0.760784 0.317647
0.760784 0.760784 0.317647
0.843137 0.760784 0.317647
0.325490 0.760784 0.317647
0.666667 0.843137 0.317647
0.098039 0.843137 0.317647
0.364706 0.843137 0.317647
0.760784 0.843137 0.317647
0.843137 0.843137 0.317647
0.325490 0.843137 0.317647
0.666667 0.317647 0.317647
0.098039 0.317647 0.317647
0.364706 0.317647 0.317647
0.760784 0.317647 0.317647
0.843137 0.317647 0.317647
0.325490 0.317647 0.317647
