mpv/colortap_big.cube
#Generated by wwww.onlinelutcreator.com 
LUT_3D_SIZE 8 
DOMAIN_MIN 0.000000 0.000000 0.000000
DOMAIN_MAX 0.903226 0.903226 0.903226
0.666667 0.666667 0.647059
0.156863 0.666667 0.647059
0.141176 0.666667 0.647059
0.329412 0.666667 0.647059
0.572549 0.666667 0.647059
0.803922 0.666667 0.647059
0.933333 0.666667 0.647059
0.549020 0.666667 0.647059
0.666667 0.156863 0.647059
0.156863 0.156863 0.647059
0.141176 0.156863 0.647059
0.329412 0.156863 0.647059
0.572549 0.156863 0.647059
0.803922 0.156863 0.647059
0.933333 0.156863 0.647059
0.549020 0.156863 0.647059
0.666667 0.141176 0.647059
0.156863 0.141176 0.647059
0.141176 0.141176 0.647059
0.329412 0.141176 0.647059
0.572549 0.141176 0.647059
0.803922 0.141176 0.647059
0.933333 0.141176 0.647059
0.549020 0.141176 0.647059
0.666667 0.329412 0.647059
0.156863 0.329412 0.647059
0.141176 0.329412 0.647059
0.329412 0.329412 0.647059
0.572549 0.329412 0.647059
0.803922 0.329412 0.647059
0.933333 0.329412 0.647059
0.549020 0.329412 0.647059
0.666667 0.572549 0.647059
0.156863 0.572549 0.647059
0.141176 0.572549 0.647059
0.329412 0.572549 0.647059
0.572549 0.572549 0.647059
0.803922 0.572549 0.647059
0.933333 0.572549 0.647059
0.549020 0.572549 0.647059
0.666667 0.803922 0.647059
0.156863 0.803922 0.647059
0.141176 0.803922 0.647059
0.329412 0.803922 0.647059
0.572549 0.803922 0.647059
0.803922 0.803922 0.647059
0.933333 0.803922 0.647059
0.549020 0.803922 0.647059
0.666667 0.933333 0.647059
0.156863 0.933333 0.647059
0.141176 0.933333 0.647059
0.329412 0.933333 0.647059
0.572549 0.933333 0.647059
0.803922 0.933333 0.647059
0.933333 0.933333 0.647059
0.549020 0.933333 0.647059
0.666667 0.549020 0.647059
0.156863 0.549020 0.647059
0.141176 0.549020 0.647059
0.329412 0.549020 0.647059
0.572549 0.549020 0.647059
0.803922 0.549020 0.647059
0.933333 0.549020 0.647059
0.549020 0.549020 0.647059
0.666667 0.666667 0.149020
0.156863 0.666667 0.149020
0.141176 0.666667 0.149020
0.329412 0.666667 0.149020
0.572549 0.666667 0.149020
0.803922 0.666667 0.149020
0.933333 0.666667 0.149020
0.549020 0.666667 0.149020
0.666667 0.156863 0.149020
0.156863 0.156863 0.149020
0.141176 0.156863 0.149020
0.329412 0.156863 0.149020
0.572549 0.156863 0.149020
0.803922 0.156863 0.149020
0.933333 0.156863 0.149020
0.549020 0.156863 0.149020
0.666667 0.141176 0.149020
0.156863 0.141176 0.149020
0.141176 0.141176 0.149020
0.329412 0.141176 0.149020
0.572549 0.141176 0.149020
0.803922 0.141176 0.149020
0.933333 0.141176 0.149020
0.549020 0.141176 0.149020
0.666667 0.329412 0.149020
0.156863 0.329412 0.149020
0.141176 0.329412 0.149020
0.329412 0.329412 0.149020
0.572549 0.329412 0.149020
0.803922 0.329412 0.149020
0.933333 0.329412 0.149020
0.549020 0.329412 0.149020
0.666667 0.572549 0.149020
0.156863 0.572549 0.149020
0.141176 0.572549 0.149020
0.329412 0.572549 0.149020
0.572549 0.572549 0.149020
0.803922 0.572549 0.149020
0.933333 0.572549 0.149020
0.549020 0.572549 0.149020
0.666667 0.803922 0.149020
0.156863 0.803922 0.149020
0.141176 0.803922 0.149020
0.329412 0.803922 0.149020
0.572549 0.803922 0.149020
0.803922 0.803922 0.149020
0.933333 0.803922 0.149020
0.549020 0.803922 0.149020
0.666667 0.933333 0.149020
0.156863 0.933333 0.149020
0.141176 0.933333 0.149020
0.329412 0.933333 0.149020
0.572549 0.933333 0.149020
0.803922 0.933333 0.149020
0.933333 0.933333 0.149020
0.549020 0.933333 0.149020
0.666667 0.549020 0.149020
0.156863 0.549020 0.149020
0.141176 0.549020 0.149020
0.329412 0.549020 0.149020
0.572549 0.549020 0.149020
0.803922 0.549020 0.149020
0.933333 0.549020 0.149020
0.549020 0.549020 0.149020
0.666667 0.666667 0.145098
0.156863 0.666667 0.145098
0.141176 0.666667 0.145098
0.329412 0.666667 0.145098
0.572549 0.666667 0.145098
0.803922 0.666667 0.145098
0.933333 0.666667 0.145098
0.549020 0.666667 0.145098
0.666667 0.156863 0.145098
0.156863 0.156863 0.145098
0.141176 0.156863 0.145098
0.329412 0.156863 0.145098
0.572549 0.156863 0.145098
0.803922 0.156863 0.145098
0.933333 0.156863 0.145098
0.549020 0.156863 0.145098
0.666667 0.141176 0.145098
0.156863 0.141176 0.145098
0.141176 0.141176 0.145098
0.329412 0.141176 0.145098
0.572549 0.141176 0.145098
0.803922 0.141176 0.145098
0.933333 0.141176 0.145098
0.549020 0.141176 0.145098
0.666667 0.329412 0.145098
0.156863 0.329412 0.145098
0.141176 0.329412 0.145098
0.329412 0.329412 0.145098
0.572549 0.329412 0.145098
0.803922 0.329412 0.145098
0.933333 0.329412 0.145098
0.549020 0.329412 0.145098
0.666667 0.572549 0.145098
0.156863 0.572549 0.145098
0.141176 0.572549 0.145098
0.329412 0.572549 0.145098
0.572549 0.572549 0.145098
0.803922 0.572549 0.145098
0.933333 0.572549 0.145098
0.549020 0.572549 0.145098
0.666667 0.803922 0.145098
0.156863 0.803922 0.145098
0.141176 0.803922 0.145098
0.329412 0.803922 0.145098
0.572549 0.803922 0.145098
0.803922 0.803922 0.145098
0.933333 0.803922 0.145098
0.549020 0.803922 0.145098
0.666667 0.933333 0.145098
0.156863 0.933333 0.145098
0.141176 0.933333 0.145098
0.329412 0.933333 0.145098
0.572549 0.933333 0.145098
0.803922 0.933333 0.145098
0.933333 0.933333 0.145098
0.549020 0.933333 0.145098
0.666667 0.549020 0.145098
0.156863 0.549020 0.145098
0.141176 0.549020 0.145098
0.329412 0.549020 0.145098
0.572549 0.549020 0.145098
0.803922 0.549020 0.145098
0.933333 0.549020 0.145098
0.549020 0.549020 0.145098
0.666667 0.666667 0.329412
0.156863 0.666667 0.329412
0.141176 0.666667 0.329412
0.329412 0.666667 0.329412
0.572549 0.666667 0.329412
0.803922 0.666667 0.329412
0.933333 0.666667 0.329412
0.549020 0.666667 0.329412
0.666667 0.156863 0.329412
0.156863 0.156863 0.329412
0.141176 0.156863 0.329412
0.329412 0.156863 0.329412
0.572549 0.156863 0.329412
0.803922 0.156863 0.329412
0.933333 0.156863 0.329412
0.549020 0.156863 0.329412
0.666667 0.141176 0.329412
0.156863 0.141176 0.329412
0.141176 0.141176 0.329412
0.329412 0.141176 0.329412
0.572549 0.141176 0.329412
0.803922 0.141176 0.329412
0.933333 0.141176 0.329412
0.549020 0.141176 0.329412
0.666667 0.329412 0.329412
0.156863 0.329412 0.329412
0.141176 0.329412 0.329412
0.329412 0.329412 0.329412
0.572549 0.329412 0.329412
0.803922 0.329412 0.329412
0.933333 0.329412 0.329412
0.549020 0.329412 0.329412
0.666667 0.572549 0.329412
0.156863 0.572549 0.329412
0.141176 0.572549 0.329412
0.329412 0.572549 0.329412
0.572549 0.572549 0.329412
0.803922 0.572549 0.329412
0.933333 0.572549 0.329412
0.549020 0.572549 0.329412
0.666667 0.803922 0.329412
0.156863 0.803922 0.329412
0.141176 0.803922 0.329412
0.329412 0.803922 0.329412
0.572549 0.803922 0.329412
0.803922 0.803922 0.329412
0.933333 0.803922 0.329412
0.549020 0.803922 0.329412
0.666667 0.933333 0.329412
0.156863 0.933333 0.329412
0.141176 0.933333 0.329412
0.329412 0.933333 0.329412
0.572549 0.933333 0.329412
0.803922 0.933333 0.329412
0.933333 0.933333 0.329412
0.549020 0.933333 0.329412
0.666667 0.549020 0.329412
0.156863 0.549020 0.329412
0.141176 0.549020 0.329412
0.329412 0.549020 0.329412
0.572549 0.549020 0.329412
0.803922 0.549020 0.329412
0.933333 0.549020 0.329412
0.549020 0.549020 0.329412
0.666667 0.666667 0.572549
0.156863 0.666667 0.572549
0.141176 0.666667 0.572549
0.329412 0.666667 0.572549
0.572549 0.666667 0.572549
0.803922 0.666667 0.572549
0.933333 0.666667 0.572549
0.549020 0.666667 0.572549
0.666667 0.156863 0.572549
0.156863 0.156863 0.572549
0.141176 0.156863 0.572549
0.329412 0.156863 0.572549
0.572549 0.156863 0.572549
0.803922 0.156863 0.572549
0.933333 0.156863 0.572549
0.549020 0.156863 0.572549
0.666667 0.141176 0.572549
0.156863 0.141176 0.572549
0.141176 0.141176 0.572549
0.329412 0.141176 0.572549
0.572549 0.141176 0.572549
0.803922 0.141176 0.572549
0.933333 0.141176 0.572549
0.549020 0.141176 0.572549
0.666667 0.329412 0.572549
0.156863 0.329412 0.572549
0.141176 0.329412 0.572549
0.329412 0.329412 0.572549
0.572549 0.329412 0.572549
0.803922 0.329412 0.572549
0.933333 0.329412 0.572549
0.549020 0.329412 0.572549
0.666667 0.572549 0.572549
0.156863 0.572549 0.572549
0.141176 0.572549 0.572549
0.329412 0.572549 0.572549
0.572549 0.572549 0.572549
0.803922 0.572549 0.572549
0.933333 0.572549 0.572549
0.549020 0.572549 0.572549
0.666667 0.803922 0.572549
0.156863 0.803922 0.572549
0.141176 0.803922 0.572549
0.329412 0.803922 0.572549
0.572549 0.803922 0.572549
0.803922 0.803922 0.572549
0.933333 0.803922 0.572549
0.549020 0.803922 0.572549
0.666667 0.933333 0.572549
0.156863 0.933333 0.572549
0.141176 0.933333 0.572549
0.329412 0.933333 0.572549
0.572549 0.933333 0.572549
0.803922 0.933333 0.572549
0.933333 0.933333 0.572549
0.549020 0.933333 0.572549
0.666667 0.549020 0.572549
0.156863 0.549020 0.572549
0.141176 0.549020 0.572549
0.329412 0.549020 0.572549
0.572549 0.549020 0.572549
0.803922 0.549020 0.572549
0.933333 0.549020 0.572549
0.549020 0.549020 0.572549
0.666667 0.666667 0.803922
0.156863 0.666667 0.803922
0.141176 0.666667 0.803922
0.329412 0.666667 0.803922
0.572549 0.666667 0.803922
0.803922 0.666667 0.803922
0.933333 0.666667 0.803922
0.549020 0.666667 0.803922
0.666667 0.156863 0.803922
0.156863 0.156863 0.803922
0.141176 0.156863 0.803922
0.329412 0.156863 0.803922
0.572549 0.156863 0.803922
0.803922 0.156863 0.803922
0.933333 0.156863 0.803922
0.549020 0.156863 0.803922
0.666667 0.141176 0.803922
0.156863 0.141176 0.803922
0.141176 0.141176 0.803922
0.329412 0.141176 0.803922
0.572549 0.141176 0.803922
0.803922 0.141176 0.803922
0.933333 0.141176 0.803922
0.549020 0.141176 0.803922
0.666667 0.329412 0.803922
0.156863 0.329412 0.803922
0.141176 0.329412 0.803922
0.329412 0.329412 0.803922
0.572549 0.329412 0.803922
0.803922 0.329412 0.803922
0.933333 0.329412 0.803922
0.549020 0.329412 0.803922
0.666667 0.572549 0.803922
0.156863 0.572549 0.803922
0.141176 0.572549 0.803922
0.329412 0.572549 0.803922
0.572549 0.572549 0.803922
0.803922 0.572549 0.803922
0.933333 0.572549 0.803922
0.549020 0.572549 0.803922
0.666667 0.803922 0.803922
0.156863 0.803922 0.803922
0.141176 0.803922 0.803922
0.329412 0.803922 0.803922
0.572549 0.803922 0.803922
0.803922 0.803922 0.803922
0.933333 0.803922 0.803922
0.549020 0.803922 0.803922
0.666667 0.933333 0.803922
0.156863 0.933333 0.803922
0.141176 0.933333 0.803922
0.329412 0.933333 0.803922
0.572549 0.933333 0.803922
0.803922 0.933333 0.803922
0.933333 0.933333 0.803922
0.549020 0.933333 0.803922
0.666667 0.549020 0.803922
0.156863 0.549020 0.803922
0.141176 0.549020 0.803922
0.329412 0.549020 0.803922
0.572549 0.549020 0.803922
0.803922 0.549020 0.803922
0.933333 0.549020 0.803922
0.549020 0.549020 0.803922
0.666667 0.666667 0.933333
0.156863 0.666667 0.933333
0.141176 0.666667 0.933333
0.329412 0.666667 0.933333
0.572549 0.666667 0.933333
0.803922 0.666667 0.933333
0.933333 0.666667 0.933333
0.549020 0.666667 0.933333
0.666667 0.156863 0.933333
0.156863 0.156863 0.933333
0.141176 0.156863 0.933333
0.329412 0.156863 0.933333
0.572549 0.156863 0.933333
0.803922 0.156863 0.933333
0.933333 0.156863 0.933333
0.549020 0.156863 0.933333
0.666667 0.141176 0.933333
0.156863 0.141176 0.933333
0.141176 0.141176 0.933333
0.329412 0.141176 0.933333
0.572549 0.141176 0.933333
0.803922 0.141176 0.933333
0.933333 0.141176 0.933333
0.549020 0.141176 0.933333
0.666667 0.329412 0.933333
0.156863 0.329412 0.933333
0.141176 0.329412 0.933333
0.329412 0.329412 0.933333
0.572549 0.329412 0.933333
0.803922 0.329412 0.933333
0.933333 0.329412 0.933333
0.549020 0.329412 0.933333
0.666667 0.572549 0.933333
0.156863 0.572549 0.933333
0.141176 0.572549 0.933333
0.329412 0.572549 0.933333
0.572549 0.572549 0.933333
0.803922 0.572549 0.933333
0.933333 0.572549 0.933333
0.549020 0.572549 0.933333
0.666667 0.803922 0.933333
0.156863 0.803922 0.933333
0.141176 0.803922 0.933333
0.329412 0.803922 0.933333
0.572549 0.803922 0.933333
0.803922 0.803922 0.933333
0.933333 0.803922 0.933333
0.549020 0.803922 0.933333
0.666667 0.933333 0.933333
0.156863 0.933333 0.933333
0.141176 0.933333 0.933333
0.329412 0.933333 0.933333
0.572549 0.933333 0.933333
0.803922 0.933333 0.933333
0.933333 0.933333 0.933333
0.549020 0.933333 0.933333
0.666667 0.549020 0.933333
0.156863 0.549020 0.933333
0.141176 0.549020 0.933333
0.329412 0.549020 0.933333
0.572549 0.549020 0.933333
0.803922 0.549020 0.933333
0.933333 0.549020 0.933333
0.549020 0.549020 0.933333
0.666667 0.666667 0.549020
0.156863 0.666667 0.549020
0.141176 0.666667 0.549020
0.329412 0.666667 0.549020
0.572549 0.666667 0.549020
0.803922 0.666667 0.549020
0.933333 0.666667 0.549020
0.549020 0.666667 0.549020
0.666667 0.156863 0.549020
0.156863 0.156863 0.549020
0.141176 0.156863 0.549020
0.329412 0.156863 0.549020
0.572549 0.156863 0.549020
0.803922 0.156863 0.549020
0.933333 0.156863 0.549020
0.549020 0.156863 0.549020
0.666667 0.141176 0.549020
0.156863 0.141176 0.549020
0.141176 0.141176 0.549020
0.329412 0.141176 0.549020
0.572549 0.141176 0.549020
0.803922 0.141176 0.549020
0.933333 0.141176 0.549020
0.549020 0.141176 0.549020
0.666667 0.329412 0.549020
0.156863 0.329412 0.549020
0.141176 0.329412 0.549020
0.329412 0.329412 0.549020
0.572549 0.329412 0.549020
0.803922 0.329412 0.549020
0.933333 0.329412 0.549020
0.549020 0.329412 0.549020
0.666667 0.572549 0.549020
0.156863 0.572549 0.549020
0.141176 0.572549 0.549020
0.329412 0.572549 0.549020
0.572549 0.572549 0.549020
0.803922 0.572549 0.549020
0.933333 0.572549 0.549020
0.549020 0.572549 0.549020
0.666667 0.803922 0.549020
0.156863 0.803922 0.549020
0.141176 0.803922 0.549020
0.329412 0.803922 0.549020
0.572549 0.803922 0.549020
0.803922 0.803922 0.549020
0.933333 0.803922 0.549020
0.549020 0.803922 0.549020
0.666667 0.933333 0.549020
0.156863 0.933333 0.549020
0.141176 0.933333 0.549020
0.329412 0.933333 0.549020
0.572549 0.933333 0.549020
0.803922 0.933333 0.549020
0.933333 0.933333 0.549020
0.549020 0.933333 0.549020
0.666667 0.549020 0.549020
0.156863 0.549020 0.549020
0.141176 0.549020 0.549020
0.329412 0.549020 0.549020
0.572549 0.549020 0.549020
0.803922 0.549020 0.549020
0.933333 0.549020 0.549020
0.549020 0.549020 0.549020
