mpv/colortap.cube
#Generated by lutCreator.js
#Coded by SirSerch
#https://github.com/SirSerch/LutCreatorJs
TITLE lutCreatorJs_25
LUT_3D_SIZE 25
0.666667 0.666667 0.647059
0.450980 0.666667 0.647059
0.282353 0.666667 0.647059
0.156863 0.666667 0.647059
0.090196 0.666667 0.647059
0.105882 0.666667 0.647059
0.141176 0.666667 0.647059
0.188235 0.666667 0.647059
0.250980 0.666667 0.647059
0.329412 0.666667 0.647059
0.403922 0.666667 0.647059
0.482353 0.666667 0.647059
0.572549 0.666667 0.647059
0.650980 0.666667 0.647059
0.733333 0.666667 0.647059
0.800000 0.666667 0.647059
0.862745 0.666667 0.647059
0.909804 0.666667 0.647059
0.933333 0.666667 0.647059
0.866667 0.666667 0.647059
0.709804 0.666667 0.647059
0.560784 0.666667 0.647059
0.450980 0.666667 0.647059
0.384314 0.666667 0.647059
0.325490 0.666667 0.647059
0.666667 0.450980 0.647059
0.450980 0.450980 0.647059
0.282353 0.450980 0.647059
0.156863 0.450980 0.647059
0.090196 0.450980 0.647059
0.105882 0.450980 0.647059
0.141176 0.450980 0.647059
0.188235 0.450980 0.647059
0.250980 0.450980 0.647059
0.329412 0.450980 0.647059
0.403922 0.450980 0.647059
0.482353 0.450980 0.647059
0.572549 0.450980 0.647059
0.650980 0.450980 0.647059
0.733333 0.450980 0.647059
0.800000 0.450980 0.647059
0.862745 0.450980 0.647059
0.909804 0.450980 0.647059
0.933333 0.450980 0.647059
0.866667 0.450980 0.647059
0.709804 0.450980 0.647059
0.560784 0.450980 0.647059
0.450980 0.450980 0.647059
0.384314 0.450980 0.647059
0.325490 0.450980 0.647059
0.666667 0.282353 0.647059
0.450980 0.282353 0.647059
0.282353 0.282353 0.647059
0.156863 0.282353 0.647059
0.090196 0.282353 0.647059
0.105882 0.282353 0.647059
0.141176 0.282353 0.647059
0.188235 0.282353 0.647059
0.250980 0.282353 0.647059
0.329412 0.282353 0.647059
0.403922 0.282353 0.647059
0.482353 0.282353 0.647059
0.572549 0.282353 0.647059
0.650980 0.282353 0.647059
0.733333 0.282353 0.647059
0.800000 0.282353 0.647059
0.862745 0.282353 0.647059
0.909804 0.282353 0.647059
0.933333 0.282353 0.647059
0.866667 0.282353 0.647059
0.709804 0.282353 0.647059
0.560784 0.282353 0.647059
0.450980 0.282353 0.647059
0.384314 0.282353 0.647059
0.325490 0.282353 0.647059
0.666667 0.156863 0.647059
0.450980 0.156863 0.647059
0.282353 0.156863 0.647059
0.156863 0.156863 0.647059
0.090196 0.156863 0.647059
0.105882 0.156863 0.647059
0.141176 0.156863 0.647059
0.188235 0.156863 0.647059
0.250980 0.156863 0.647059
0.329412 0.156863 0.647059
0.403922 0.156863 0.647059
0.482353 0.156863 0.647059
0.572549 0.156863 0.647059
0.650980 0.156863 0.647059
0.733333 0.156863 0.647059
0.800000 0.156863 0.647059
0.862745 0.156863 0.647059
0.909804 0.156863 0.647059
0.933333 0.156863 0.647059
0.866667 0.156863 0.647059
0.709804 0.156863 0.647059
0.560784 0.156863 0.647059
0.450980 0.156863 0.647059
0.384314 0.156863 0.647059
0.325490 0.156863 0.647059
0.666667 0.094118 0.647059
0.450980 0.094118 0.647059
0.282353 0.094118 0.647059
0.156863 0.094118 0.647059
0.090196 0.094118 0.647059
0.105882 0.094118 0.647059
0.141176 0.094118 0.647059
0.188235 0.094118 0.647059
0.250980 0.094118 0.647059
0.329412 0.094118 0.647059
0.403922 0.094118 0.647059
0.482353 0.094118 0.647059
0.572549 0.094118 0.647059
0.650980 0.094118 0.647059
0.733333 0.094118 0.647059
0.800000 0.094118 0.647059
0.862745 0.094118 0.647059
0.909804 0.094118 0.647059
0.933333 0.094118 0.647059
0.866667 0.094118 0.647059
0.709804 0.094118 0.647059
0.560784 0.094118 0.647059
0.450980 0.094118 0.647059
0.384314 0.094118 0.647059
0.325490 0.094118 0.647059
0.666667 0.105882 0.647059
0.450980 0.105882 0.647059
0.282353 0.105882 0.647059
0.156863 0.105882 0.647059
0.090196 0.105882 0.647059
0.105882 0.105882 0.647059
0.141176 0.105882 0.647059
0.188235 0.105882 0.647059
0.250980 0.105882 0.647059
0.329412 0.105882 0.647059
0.403922 0.105882 0.647059
0.482353 0.105882 0.647059
0.572549 0.105882 0.647059
0.650980 0.105882 0.647059
0.733333 0.105882 0.647059
0.800000 0.105882 0.647059
0.862745 0.105882 0.647059
0.909804 0.105882 0.647059
0.933333 0.105882 0.647059
0.866667 0.105882 0.647059
0.709804 0.105882 0.647059
0.560784 0.105882 0.647059
0.450980 0.105882 0.647059
0.384314 0.105882 0.647059
0.325490 0.105882 0.647059
0.666667 0.141176 0.647059
0.450980 0.141176 0.647059
0.282353 0.141176 0.647059
0.156863 0.141176 0.647059
0.090196 0.141176 0.647059
0.105882 0.141176 0.647059
0.141176 0.141176 0.647059
0.188235 0.141176 0.647059
0.250980 0.141176 0.647059
0.329412 0.141176 0.647059
0.403922 0.141176 0.647059
0.482353 0.141176 0.647059
0.572549 0.141176 0.647059
0.650980 0.141176 0.647059
0.733333 0.141176 0.647059
0.800000 0.141176 0.647059
0.862745 0.141176 0.647059
0.909804 0.141176 0.647059
0.933333 0.141176 0.647059
0.866667 0.141176 0.647059
0.709804 0.141176 0.647059
0.560784 0.141176 0.647059
0.450980 0.141176 0.647059
0.384314 0.141176 0.647059
0.325490 0.141176 0.647059
0.666667 0.188235 0.647059
0.450980 0.188235 0.647059
0.282353 0.188235 0.647059
0.156863 0.188235 0.647059
0.090196 0.188235 0.647059
0.105882 0.188235 0.647059
0.141176 0.188235 0.647059
0.188235 0.188235 0.647059
0.250980 0.188235 0.647059
0.329412 0.188235 0.647059
0.403922 0.188235 0.647059
0.482353 0.188235 0.647059
0.572549 0.188235 0.647059
0.650980 0.188235 0.647059
0.733333 0.188235 0.647059
0.800000 0.188235 0.647059
0.862745 0.188235 0.647059
0.909804 0.188235 0.647059
0.933333 0.188235 0.647059
0.866667 0.188235 0.647059
0.709804 0.188235 0.647059
0.560784 0.188235 0.647059
0.450980 0.188235 0.647059
0.384314 0.188235 0.647059
0.325490 0.188235 0.647059
0.666667 0.247059 0.647059
0.450980 0.247059 0.647059
0.282353 0.247059 0.647059
0.156863 0.247059 0.647059
0.090196 0.247059 0.647059
0.105882 0.247059 0.647059
0.141176 0.247059 0.647059
0.188235 0.247059 0.647059
0.250980 0.247059 0.647059
0.329412 0.247059 0.647059
0.403922 0.247059 0.647059
0.482353 0.247059 0.647059
0.572549 0.247059 0.647059
0.650980 0.247059 0.647059
0.733333 0.247059 0.647059
0.800000 0.247059 0.647059
0.862745 0.247059 0.647059
0.909804 0.247059 0.647059
0.933333 0.247059 0.647059
0.866667 0.247059 0.647059
0.709804 0.247059 0.647059
0.560784 0.247059 0.647059
0.450980 0.247059 0.647059
0.384314 0.247059 0.647059
0.325490 0.247059 0.647059
0.666667 0.329412 0.647059
0.450980 0.329412 0.647059
0.282353 0.329412 0.647059
0.156863 0.329412 0.647059
0.090196 0.329412 0.647059
0.105882 0.329412 0.647059
0.141176 0.329412 0.647059
0.188235 0.329412 0.647059
0.250980 0.329412 0.647059
0.329412 0.329412 0.647059
0.403922 0.329412 0.647059
0.482353 0.329412 0.647059
0.572549 0.329412 0.647059
0.650980 0.329412 0.647059
0.733333 0.329412 0.647059
0.800000 0.329412 0.647059
0.862745 0.329412 0.647059
0.909804 0.329412 0.647059
0.933333 0.329412 0.647059
0.866667 0.329412 0.647059
0.709804 0.329412 0.647059
0.560784 0.329412 0.647059
0.450980 0.329412 0.647059
0.384314 0.329412 0.647059
0.325490 0.329412 0.647059
0.666667 0.396078 0.647059
0.450980 0.396078 0.647059
0.282353 0.396078 0.647059
0.156863 0.396078 0.647059
0.090196 0.396078 0.647059
0.105882 0.396078 0.647059
0.141176 0.396078 0.647059
0.188235 0.396078 0.647059
0.250980 0.396078 0.647059
0.329412 0.396078 0.647059
0.403922 0.396078 0.647059
0.482353 0.396078 0.647059
0.572549 0.396078 0.647059
0.650980 0.396078 0.647059
0.733333 0.396078 0.647059
0.800000 0.396078 0.647059
0.862745 0.396078 0.647059
0.909804 0.396078 0.647059
0.933333 0.396078 0.647059
0.866667 0.396078 0.647059
0.709804 0.396078 0.647059
0.560784 0.396078 0.647059
0.450980 0.396078 0.647059
0.384314 0.396078 0.647059
0.325490 0.396078 0.647059
0.666667 0.482353 0.647059
0.450980 0.482353 0.647059
0.282353 0.482353 0.647059
0.156863 0.482353 0.647059
0.090196 0.482353 0.647059
0.105882 0.482353 0.647059
0.141176 0.482353 0.647059
0.188235 0.482353 0.647059
0.250980 0.482353 0.647059
0.329412 0.482353 0.647059
0.403922 0.482353 0.647059
0.482353 0.482353 0.647059
0.572549 0.482353 0.647059
0.650980 0.482353 0.647059
0.733333 0.482353 0.647059
0.800000 0.482353 0.647059
0.862745 0.482353 0.647059
0.909804 0.482353 0.647059
0.933333 0.482353 0.647059
0.866667 0.482353 0.647059
0.709804 0.482353 0.647059
0.560784 0.482353 0.647059
0.450980 0.482353 0.647059
0.384314 0.482353 0.647059
0.325490 0.482353 0.647059
0.666667 0.572549 0.647059
0.450980 0.572549 0.647059
0.282353 0.572549 0.647059
0.156863 0.572549 0.647059
0.090196 0.572549 0.647059
0.105882 0.572549 0.647059
0.141176 0.572549 0.647059
0.188235 0.572549 0.647059
0.250980 0.572549 0.647059
0.329412 0.572549 0.647059
0.403922 0.572549 0.647059
0.482353 0.572549 0.647059
0.572549 0.572549 0.647059
0.650980 0.572549 0.647059
0.733333 0.572549 0.647059
0.800000 0.572549 0.647059
0.862745 0.572549 0.647059
0.909804 0.572549 0.647059
0.933333 0.572549 0.647059
0.866667 0.572549 0.647059
0.709804 0.572549 0.647059
0.560784 0.572549 0.647059
0.450980 0.572549 0.647059
0.384314 0.572549 0.647059
0.325490 0.572549 0.647059
0.666667 0.650980 0.647059
0.450980 0.650980 0.647059
0.282353 0.650980 0.647059
0.156863 0.650980 0.647059
0.090196 0.650980 0.647059
0.105882 0.650980 0.647059
0.141176 0.650980 0.647059
0.188235 0.650980 0.647059
0.250980 0.650980 0.647059
0.329412 0.650980 0.647059
0.403922 0.650980 0.647059
0.482353 0.650980 0.647059
0.572549 0.650980 0.647059
0.650980 0.650980 0.647059
0.733333 0.650980 0.647059
0.800000 0.650980 0.647059
0.862745 0.650980 0.647059
0.909804 0.650980 0.647059
0.933333 0.650980 0.647059
0.866667 0.650980 0.647059
0.709804 0.650980 0.647059
0.560784 0.650980 0.647059
0.450980 0.650980 0.647059
0.384314 0.650980 0.647059
0.325490 0.650980 0.647059
0.666667 0.733333 0.647059
0.450980 0.733333 0.647059
0.282353 0.733333 0.647059
0.156863 0.733333 0.647059
0.090196 0.733333 0.647059
0.105882 0.733333 0.647059
0.141176 0.733333 0.647059
0.188235 0.733333 0.647059
0.250980 0.733333 0.647059
0.329412 0.733333 0.647059
0.403922 0.733333 0.647059
0.482353 0.733333 0.647059
0.572549 0.733333 0.647059
0.650980 0.733333 0.647059
0.733333 0.733333 0.647059
0.800000 0.733333 0.647059
0.862745 0.733333 0.647059
0.909804 0.733333 0.647059
0.933333 0.733333 0.647059
0.866667 0.733333 0.647059
0.709804 0.733333 0.647059
0.560784 0.733333 0.647059
0.450980 0.733333 0.647059
0.384314 0.733333 0.647059
0.325490 0.733333 0.647059
0.666667 0.792157 0.647059
0.450980 0.792157 0.647059
0.282353 0.792157 0.647059
0.156863 0.792157 0.647059
0.090196 0.792157 0.647059
0.105882 0.792157 0.647059
0.141176 0.792157 0.647059
0.188235 0.792157 0.647059
0.250980 0.792157 0.647059
0.329412 0.792157 0.647059
0.403922 0.792157 0.647059
0.482353 0.792157 0.647059
0.572549 0.792157 0.647059
0.650980 0.792157 0.647059
0.733333 0.792157 0.647059
0.800000 0.792157 0.647059
0.862745 0.792157 0.647059
0.909804 0.792157 0.647059
0.933333 0.792157 0.647059
0.866667 0.792157 0.647059
0.709804 0.792157 0.647059
0.560784 0.792157 0.647059
0.450980 0.792157 0.647059
0.384314 0.792157 0.647059
0.325490 0.792157 0.647059
0.666667 0.862745 0.647059
0.450980 0.862745 0.647059
0.282353 0.862745 0.647059
0.156863 0.862745 0.647059
0.090196 0.862745 0.647059
0.105882 0.862745 0.647059
0.141176 0.862745 0.647059
0.188235 0.862745 0.647059
0.250980 0.862745 0.647059
0.329412 0.862745 0.647059
0.403922 0.862745 0.647059
0.482353 0.862745 0.647059
0.572549 0.862745 0.647059
0.650980 0.862745 0.647059
0.733333 0.862745 0.647059
0.800000 0.862745 0.647059
0.862745 0.862745 0.647059
0.909804 0.862745 0.647059
0.933333 0.862745 0.647059
0.866667 0.862745 0.647059
0.709804 0.862745 0.647059
0.560784 0.862745 0.647059
0.450980 0.862745 0.647059
0.384314 0.862745 0.647059
0.325490 0.862745 0.647059
0.666667 0.905882 0.647059
0.450980 0.905882 0.647059
0.282353 0.905882 0.647059
0.156863 0.905882 0.647059
0.090196 0.905882 0.647059
0.105882 0.905882 0.647059
0.141176 0.905882 0.647059
0.188235 0.905882 0.647059
0.250980 0.905882 0.647059
0.329412 0.905882 0.647059
0.403922 0.905882 0.647059
0.482353 0.905882 0.647059
0.572549 0.905882 0.647059
0.650980 0.905882 0.647059
0.733333 0.905882 0.647059
0.800000 0.905882 0.647059
0.862745 0.905882 0.647059
0.909804 0.905882 0.647059
0.933333 0.905882 0.647059
0.866667 0.905882 0.647059
0.709804 0.905882 0.647059
0.560784 0.905882 0.647059
0.450980 0.905882 0.647059
0.384314 0.905882 0.647059
0.325490 0.905882 0.647059
0.666667 0.933333 0.647059
0.450980 0.933333 0.647059
0.282353 0.933333 0.647059
0.156863 0.933333 0.647059
0.090196 0.933333 0.647059
0.105882 0.933333 0.647059
0.141176 0.933333 0.647059
0.188235 0.933333 0.647059
0.250980 0.933333 0.647059
0.329412 0.933333 0.647059
0.403922 0.933333 0.647059
0.482353 0.933333 0.647059
0.572549 0.933333 0.647059
0.650980 0.933333 0.647059
0.733333 0.933333 0.647059
0.800000 0.933333 0.647059
0.862745 0.933333 0.647059
0.909804 0.933333 0.647059
0.933333 0.933333 0.647059
0.866667 0.933333 0.647059
0.709804 0.933333 0.647059
0.560784 0.933333 0.647059
0.450980 0.933333 0.647059
0.384314 0.933333 0.647059
0.325490 0.933333 0.647059
0.666667 0.866667 0.647059
0.450980 0.866667 0.647059
0.282353 0.866667 0.647059
0.156863 0.866667 0.647059
0.090196 0.866667 0.647059
0.105882 0.866667 0.647059
0.141176 0.866667 0.647059
0.188235 0.866667 0.647059
0.250980 0.866667 0.647059
0.329412 0.866667 0.647059
0.403922 0.866667 0.647059
0.482353 0.866667 0.647059
0.572549 0.866667 0.647059
0.650980 0.866667 0.647059
0.733333 0.866667 0.647059
0.800000 0.866667 0.647059
0.862745 0.866667 0.647059
0.909804 0.866667 0.647059
0.933333 0.866667 0.647059
0.866667 0.866667 0.647059
0.709804 0.866667 0.647059
0.560784 0.866667 0.647059
0.450980 0.866667 0.647059
0.384314 0.866667 0.647059
0.325490 0.866667 0.647059
0.666667 0.709804 0.647059
0.450980 0.709804 0.647059
0.282353 0.709804 0.647059
0.156863 0.709804 0.647059
0.090196 0.709804 0.647059
0.105882 0.709804 0.647059
0.141176 0.709804 0.647059
0.188235 0.709804 0.647059
0.250980 0.709804 0.647059
0.329412 0.709804 0.647059
0.403922 0.709804 0.647059
0.482353 0.709804 0.647059
0.572549 0.709804 0.647059
0.650980 0.709804 0.647059
0.733333 0.709804 0.647059
0.800000 0.709804 0.647059
0.862745 0.709804 0.647059
0.909804 0.709804 0.647059
0.933333 0.709804 0.647059
0.866667 0.709804 0.647059
0.709804 0.709804 0.647059
0.560784 0.709804 0.647059
0.450980 0.709804 0.647059
0.384314 0.709804 0.647059
0.325490 0.709804 0.647059
0.666667 0.560784 0.647059
0.450980 0.560784 0.647059
0.282353 0.560784 0.647059
0.156863 0.560784 0.647059
0.090196 0.560784 0.647059
0.105882 0.560784 0.647059
0.141176 0.560784 0.647059
0.188235 0.560784 0.647059
0.250980 0.560784 0.647059
0.329412 0.560784 0.647059
0.403922 0.560784 0.647059
0.482353 0.560784 0.647059
0.572549 0.560784 0.647059
0.650980 0.560784 0.647059
0.733333 0.560784 0.647059
0.800000 0.560784 0.647059
0.862745 0.560784 0.647059
0.909804 0.560784 0.647059
0.933333 0.560784 0.647059
0.866667 0.560784 0.647059
0.709804 0.560784 0.647059
0.560784 0.560784 0.647059
0.450980 0.560784 0.647059
0.384314 0.560784 0.647059
0.325490 0.560784 0.647059
0.666667 0.450980 0.647059
0.450980 0.450980 0.647059
0.282353 0.450980 0.647059
0.156863 0.450980 0.647059
0.090196 0.450980 0.647059
0.105882 0.450980 0.647059
0.141176 0.450980 0.647059
0.188235 0.450980 0.647059
0.250980 0.450980 0.647059
0.329412 0.450980 0.647059
0.403922 0.450980 0.647059
0.482353 0.450980 0.647059
0.572549 0.450980 0.647059
0.650980 0.450980 0.647059
0.733333 0.450980 0.647059
0.800000 0.450980 0.647059
0.862745 0.450980 0.647059
0.909804 0.450980 0.647059
0.933333 0.450980 0.647059
0.866667 0.450980 0.647059
0.709804 0.450980 0.647059
0.560784 0.450980 0.647059
0.450980 0.450980 0.647059
0.384314 0.450980 0.647059
0.325490 0.450980 0.647059
0.666667 0.388235 0.647059
0.450980 0.388235 0.647059
0.282353 0.388235 0.647059
0.156863 0.388235 0.647059
0.090196 0.388235 0.647059
0.105882 0.388235 0.647059
0.141176 0.388235 0.647059
0.188235 0.388235 0.647059
0.250980 0.388235 0.647059
0.329412 0.388235 0.647059
0.403922 0.388235 0.647059
0.482353 0.388235 0.647059
0.572549 0.388235 0.647059
0.650980 0.388235 0.647059
0.733333 0.388235 0.647059
0.800000 0.388235 0.647059
0.862745 0.388235 0.647059
0.909804 0.388235 0.647059
0.933333 0.388235 0.647059
0.866667 0.388235 0.647059
0.709804 0.388235 0.647059
0.560784 0.388235 0.647059
0.450980 0.388235 0.647059
0.384314 0.388235 0.647059
0.325490 0.388235 0.647059
0.666667 0.317647 0.647059
0.450980 0.317647 0.647059
0.282353 0.317647 0.647059
0.156863 0.317647 0.647059
0.090196 0.317647 0.647059
0.105882 0.317647 0.647059
0.141176 0.317647 0.647059
0.188235 0.317647 0.647059
0.250980 0.317647 0.647059
0.329412 0.317647 0.647059
0.403922 0.317647 0.647059
0.482353 0.317647 0.647059
0.572549 0.317647 0.647059
0.650980 0.317647 0.647059
0.733333 0.317647 0.647059
0.800000 0.317647 0.647059
0.862745 0.317647 0.647059
0.909804 0.317647 0.647059
0.933333 0.317647 0.647059
0.866667 0.317647 0.647059
0.709804 0.317647 0.647059
0.560784 0.317647 0.647059
0.450980 0.317647 0.647059
0.384314 0.317647 0.647059
0.325490 0.317647 0.647059
0.666667 0.666667 0.431373
0.450980 0.666667 0.431373
0.282353 0.666667 0.431373
0.156863 0.666667 0.431373
0.090196 0.666667 0.431373
0.105882 0.666667 0.431373
0.141176 0.666667 0.431373
0.188235 0.666667 0.431373
0.250980 0.666667 0.431373
0.329412 0.666667 0.431373
0.403922 0.666667 0.431373
0.482353 0.666667 0.431373
0.572549 0.666667 0.431373
0.650980 0.666667 0.431373
0.733333 0.666667 0.431373
0.800000 0.666667 0.431373
0.862745 0.666667 0.431373
0.909804 0.666667 0.431373
0.933333 0.666667 0.431373
0.866667 0.666667 0.431373
0.709804 0.666667 0.431373
0.560784 0.666667 0.431373
0.450980 0.666667 0.431373
0.384314 0.666667 0.431373
0.325490 0.666667 0.431373
0.666667 0.450980 0.431373
0.450980 0.450980 0.431373
0.282353 0.450980 0.431373
0.156863 0.450980 0.431373
0.090196 0.450980 0.431373
0.105882 0.450980 0.431373
0.141176 0.450980 0.431373
0.188235 0.450980 0.431373
0.250980 0.450980 0.431373
0.329412 0.450980 0.431373
0.403922 0.450980 0.431373
0.482353 0.450980 0.431373
0.572549 0.450980 0.431373
0.650980 0.450980 0.431373
0.733333 0.450980 0.431373
0.800000 0.450980 0.431373
0.862745 0.450980 0.431373
0.909804 0.450980 0.431373
0.933333 0.450980 0.431373
0.866667 0.450980 0.431373
0.709804 0.450980 0.431373
0.560784 0.450980 0.431373
0.450980 0.450980 0.431373
0.384314 0.450980 0.431373
0.325490 0.450980 0.431373
0.666667 0.282353 0.431373
0.450980 0.282353 0.431373
0.282353 0.282353 0.431373
0.156863 0.282353 0.431373
0.090196 0.282353 0.431373
0.105882 0.282353 0.431373
0.141176 0.282353 0.431373
0.188235 0.282353 0.431373
0.250980 0.282353 0.431373
0.329412 0.282353 0.431373
0.403922 0.282353 0.431373
0.482353 0.282353 0.431373
0.572549 0.282353 0.431373
0.650980 0.282353 0.431373
0.733333 0.282353 0.431373
0.800000 0.282353 0.431373
0.862745 0.282353 0.431373
0.909804 0.282353 0.431373
0.933333 0.282353 0.431373
0.866667 0.282353 0.431373
0.709804 0.282353 0.431373
0.560784 0.282353 0.431373
0.450980 0.282353 0.431373
0.384314 0.282353 0.431373
0.325490 0.282353 0.431373
0.666667 0.156863 0.431373
0.450980 0.156863 0.431373
0.282353 0.156863 0.431373
0.156863 0.156863 0.431373
0.090196 0.156863 0.431373
0.105882 0.156863 0.431373
0.141176 0.156863 0.431373
0.188235 0.156863 0.431373
0.250980 0.156863 0.431373
0.329412 0.156863 0.431373
0.403922 0.156863 0.431373
0.482353 0.156863 0.431373
0.572549 0.156863 0.431373
0.650980 0.156863 0.431373
0.733333 0.156863 0.431373
0.800000 0.156863 0.431373
0.862745 0.156863 0.431373
0.909804 0.156863 0.431373
0.933333 0.156863 0.431373
0.866667 0.156863 0.431373
0.709804 0.156863 0.431373
0.560784 0.156863 0.431373
0.450980 0.156863 0.431373
0.384314 0.156863 0.431373
0.325490 0.156863 0.431373
0.666667 0.094118 0.431373
0.450980 0.094118 0.431373
0.282353 0.094118 0.431373
0.156863 0.094118 0.431373
0.090196 0.094118 0.431373
0.105882 0.094118 0.431373
0.141176 0.094118 0.431373
0.188235 0.094118 0.431373
0.250980 0.094118 0.431373
0.329412 0.094118 0.431373
0.403922 0.094118 0.431373
0.482353 0.094118 0.431373
0.572549 0.094118 0.431373
0.650980 0.094118 0.431373
0.733333 0.094118 0.431373
0.800000 0.094118 0.431373
0.862745 0.094118 0.431373
0.909804 0.094118 0.431373
0.933333 0.094118 0.431373
0.866667 0.094118 0.431373
0.709804 0.094118 0.431373
0.560784 0.094118 0.431373
0.450980 0.094118 0.431373
0.384314 0.094118 0.431373
0.325490 0.094118 0.431373
0.666667 0.105882 0.431373
0.450980 0.105882 0.431373
0.282353 0.105882 0.431373
0.156863 0.105882 0.431373
0.090196 0.105882 0.431373
0.105882 0.105882 0.431373
0.141176 0.105882 0.431373
0.188235 0.105882 0.431373
0.250980 0.105882 0.431373
0.329412 0.105882 0.431373
0.403922 0.105882 0.431373
0.482353 0.105882 0.431373
0.572549 0.105882 0.431373
0.650980 0.105882 0.431373
0.733333 0.105882 0.431373
0.800000 0.105882 0.431373
0.862745 0.105882 0.431373
0.909804 0.105882 0.431373
0.933333 0.105882 0.431373
0.866667 0.105882 0.431373
0.709804 0.105882 0.431373
0.560784 0.105882 0.431373
0.450980 0.105882 0.431373
0.384314 0.105882 0.431373
0.325490 0.105882 0.431373
0.666667 0.141176 0.431373
0.450980 0.141176 0.431373
0.282353 0.141176 0.431373
0.156863 0.141176 0.431373
0.090196 0.141176 0.431373
0.105882 0.141176 0.431373
0.141176 0.141176 0.431373
0.188235 0.141176 0.431373
0.250980 0.141176 0.431373
0.329412 0.141176 0.431373
0.403922 0.141176 0.431373
0.482353 0.141176 0.431373
0.572549 0.141176 0.431373
0.650980 0.141176 0.431373
0.733333 0.141176 0.431373
0.800000 0.141176 0.431373
0.862745 0.141176 0.431373
0.909804 0.141176 0.431373
0.933333 0.141176 0.431373
0.866667 0.141176 0.431373
0.709804 0.141176 0.431373
0.560784 0.141176 0.431373
0.450980 0.141176 0.431373
0.384314 0.141176 0.431373
0.325490 0.141176 0.431373
0.666667 0.188235 0.431373
0.450980 0.188235 0.431373
0.282353 0.188235 0.431373
0.156863 0.188235 0.431373
0.090196 0.188235 0.431373
0.105882 0.188235 0.431373
0.141176 0.188235 0.431373
0.188235 0.188235 0.431373
0.250980 0.188235 0.431373
0.329412 0.188235 0.431373
0.403922 0.188235 0.431373
0.482353 0.188235 0.431373
0.572549 0.188235 0.431373
0.650980 0.188235 0.431373
0.733333 0.188235 0.431373
0.800000 0.188235 0.431373
0.862745 0.188235 0.431373
0.909804 0.188235 0.431373
0.933333 0.188235 0.431373
0.866667 0.188235 0.431373
0.709804 0.188235 0.431373
0.560784 0.188235 0.431373
0.450980 0.188235 0.431373
0.384314 0.188235 0.431373
0.325490 0.188235 0.431373
0.666667 0.247059 0.431373
0.450980 0.247059 0.431373
0.282353 0.247059 0.431373
0.156863 0.247059 0.431373
0.090196 0.247059 0.431373
0.105882 0.247059 0.431373
0.141176 0.247059 0.431373
0.188235 0.247059 0.431373
0.250980 0.247059 0.431373
0.329412 0.247059 0.431373
0.403922 0.247059 0.431373
0.482353 0.247059 0.431373
0.572549 0.247059 0.431373
0.650980 0.247059 0.431373
0.733333 0.247059 0.431373
0.800000 0.247059 0.431373
0.862745 0.247059 0.431373
0.909804 0.247059 0.431373
0.933333 0.247059 0.431373
0.866667 0.247059 0.431373
0.709804 0.247059 0.431373
0.560784 0.247059 0.431373
0.450980 0.247059 0.431373
0.384314 0.247059 0.431373
0.325490 0.247059 0.431373
0.666667 0.329412 0.431373
0.450980 0.329412 0.431373
0.282353 0.329412 0.431373
0.156863 0.329412 0.431373
0.090196 0.329412 0.431373
0.105882 0.329412 0.431373
0.141176 0.329412 0.431373
0.188235 0.329412 0.431373
0.250980 0.329412 0.431373
0.329412 0.329412 0.431373
0.403922 0.329412 0.431373
0.482353 0.329412 0.431373
0.572549 0.329412 0.431373
0.650980 0.329412 0.431373
0.733333 0.329412 0.431373
0.800000 0.329412 0.431373
0.862745 0.329412 0.431373
0.909804 0.329412 0.431373
0.933333 0.329412 0.431373
0.866667 0.329412 0.431373
0.709804 0.329412 0.431373
0.560784 0.329412 0.431373
0.450980 0.329412 0.431373
0.384314 0.329412 0.431373
0.325490 0.329412 0.431373
0.666667 0.396078 0.431373
0.450980 0.396078 0.431373
0.282353 0.396078 0.431373
0.156863 0.396078 0.431373
0.090196 0.396078 0.431373
0.105882 0.396078 0.431373
0.141176 0.396078 0.431373
0.188235 0.396078 0.431373
0.250980 0.396078 0.431373
