mpv/colortap_big.cube
#Generated by wwww.onlinelutcreator.com 
LUT_3D_SIZE 5 
DOMAIN_MIN 0.000000 0.000000 0.000000
DOMAIN_MAX 0.903226 0.903226 0.903226
0.666667 0.666667 0.647059
0.113725 0.666667 0.647059
0.450980 0.666667 0.647059
0.850980 0.666667 0.647059
0.549020 0.666667 0.647059
0.666667 0.113725 0.647059
0.113725 0.113725 0.647059
0.450980 0.113725 0.647059
0.850980 0.113725 0.647059
0.549020 0.113725 0.647059
0.666667 0.450980 0.647059
0.113725 0.450980 0.647059
0.450980 0.450980 0.647059
0.850980 0.450980 0.647059
0.549020 0.450980 0.647059
0.666667 0.850980 0.647059
0.113725 0.850980 0.647059
0.450980 0.850980 0.647059
0.850980 0.850980 0.647059
0.549020 0.850980 0.647059
0.666667 0.549020 0.647059
0.113725 0.549020 0.647059
0.450980 0.549020 0.647059
0.850980 0.549020 0.647059
0.549020 0.549020 0.647059
0.666667 0.666667 0.113725
0.113725 0.666667 0.113725
0.450980 0.666667 0.113725
0.850980 0.666667 0.113725
0.549020 0.666667 0.113725
0.666667 0.113725 0.113725
0.113725 0.113725 0.113725
0.450980 0.113725 0.113725
0.850980 0.113725 0.113725
0.549020 0.113725 0.113725
0.666667 0.450980 0.113725
0.113725 0.450980 0.113725
0.450980 0.450980 0.113725
0.850980 0.450980 0.113725
0.549020 0.450980 0.113725
0.666667 0.850980 0.113725
0.113725 0.850980 0.113725
0.450980 0.850980 0.113725
0.850980 0.850980 0.113725
0.549020 0.850980 0.113725
0.666667 0.549020 0.113725
0.113725 0.549020 0.113725
0.450980 0.549020 0.113725
0.850980 0.549020 0.113725
0.549020 0.549020 0.113725
0.666667 0.666667 0.450980
0.113725 0.666667 0.450980
0.450980 0.666667 0.450980
0.850980 0.666667 0.450980
0.549020 0.666667 0.450980
0.666667 0.113725 0.450980
0.113725 0.113725 0.450980
0.450980 0.113725 0.450980
0.850980 0.113725 0.450980
0.549020 0.113725 0.450980
0.666667 0.450980 0.450980
0.113725 0.450980 0.450980
0.450980 0.450980 0.450980
0.850980 0.450980 0.450980
0.549020 0.450980 0.450980
0.666667 0.850980 0.450980
0.113725 0.850980 0.450980
0.450980 0.850980 0.450980
0.850980 0.850980 0.450980
0.549020 0.850980 0.450980
0.666667 0.549020 0.450980
0.113725 0.549020 0.450980
0.450980 0.549020 0.450980
0.850980 0.549020 0.450980
0.549020 0.549020 0.450980
0.666667 0.666667 0.850980
0.113725 0.666667 0.850980
0.450980 0.666667 0.850980
0.850980 0.666667 0.850980
0.549020 0.666667 0.850980
0.666667 0.113725 0.850980
0.113725 0.113725 0.850980
0.450980 0.113725 0.850980
0.850980 0.113725 0.850980
0.549020 0.113725 0.850980
0.666667 0.450980 0.850980
0.113725 0.450980 0.850980
0.450980 0.450980 0.850980
0.850980 0.450980 0.850980
0.549020 0.450980 0.850980
0.666667 0.850980 0.850980
0.113725 0.850980 0.850980
0.450980 0.850980 0.850980
0.850980 0.850980 0.850980
0.549020 0.850980 0.850980
0.666667 0.549020 0.850980
0.113725 0.549020 0.850980
0.450980 0.549020 0.850980
0.850980 0.549020 0.850980
0.549020 0.549020 0.850980
0.666667 0.666667 0.549020
0.113725 0.666667 0.549020
0.450980 0.666667 0.549020
0.850980 0.666667 0.549020
0.549020 0.666667 0.549020
0.666667 0.113725 0.549020
0.113725 0.113725 0.549020
0.450980 0.113725 0.549020
0.850980 0.113725 0.549020
0.549020 0.113725 0.549020
0.666667 0.450980 0.549020
0.113725 0.450980 0.549020
0.450980 0.450980 0.549020
0.850980 0.450980 0.549020
0.549020 0.450980 0.549020
0.666667 0.850980 0.549020
0.113725 0.850980 0.549020
0.450980 0.850980 0.549020
0.850980 0.850980 0.549020
0.549020 0.850980 0.549020
0.666667 0.549020 0.549020
0.113725 0.549020 0.549020
0.450980 0.549020 0.549020
0.850980 0.549020 0.549020
0.549020 0.549020 0.549020
