mpv/colortap_big.cube
#Generated by wwww.onlinelutcreator.com 
LUT_3D_SIZE 32 
0.666667 0.666667 0.647059
0.525490 0.666667 0.647059
0.360784 0.666667 0.647059
0.254902 0.666667 0.647059
0.156863 0.666667 0.647059
0.101961 0.666667 0.647059
0.098039 0.666667 0.647059
0.113725 0.666667 0.647059
0.141176 0.666667 0.647059
0.176471 0.666667 0.647059
0.219608 0.666667 0.647059
0.270588 0.666667 0.647059
0.329412 0.666667 0.647059
0.380392 0.666667 0.647059
0.450980 0.666667 0.647059
0.505882 0.666667 0.647059
0.572549 0.666667 0.647059
0.635294 0.666667 0.647059
0.694118 0.666667 0.647059
0.752941 0.666667 0.647059
0.803922 0.666667 0.647059
0.850980 0.666667 0.647059
0.890196 0.666667 0.647059
0.917647 0.666667 0.647059
0.933333 0.666667 0.647059
0.886275 0.666667 0.647059
0.784314 0.666667 0.647059
0.662745 0.666667 0.647059
0.549020 0.666667 0.647059
0.466667 0.666667 0.647059
0.407843 0.666667 0.647059
0.360784 0.666667 0.647059
0.666667 0.509804 0.647059
0.525490 0.509804 0.647059
0.360784 0.509804 0.647059
0.254902 0.509804 0.647059
0.156863 0.509804 0.647059
0.101961 0.509804 0.647059
0.098039 0.509804 0.647059
0.113725 0.509804 0.647059
0.141176 0.509804 0.647059
0.176471 0.509804 0.647059
0.219608 0.509804 0.647059
0.270588 0.509804 0.647059
0.329412 0.509804 0.647059
0.380392 0.509804 0.647059
0.450980 0.509804 0.647059
0.505882 0.509804 0.647059
0.572549 0.509804 0.647059
0.635294 0.509804 0.647059
0.694118 0.509804 0.647059
0.752941 0.509804 0.647059
0.803922 0.509804 0.647059
0.850980 0.509804 0.647059
0.890196 0.509804 0.647059
0.917647 0.509804 0.647059
0.933333 0.509804 0.647059
0.886275 0.509804 0.647059
0.784314 0.509804 0.647059
0.662745 0.509804 0.647059
0.549020 0.509804 0.647059
0.466667 0.509804 0.647059
0.407843 0.509804 0.647059
0.360784 0.509804 0.647059
0.666667 0.360784 0.647059
0.525490 0.360784 0.647059
0.360784 0.360784 0.647059
0.254902 0.360784 0.647059
0.156863 0.360784 0.647059
0.101961 0.360784 0.647059
0.098039 0.360784 0.647059
0.113725 0.360784 0.647059
0.141176 0.360784 0.647059
0.176471 0.360784 0.647059
0.219608 0.360784 0.647059
0.270588 0.360784 0.647059
0.329412 0.360784 0.647059
0.380392 0.360784 0.647059
0.450980 0.360784 0.647059
0.505882 0.360784 0.647059
0.572549 0.360784 0.647059
0.635294 0.360784 0.647059
0.694118 0.360784 0.647059
0.752941 0.360784 0.647059
0.803922 0.360784 0.647059
0.850980 0.360784 0.647059
0.890196 0.360784 0.647059
0.917647 0.360784 0.647059
0.933333 0.360784 0.647059
0.886275 0.360784 0.647059
0.784314 0.360784 0.647059
0.662745 0.360784 0.647059
0.549020 0.360784 0.647059
0.466667 0.360784 0.647059
0.407843 0.360784 0.647059
0.360784 0.360784 0.647059
0.666667 0.239216 0.647059
0.525490 0.239216 0.647059
0.360784 0.239216 0.647059
0.254902 0.239216 0.647059
0.156863 0.239216 0.647059
0.101961 0.239216 0.647059
0.098039 0.239216 0.647059
0.113725 0.239216 0.647059
0.141176 0.239216 0.647059
0.176471 0.239216 0.647059
0.219608 0.239216 0.647059
0.270588 0.239216 0.647059
0.329412 0.239216 0.647059
0.380392 0.239216 0.647059
0.450980 0.239216 0.647059
0.505882 0.239216 0.647059
0.572549 0.239216 0.647059
0.635294 0.239216 0.647059
0.694118 0.239216 0.647059
0.752941 0.239216 0.647059
0.803922 0.239216 0.647059
0.850980 0.239216 0.647059
0.890196 0.239216 0.647059
0.917647 0.239216 0.647059
0.933333 0.239216 0.647059
0.886275 0.239216 0.647059
0.784314 0.239216 0.647059
0.662745 0.239216 0.647059
0.549020 0.239216 0.647059
0.466667 0.239216 0.647059
0.407843 0.239216 0.647059
0.360784 0.239216 0.647059
0.666667 0.156863 0.647059
0.525490 0.156863 0.647059
0.360784 0.156863 0.647059
0.254902 0.156863 0.647059
0.156863 0.156863 0.647059
0.101961 0.156863 0.647059
0.098039 0.156863 0.647059
0.113725 0.156863 0.647059
0.141176 0.156863 0.647059
0.176471 0.156863 0.647059
0.219608 0.156863 0.647059
0.270588 0.156863 0.647059
0.329412 0.156863 0.647059
0.380392 0.156863 0.647059
0.450980 0.156863 0.647059
0.505882 0.156863 0.647059
0.572549 0.156863 0.647059
0.635294 0.156863 0.647059
0.694118 0.156863 0.647059
0.752941 0.156863 0.647059
0.803922 0.156863 0.647059
0.850980 0.156863 0.647059
0.890196 0.156863 0.647059
0.917647 0.156863 0.647059
0.933333 0.156863 0.647059
0.886275 0.156863 0.647059
0.784314 0.156863 0.647059
0.662745 0.156863 0.647059
0.549020 0.156863 0.647059
0.466667 0.156863 0.647059
0.407843 0.156863 0.647059
0.360784 0.156863 0.647059
0.666667 0.101961 0.647059
0.525490 0.101961 0.647059
0.360784 0.101961 0.647059
0.254902 0.101961 0.647059
0.156863 0.101961 0.647059
0.101961 0.101961 0.647059
0.098039 0.101961 0.647059
0.113725 0.101961 0.647059
0.141176 0.101961 0.647059
0.176471 0.101961 0.647059
0.219608 0.101961 0.647059
0.270588 0.101961 0.647059
0.329412 0.101961 0.647059
0.380392 0.101961 0.647059
0.450980 0.101961 0.647059
0.505882 0.101961 0.647059
0.572549 0.101961 0.647059
0.635294 0.101961 0.647059
0.694118 0.101961 0.647059
0.752941 0.101961 0.647059
0.803922 0.101961 0.647059
0.850980 0.101961 0.647059
0.890196 0.101961 0.647059
0.917647 0.101961 0.647059
0.933333 0.101961 0.647059
0.886275 0.101961 0.647059
0.784314 0.101961 0.647059
0.662745 0.101961 0.647059
0.549020 0.101961 0.647059
0.466667 0.101961 0.647059
0.407843 0.101961 0.647059
0.360784 0.101961 0.647059
0.666667 0.094118 0.647059
0.525490 0.094118 0.647059
0.360784 0.094118 0.647059
0.254902 0.094118 0.647059
0.156863 0.094118 0.647059
0.101961 0.094118 0.647059
0.098039 0.094118 0.647059
0.113725 0.094118 0.647059
0.141176 0.094118 0.647059
0.176471 0.094118 0.647059
0.219608 0.094118 0.647059
0.270588 0.094118 0.647059
0.329412 0.094118 0.647059
0.380392 0.094118 0.647059
0.450980 0.094118 0.647059
0.505882 0.094118 0.647059
0.572549 0.094118 0.647059
0.635294 0.094118 0.647059
0.694118 0.094118 0.647059
0.752941 0.094118 0.647059
0.803922 0.094118 0.647059
0.850980 0.094118 0.647059
0.890196 0.094118 0.647059
0.917647 0.094118 0.647059
0.933333 0.094118 0.647059
0.886275 0.094118 0.647059
0.784314 0.094118 0.647059
0.662745 0.094118 0.647059
0.549020 0.094118 0.647059
0.466667 0.094118 0.647059
0.407843 0.094118 0.647059
0.360784 0.094118 0.647059
0.666667 0.113725 0.647059
0.525490 0.113725 0.647059
0.360784 0.113725 0.647059
0.254902 0.113725 0.647059
0.156863 0.113725 0.647059
0.101961 0.113725 0.647059
0.098039 0.113725 0.647059
0.113725 0.113725 0.647059
0.141176 0.113725 0.647059
0.176471 0.113725 0.647059
0.219608 0.113725 0.647059
0.270588 0.113725 0.647059
0.329412 0.113725 0.647059
0.380392 0.113725 0.647059
0.450980 0.113725 0.647059
0.505882 0.113725 0.647059
0.572549 0.113725 0.647059
0.635294 0.113725 0.647059
0.694118 0.113725 0.647059
0.752941 0.113725 0.647059
0.803922 0.113725 0.647059
0.850980 0.113725 0.647059
0.890196 0.113725 0.647059
0.917647 0.113725 0.647059
0.933333 0.113725 0.647059
0.886275 0.113725 0.647059
0.784314 0.113725 0.647059
0.662745 0.113725 0.647059
0.549020 0.113725 0.647059
0.466667 0.113725 0.647059
0.407843 0.113725 0.647059
0.360784 0.113725 0.647059
0.666667 0.141176 0.647059
0.525490 0.141176 0.647059
0.360784 0.141176 0.647059
0.254902 0.141176 0.647059
0.156863 0.141176 0.647059
0.101961 0.141176 0.647059
0.098039 0.141176 0.647059
0.113725 0.141176 0.647059
0.141176 0.141176 0.647059
0.176471 0.141176 0.647059
0.219608 0.141176 0.647059
0.270588 0.141176 0.647059
0.329412 0.141176 0.647059
0.380392 0.141176 0.647059
0.450980 0.141176 0.647059
0.505882 0.141176 0.647059
0.572549 0.141176 0.647059
0.635294 0.141176 0.647059
0.694118 0.141176 0.647059
0.752941 0.141176 0.647059
0.803922 0.141176 0.647059
0.850980 0.141176 0.647059
0.890196 0.141176 0.647059
0.917647 0.141176 0.647059
0.933333 0.141176 0.647059
0.886275 0.141176 0.647059
0.784314 0.141176 0.647059
0.662745 0.141176 0.647059
0.549020 0.141176 0.647059
0.466667 0.141176 0.647059
0.407843 0.141176 0.647059
0.360784 0.141176 0.647059
0.666667 0.176471 0.647059
0.525490 0.176471 0.647059
0.360784 0.176471 0.647059
0.254902 0.176471 0.647059
0.156863 0.176471 0.647059
0.101961 0.176471 0.647059
0.098039 0.176471 0.647059
0.113725 0.176471 0.647059
0.141176 0.176471 0.647059
0.176471 0.176471 0.647059
0.219608 0.176471 0.647059
0.270588 0.176471 0.647059
0.329412 0.176471 0.647059
0.380392 0.176471 0.647059
0.450980 0.176471 0.647059
0.505882 0.176471 0.647059
0.572549 0.176471 0.647059
0.635294 0.176471 0.647059
0.694118 0.176471 0.647059
0.752941 0.176471 0.647059
0.803922 0.176471 0.647059
0.850980 0.176471 0.647059
0.890196 0.176471 0.647059
0.917647 0.176471 0.647059
0.933333 0.176471 0.647059
0.886275 0.176471 0.647059
0.784314 0.176471 0.647059
0.662745 0.176471 0.647059
0.549020 0.176471 0.647059
0.466667 0.176471 0.647059
0.407843 0.176471 0.647059
0.360784 0.176471 0.647059
0.666667 0.219608 0.647059
0.525490 0.219608 0.647059
0.360784 0.219608 0.647059
0.254902 0.219608 0.647059
0.156863 0.219608 0.647059
0.101961 0.219608 0.647059
0.098039 0.219608 0.647059
0.113725 0.219608 0.647059
0.141176 0.219608 0.647059
0.176471 0.219608 0.647059
0.219608 0.219608 0.647059
0.270588 0.219608 0.647059
0.329412 0.219608 0.647059
0.380392 0.219608 0.647059
0.450980 0.219608 0.647059
0.505882 0.219608 0.647059
0.572549 0.219608 0.647059
0.635294 0.219608 0.647059
0.694118 0.219608 0.647059
0.752941 0.219608 0.647059
0.803922 0.219608 0.647059
0.850980 0.219608 0.647059
0.890196 0.219608 0.647059
0.917647 0.219608 0.647059
0.933333 0.219608 0.647059
0.886275 0.219608 0.647059
0.784314 0.219608 0.647059
0.662745 0.219608 0.647059
0.549020 0.219608 0.647059
0.466667 0.219608 0.647059
0.407843 0.219608 0.647059
0.360784 0.219608 0.647059
0.666667 0.270588 0.647059
0.525490 0.270588 0.647059
0.360784 0.270588 0.647059
0.254902 0.270588 0.647059
0.156863 0.270588 0.647059
0.101961 0.270588 0.647059
0.098039 0.270588 0.647059
0.113725 0.270588 0.647059
0.141176 0.270588 0.647059
0.176471 0.270588 0.647059
0.219608 0.270588 0.647059
0.270588 0.270588 0.647059
0.329412 0.270588 0.647059
0.380392 0.270588 0.647059
0.450980 0.270588 0.647059
0.505882 0.270588 0.647059
0.572549 0.270588 0.647059
0.635294 0.270588 0.647059
0.694118 0.270588 0.647059
0.752941 0.270588 0.647059
0.803922 0.270588 0.647059
0.850980 0.270588 0.647059
0.890196 0.270588 0.647059
0.917647 0.270588 0.647059
0.933333 0.270588 0.647059
0.886275 0.270588 0.647059
0.784314 0.270588 0.647059
0.662745 0.270588 0.647059
0.549020 0.270588 0.647059
0.466667 0.270588 0.647059
0.407843 0.270588 0.647059
0.360784 0.270588 0.647059
0.666667 0.329412 0.647059
0.525490 0.329412 0.647059
0.360784 0.329412 0.647059
0.254902 0.329412 0.647059
0.156863 0.329412 0.647059
0.101961 0.329412 0.647059
0.098039 0.329412 0.647059
0.113725 0.329412 0.647059
0.141176 0.329412 0.647059
0.176471 0.329412 0.647059
0.219608 0.329412 0.647059
0.270588 0.329412 0.647059
0.329412 0.329412 0.647059
0.380392 0.329412 0.647059
0.450980 0.329412 0.647059
0.505882 0.329412 0.647059
0.572549 0.329412 0.647059
0.635294 0.329412 0.647059
0.694118 0.329412 0.647059
0.752941 0.329412 0.647059
0.803922 0.329412 0.647059
0.850980 0.329412 0.647059
0.890196 0.329412 0.647059
0.917647 0.329412 0.647059
0.933333 0.329412 0.647059
0.886275 0.329412 0.647059
0.784314 0.329412 0.647059
0.662745 0.329412 0.647059
0.549020 0.329412 0.647059
0.466667 0.329412 0.647059
0.407843 0.329412 0.647059
0.360784 0.329412 0.647059
0.666667 0.380392 0.647059
0.525490 0.380392 0.647059
0.360784 0.380392 0.647059
0.254902 0.380392 0.647059
0.156863 0.380392 0.647059
0.101961 0.380392 0.647059
0.098039 0.380392 0.647059
0.113725 0.380392 0.647059
0.141176 0.380392 0.647059
0.176471 0.380392 0.647059
0.219608 0.380392 0.647059
0.270588 0.380392 0.647059
0.329412 0.380392 0.647059
0.380392 0.380392 0.647059
0.450980 0.380392 0.647059
0.505882 0.380392 0.647059
0.572549 0.380392 0.647059
0.635294 0.380392 0.647059
0.694118 0.380392 0.647059
0.752941 0.380392 0.647059
0.803922 0.380392 0.647059
0.850980 0.380392 0.647059
0.890196 0.380392 0.647059
0.917647 0.380392 0.647059
0.933333 0.380392 0.647059
0.886275 0.380392 0.647059
0.784314 0.380392 0.647059
0.662745 0.380392 0.647059
0.549020 0.380392 0.647059
0.466667 0.380392 0.647059
0.407843 0.380392 0.647059
0.360784 0.380392 0.647059
0.666667 0.450980 0.647059
0.525490 0.450980 0.647059
0.360784 0.450980 0.647059
0.254902 0.450980 0.647059
0.156863 0.450980 0.647059
0.101961 0.450980 0.647059
0.098039 0.450980 0.647059
0.113725 0.450980 0.647059
0.141176 0.450980 0.647059
0.176471 0.450980 0.647059
0.219608 0.450980 0.647059
0.270588 0.450980 0.647059
0.329412 0.450980 0.647059
0.380392 0.450980 0.647059
0.450980 0.450980 0.647059
0.505882 0.450980 0.647059
0.572549 0.450980 0.647059
0.635294 0.450980 0.647059
0.694118 0.450980 0.647059
0.752941 0.450980 0.647059
0.803922 0.450980 0.647059
0.850980 0.450980 0.647059
0.890196 0.450980 0.647059
0.917647 0.450980 0.647059
0.933333 0.450980 0.647059
0.886275 0.450980 0.647059
0.784314 0.450980 0.647059
0.662745 0.450980 0.647059
0.549020 0.450980 0.647059
0.466667 0.450980 0.647059
0.407843 0.450980 0.647059
0.360784 0.450980 0.647059
0.666667 0.505882 0.647059
0.525490 0.505882 0.647059
0.360784 0.505882 0.647059
0.254902 0.505882 0.647059
0.156863 0.505882 0.647059
0.101961 0.505882 0.647059
0.098039 0.505882 0.647059
0.113725 0.505882 0.647059
0.141176 0.505882 0.647059
0.176471 0.505882 0.647059
0.219608 0.505882 0.647059
0.270588 0.505882 0.647059
0.329412 0.505882 0.647059
0.380392 0.505882 0.647059
0.450980 0.505882 0.647059
0.505882 0.505882 0.647059
0.572549 0.505882 0.647059
0.635294 0.505882 0.647059
0.694118 0.505882 0.647059
0.752941 0.505882 0.647059
0.803922 0.505882 0.647059
0.850980 0.505882 0.647059
0.890196 0.505882 0.647059
0.917647 0.505882 0.647059
0.933333 0.505882 0.647059
0.886275 0.505882 0.647059
0.784314 0.505882 0.647059
0.662745 0.505882 0.647059
0.549020 0.505882 0.647059
0.466667 0.505882 0.647059
0.407843 0.505882 0.647059
0.360784 0.505882 0.647059
0.666667 0.572549 0.647059
0.525490 0.572549 0.647059
0.360784 0.572549 0.647059
0.254902 0.572549 0.647059
0.156863 0.572549 0.647059
0.101961 0.572549 0.647059
0.098039 0.572549 0.647059
0.113725 0.572549 0.647059
0.141176 0.572549 0.647059
0.176471 0.572549 0.647059
0.219608 0.572549 0.647059
0.270588 0.572549 0.647059
0.329412 0.572549 0.647059
0.380392 0.572549 0.647059
0.450980 0.572549 0.647059
0.505882 0.572549 0.647059
0.572549 0.572549 0.647059
0.635294 0.572549 0.647059
0.694118 0.572549 0.647059
0.752941 0.572549 0.647059
0.803922 0.572549 0.647059
0.850980 0.572549 0.647059
0.890196 0.572549 0.647059
0.917647 0.572549 0.647059
0.933333 0.572549 0.647059
0.886275 0.572549 0.647059
0.784314 0.572549 0.647059
0.662745 0.572549 0.647059
0.549020 0.572549 0.647059
0.466667 0.572549 0.647059
0.407843 0.572549 0.647059
0.360784 0.572549 0.647059
0.666667 0.635294 0.647059
0.525490 0.635294 0.647059
0.360784 0.635294 0.647059
0.254902 0.635294 0.647059
0.156863 0.635294 0.647059
0.101961 0.635294 0.647059
0.098039 0.635294 0.647059
0.113725 0.635294 0.647059
0.141176 0.635294 0.647059
0.176471 0.635294 0.647059
0.219608 0.635294 0.647059
0.270588 0.635294 0.647059
0.329412 0.635294 0.647059
0.380392 0.635294 0.647059
0.450980 0.635294 0.647059
0.505882 0.635294 0.647059
0.572549 0.635294 0.647059
0.635294 0.635294 0.647059
0.694118 0.635294 0.647059
0.752941 0.635294 0.647059
0.803922 0.635294 0.647059
0.850980 0.635294 0.647059
0.890196 0.635294 0.647059
0.917647 0.635294 0.647059
0.933333 0.635294 0.647059
0.886275 0.635294 0.647059
0.784314 0.635294 0.647059
0.662745 0.635294 0.647059
0.549020 0.635294 0.647059
0.466667 0.635294 0.647059
0.407843 0.635294 0.647059
0.360784 0.635294 0.647059
0.666667 0.694118 0.647059
0.525490 0.694118 0.647059
0.360784 0.694118 0.647059
0.254902 0.694118 0.647059
0.156863 0.694118 0.647059
0.101961 0.694118 0.647059
0.098039 0.694118 0.647059
0.113725 0.694118 0.647059
0.141176 0.694118 0.647059
0.176471 0.694118 0.647059
0.219608 0.694118 0.647059
0.270588 0.694118 0.647059
0.329412 0.694118 0.647059
0.380392 0.694118 0.647059
0.450980 0.694118 0.647059
0.505882 0.694118 0.647059
0.572549 0.694118 0.647059
0.635294 0.694118 0.647059
0.694118 0.694118 0.647059
0.752941 0.694118 0.647059
0.803922 0.694118 0.647059
0.850980 0.694118 0.647059
0.890196 0.694118 0.647059
0.917647 0.694118 0.647059
0.933333 0.694118 0.647059
0.886275 0.694118 0.647059
0.784314 0.694118 0.647059
0.662745 0.694118 0.647059
0.549020 0.694118 0.647059
0.466667 0.694118 0.647059
0.407843 0.694118 0.647059
0.360784 0.694118 0.647059
0.666667 0.752941 0.647059
0.525490 0.752941 0.647059
0.360784 0.752941 0.647059
0.254902 0.752941 0.647059
0.156863 0.752941 0.647059
0.101961 0.752941 0.647059
0.098039 0.752941 0.647059
0.113725 0.752941 0.647059
0.141176 0.752941 0.647059
0.176471 0.752941 0.647059
0.219608 0.752941 0.647059
0.270588 0.752941 0.647059
0.329412 0.752941 0.647059
0.380392 0.752941 0.647059
0.450980 0.752941 0.647059
0.505882 0.752941 0.647059
0.572549 0.752941 0.647059
0.635294 0.752941 0.647059
0.694118 0.752941 0.647059
0.752941 0.752941 0.647059
0.803922 0.752941 0.647059
0.850980 0.752941 0.647059
0.890196 0.752941 0.647059
0.917647 0.752941 0.647059
0.933333 0.752941 0.647059
0.886275 0.752941 0.647059
0.784314 0.752941 0.647059
0.662745 0.752941 0.647059
0.549020 0.752941 0.647059
0.466667 0.752941 0.647059
0.407843 0.752941 0.647059
0.360784 0.752941 0.647059
0.666667 0.803922 0.647059
0.525490 0.803922 0.647059
0.360784 0.803922 0.647059
0.254902 0.803922 0.647059
0.156863 0.803922 0.647059
0.101961 0.803922 0.647059
0.098039 0.803922 0.647059
0.113725 0.803922 0.647059
0.141176 0.803922 0.647059
0.176471 0.803922 0.647059
0.219608 0.803922 0.647059
0.270588 0.803922 0.647059
0.329412 0.803922 0.647059
0.380392 0.803922 0.647059
0.450980 0.803922 0.647059
0.505882 0.803922 0.647059
0.572549 0.803922 0.647059
0.635294 0.803922 0.647059
0.694118 0.803922 0.647059
0.752941 0.803922 0.647059
0.803922 0.803922 0.647059
0.850980 0.803922 0.647059
0.890196 0.803922 0.647059
0.917647 0.803922 0.647059
0.933333 0.803922 0.647059
0.886275 0.803922 0.647059
0.784314 0.803922 0.647059
0.662745 0.803922 0.647059
0.549020 0.803922 0.647059
0.466667 0.803922 0.647059
0.407843 0.803922 0.647059
0.360784 0.803922 0.647059
0.666667 0.850980 0.647059
0.525490 0.850980 0.647059
0.360784 0.850980 0.647059
0.254902 0.850980 0.647059
0.156863 0.850980 0.647059
0.101961 0.850980 0.647059
0.098039 0.850980 0.647059
0.113725 0.850980 0.647059
0.141176 0.850980 0.647059
0.176471 0.850980 0.647059
0.219608 0.850980 0.647059
0.270588 0.850980 0.647059
0.329412 0.850980 0.647059
0.380392 0.850980 0.647059
0.450980 0.850980 0.647059
0.505882 0.850980 0.647059
0.572549 0.850980 0.647059
0.635294 0.850980 0.647059
0.694118 0.850980 0.647059
0.752941 0.850980 0.647059
0.803922 0.850980 0.647059
0.850980 0.850980 0.647059
0.890196 0.850980 0.647059
0.917647 0.850980 0.647059
0.933333 0.850980 0.647059
0.886275 0.850980 0.647059
0.784314 0.850980 0.647059
0.662745 0.850980 0.647059
0.549020 0.850980 0.647059
0.466667 0.850980 0.647059
0.407843 0.850980 0.647059
0.360784 0.850980 0.647059
0.666667 0.886275 0.647059
0.525490 0.886275 0.647059
0.360784 0.886275 0.647059
0.254902 0.886275 0.647059
0.156863 0.886275 0.647059
0.101961 0.886275 0.647059
0.098039 0.886275 0.647059
0.113725 0.886275 0.647059
0.141176 0.886275 0.647059
0.176471 0.886275 0.647059
0.219608 0.886275 0.647059
0.270588 0.886275 0.647059
0.329412 0.886275 0.647059
0.380392 0.886275 0.647059
0.450980 0.886275 0.647059
0.505882 0.886275 0.647059
0.572549 0.886275 0.647059
0.635294 0.886275 0.647059
0.694118 0.886275 0.647059
0.752941 0.886275 0.647059
0.803922 0.886275 0.647059
0.850980 0.886275 0.647059
0.890196 0.886275 0.647059
0.917647 0.886275 0.647059
0.933333 0.886275 0.647059
0.886275 0.886275 0.647059
0.784314 0.886275 0.647059
0.662745 0.886275 0.647059
0.549020 0.886275 0.647059
0.466667 0.886275 0.647059
0.407843 0.886275 0.647059
0.360784 0.886275 0.647059
0.666667 0.917647 0.647059
0.525490 0.917647 0.647059
0.360784 0.917647 0.647059
0.254902 0.917647 0.647059
0.156863 0.917647 0.647059
0.101961 0.917647 0.647059
0.098039 0.917647 0.647059
0.113725 0.917647 0.647059
0.141176 0.917647 0.647059
0.176471 0.917647 0.647059
0.219608 0.917647 0.647059
0.270588 0.917647 0.647059
0.329412 0.917647 0.647059
0.380392 0.917647 0.647059
0.450980 0.917647 0.647059
0.505882 0.917647 0.647059
0.572549 0.917647 0.647059
0.635294 0.917647 0.647059
0.694118 0.917647 0.647059
0.752941 0.917647 0.647059
0.803922 0.917647 0.647059
0.850980 0.917647 0.647059
0.890196 0.917647 0.647059
0.917647 0.917647 0.647059
0.933333 0.917647 0.647059
0.886275 0.917647 0.647059
0.784314 0.917647 0.647059
0.662745 0.917647 0.647059
0.549020 0.917647 0.647059
0.466667 0.917647 0.647059
0.407843 0.917647 0.647059
0.360784 0.917647 0.647059
0.666667 0.933333 0.647059
0.525490 0.933333 0.647059
0.360784 0.933333 0.647059
0.254902 0.933333 0.647059
0.156863 0.933333 0.647059
0.101961 0.933333 0.647059
0.098039 0.933333 0.647059
0.113725 0.933333 0.647059
0.141176 0.933333 0.647059
0.176471 0.933333 0.647059
0.219608 0.933333 0.647059
0.270588 0.933333 0.647059
0.329412 0.933333 0.647059
0.380392 0.933333 0.647059
0.450980 0.933333 0.647059
0.505882 0.933333 0.647059
0.572549 0.933333 0.647059
0.635294 0.933333 0.647059
0.694118 0.933333 0.647059
0.752941 0.933333 0.647059
0.803922 0.933333 0.647059
0.850980 0.933333 0.647059
0.890196 0.933333 0.647059
0.917647 0.933333 0.647059
0.933333 0.933333 0.647059
0.886275 0.933333 0.647059
0.784314 0.933333 0.647059
0.662745 0.933333 0.647059
0.549020 0.933333 0.647059
0.466667 0.933333 0.647059
0.407843 0.933333 0.647059
0.360784 0.933333 0.647059
0.666667 0.878431 0.647059
0.525490 0.878431 0.647059
0.360784 0.878431 0.647059
0.254902 0.878431 0.647059
0.156863 0.878431 0.647059
0.101961 0.878431 0.647059
0.098039 0.878431 0.647059
0.113725 0.878431 0.647059
0.141176 0.878431 0.647059
0.176471 0.878431 0.647059
0.219608 0.878431 0.647059
0.270588 0.878431 0.647059
0.329412 0.878431 0.647059
0.380392 0.878431 0.647059
0.450980 0.878431 0.647059
0.505882 0.878431 0.647059
0.572549 0.878431 0.647059
0.635294 0.878431 0.647059
0.694118 0.878431 0.647059
0.752941 0.878431 0.647059
0.803922 0.878431 0.647059
0.850980 0.878431 0.647059
0.890196 0.878431 0.647059
0.917647 0.878431 0.647059
0.933333 0.878431 0.647059
0.886275 0.878431 0.647059
0.784314 0.878431 0.647059
0.662745 0.878431 0.647059
0.549020 0.878431 0.647059
0.466667 0.878431 0.647059
0.407843 0.878431 0.647059
0.360784 0.878431 0.647059
0.666667 0.784314 0.647059
0.525490 0.784314 0.647059
0.360784 0.784314 0.647059
0.254902 0.784314 0.647059
0.156863 0.784314 0.647059
0.101961 0.784314 0.647059
0.098039 0.784314 0.647059
0.113725 0.784314 0.647059
0.141176 0.784314 0.647059
0.176471 0.784314 0.647059
0.219608 0.784314 0.647059
0.270588 0.784314 0.647059
0.329412 0.784314 0.647059
0.380392 0.784314 0.647059
0.450980 0.784314 0.647059
0.505882 0.784314 0.647059
0.572549 0.784314 0.647059
0.635294 0.784314 0.647059
0.694118 0.784314 0.647059
0.752941 0.784314 0.647059
0.803922 0.784314 0.647059
0.850980 0.784314 0.647059
0.890196 0.784314 0.647059
0.917647 0.784314 0.647059
0.933333 0.784314 0.647059
0.886275 0.784314 0.647059
0.784314 0.784314 0.647059
0.662745 0.784314 0.647059
0.549020 0.784314 0.647059
0.466667 0.784314 0.647059
0.407843 0.784314 0.647059
0.360784 0.784314 0.647059
0.666667 0.647059 0.647059
0.525490 0.647059 0.647059
0.360784 0.647059 0.647059
0.254902 0.647059 0.647059
0.156863 0.647059 0.647059
0.101961 0.647059 0.647059
0.098039 0.647059 0.647059
0.113725 0.647059 0.647059
0.141176 0.647059 0.647059
0.176471 0.647059 0.647059
0.219608 0.647059 0.647059
0.270588 0.647059 0.647059
0.329412 0.647059 0.647059
0.380392 0.647059 0.647059
0.450980 0.647059 0.647059
0.505882 0.647059 0.647059
0.572549 0.647059 0.647059
0.635294 0.647059 0.647059
0.694118 0.647059 0.647059
0.752941 0.647059 0.647059
0.803922 0.647059 0.647059
0.850980 0.647059 0.647059
