mpv/colortap_16.cube
# Generated by 16³ PNG→.cube converter
LUT_3D_SIZE 16
DOMAIN_MIN 0.0 0.0 0.0
DOMAIN_MAX 1.0 1.0 1.0
0.666667 0.666667 0.647059
0.345098 0.666667 0.647059
0.133333 0.666667 0.647059
0.098039 0.666667 0.647059
0.156863 0.666667 0.647059
0.250980 0.666667 0.647059
0.364706 0.666667 0.647059
0.498039 0.666667 0.647059
0.635294 0.666667 0.647059
0.760784 0.666667 0.647059
0.862745 0.666667 0.647059
0.929412 0.666667 0.647059
0.843137 0.666667 0.647059
0.588235 0.666667 0.647059
0.431373 0.666667 0.647059
0.325490 0.666667 0.647059
0.666667 0.345098 0.647059
0.345098 0.345098 0.647059
0.133333 0.345098 0.647059
0.098039 0.345098 0.647059
0.156863 0.345098 0.647059
0.250980 0.345098 0.647059
0.364706 0.345098 0.647059
0.498039 0.345098 0.647059
0.635294 0.345098 0.647059
0.760784 0.345098 0.647059
0.862745 0.345098 0.647059
0.929412 0.345098 0.647059
0.843137 0.345098 0.647059
0.588235 0.345098 0.647059
0.431373 0.345098 0.647059
0.325490 0.345098 0.647059
0.666667 0.141176 0.647059
0.345098 0.141176 0.647059
0.133333 0.141176 0.647059
0.098039 0.141176 0.647059
0.156863 0.141176 0.647059
0.250980 0.141176 0.647059
0.364706 0.141176 0.647059
0.498039 0.141176 0.647059
0.635294 0.141176 0.647059
0.760784 0.141176 0.647059
0.862745 0.141176 0.647059
0.929412 0.141176 0.647059
0.843137 0.141176 0.647059
0.588235 0.141176 0.647059
0.431373 0.141176 0.647059
0.325490 0.141176 0.647059
0.666667 0.098039 0.647059
0.345098 0.098039 0.647059
0.133333 0.098039 0.647059
0.098039 0.098039 0.647059
0.156863 0.098039 0.647059
0.250980 0.098039 0.647059
0.364706 0.098039 0.647059
0.498039 0.098039 0.647059
0.635294 0.098039 0.647059
0.760784 0.098039 0.647059
0.862745 0.098039 0.647059
0.929412 0.098039 0.647059
0.843137 0.098039 0.647059
0.588235 0.098039 0.647059
0.431373 0.098039 0.647059
0.325490 0.098039 0.647059
0.666667 0.156863 0.647059
0.345098 0.156863 0.647059
0.133333 0.156863 0.647059
0.098039 0.156863 0.647059
0.156863 0.156863 0.647059
0.250980 0.156863 0.647059
0.364706 0.156863 0.647059
0.498039 0.156863 0.647059
0.635294 0.156863 0.647059
0.760784 0.156863 0.647059
0.862745 0.156863 0.647059
0.929412 0.156863 0.647059
0.843137 0.156863 0.647059
0.588235 0.156863 0.647059
0.431373 0.156863 0.647059
0.325490 0.156863 0.647059
0.666667 0.247059 0.647059
0.345098 0.247059 0.647059
0.133333 0.247059 0.647059
0.098039 0.247059 0.647059
0.156863 0.247059 0.647059
0.250980 0.247059 0.647059
0.364706 0.247059 0.647059
0.498039 0.247059 0.647059
0.635294 0.247059 0.647059
0.760784 0.247059 0.647059
0.862745 0.247059 0.647059
0.929412 0.247059 0.647059
0.843137 0.247059 0.647059
0.588235 0.247059 0.647059
0.431373 0.247059 0.647059
0.325490 0.247059 0.647059
0.666667 0.372549 0.647059
0.345098 0.372549 0.647059
0.133333 0.372549 0.647059
0.098039 0.372549 0.647059
0.156863 0.372549 0.647059
0.250980 0.372549 0.647059
0.364706 0.372549 0.647059
0.498039 0.372549 0.647059
0.635294 0.372549 0.647059
0.760784 0.372549 0.647059
0.862745 0.372549 0.647059
0.929412 0.372549 0.647059
0.843137 0.372549 0.647059
0.588235 0.372549 0.647059
0.431373 0.372549 0.647059
0.325490 0.372549 0.647059
0.666667 0.498039 0.647059
0.345098 0.498039 0.647059
0.133333 0.498039 0.647059
0.098039 0.498039 0.647059
0.156863 0.498039 0.647059
0.250980 0.498039 0.647059
0.364706 0.498039 0.647059
0.498039 0.498039 0.647059
0.635294 0.498039 0.647059
0.760784 0.498039 0.647059
0.862745 0.498039 0.647059
0.929412 0.498039 0.647059
0.843137 0.498039 0.647059
0.588235 0.498039 0.647059
0.431373 0.498039 0.647059
0.325490 0.498039 0.647059
0.666667 0.635294 0.647059
0.345098 0.635294 0.647059
0.133333 0.635294 0.647059
0.098039 0.635294 0.647059
0.156863 0.635294 0.647059
0.250980 0.635294 0.647059
0.364706 0.635294 0.647059
0.498039 0.635294 0.647059
0.635294 0.635294 0.647059
0.760784 0.635294 0.647059
0.862745 0.635294 0.647059
0.929412 0.635294 0.647059
0.843137 0.635294 0.647059
0.588235 0.635294 0.647059
0.431373 0.635294 0.647059
0.325490 0.635294 0.647059
0.666667 0.760784 0.647059
0.345098 0.760784 0.647059
0.133333 0.760784 0.647059
0.098039 0.760784 0.647059
0.156863 0.760784 0.647059
0.250980 0.760784 0.647059
0.364706 0.760784 0.647059
0.498039 0.760784 0.647059
0.635294 0.760784 0.647059
0.760784 0.760784 0.647059
0.862745 0.760784 0.647059
0.929412 0.760784 0.647059
0.843137 0.760784 0.647059
0.588235 0.760784 0.647059
0.431373 0.760784 0.647059
0.325490 0.760784 0.647059
0.666667 0.862745 0.647059
0.345098 0.862745 0.647059
0.133333 0.862745 0.647059
0.098039 0.862745 0.647059
0.156863 0.862745 0.647059
0.250980 0.862745 0.647059
0.364706 0.862745 0.647059
0.498039 0.862745 0.647059
0.635294 0.862745 0.647059
0.760784 0.862745 0.647059
0.862745 0.862745 0.647059
0.929412 0.862745 0.647059
0.843137 0.862745 0.647059
0.588235 0.862745 0.647059
0.431373 0.862745 0.647059
0.325490 0.862745 0.647059
0.666667 0.925490 0.647059
0.345098 0.925490 0.647059
0.133333 0.925490 0.647059
0.098039 0.925490 0.647059
0.156863 0.925490 0.647059
0.250980 0.925490 0.647059
0.364706 0.925490 0.647059
0.498039 0.925490 0.647059
0.635294 0.925490 0.647059
0.760784 0.925490 0.647059
0.862745 0.925490 0.647059
0.929412 0.925490 0.647059
0.843137 0.925490 0.647059
0.588235 0.925490 0.647059
0.431373 0.925490 0.647059
0.325490 0.925490 0.647059
0.666667 0.843137 0.647059
0.345098 0.843137 0.647059
0.133333 0.843137 0.647059
0.098039 0.843137 0.647059
0.156863 0.843137 0.647059
0.250980 0.843137 0.647059
0.364706 0.843137 0.647059
0.498039 0.843137 0.647059
0.635294 0.843137 0.647059
0.760784 0.843137 0.647059
0.862745 0.843137 0.647059
0.929412 0.843137 0.647059
0.843137 0.843137 0.647059
0.588235 0.843137 0.647059
0.431373 0.843137 0.647059
0.325490 0.843137 0.647059
0.666667 0.588235 0.647059
0.345098 0.588235 0.647059
0.133333 0.588235 0.647059
0.098039 0.588235 0.647059
0.156863 0.588235 0.647059
0.250980 0.588235 0.647059
0.364706 0.588235 0.647059
0.498039 0.588235 0.647059
0.635294 0.588235 0.647059
0.760784 0.588235 0.647059
0.862745 0.588235 0.647059
0.929412 0.588235 0.647059
0.843137 0.588235 0.647059
0.588235 0.588235 0.647059
0.431373 0.588235 0.647059
0.325490 0.588235 0.647059
0.666667 0.423529 0.647059
0.345098 0.423529 0.647059
0.133333 0.423529 0.647059
0.098039 0.423529 0.647059
0.156863 0.423529 0.647059
0.250980 0.423529 0.647059
0.364706 0.423529 0.647059
0.498039 0.423529 0.647059
0.635294 0.423529 0.647059
0.760784 0.423529 0.647059
0.862745 0.423529 0.647059
0.929412 0.423529 0.647059
0.843137 0.423529 0.647059
0.588235 0.423529 0.647059
0.431373 0.423529 0.647059
0.325490 0.423529 0.647059
0.666667 0.317647 0.647059
0.345098 0.317647 0.647059
0.133333 0.317647 0.647059
0.098039 0.317647 0.647059
0.156863 0.317647 0.647059
0.250980 0.317647 0.647059
0.364706 0.317647 0.647059
0.498039 0.317647 0.647059
0.635294 0.317647 0.647059
0.760784 0.317647 0.647059
0.862745 0.317647 0.647059
0.929412 0.317647 0.647059
0.843137 0.317647 0.647059
0.588235 0.317647 0.647059
0.431373 0.317647 0.647059
0.325490 0.317647 0.647059
0.666667 0.666667 0.329412
0.345098 0.666667 0.329412
0.133333 0.666667 0.329412
0.098039 0.666667 0.329412
0.156863 0.666667 0.329412
0.250980 0.666667 0.329412
0.364706 0.666667 0.329412
0.498039 0.666667 0.329412
0.635294 0.666667 0.329412
0.760784 0.666667 0.329412
0.862745 0.666667 0.329412
0.929412 0.666667 0.329412
0.843137 0.666667 0.329412
0.588235 0.666667 0.329412
0.431373 0.666667 0.329412
0.325490 0.666667 0.329412
0.666667 0.345098 0.329412
0.345098 0.345098 0.329412
0.133333 0.345098 0.329412
0.098039 0.345098 0.329412
0.156863 0.345098 0.329412
0.250980 0.345098 0.329412
0.364706 0.345098 0.329412
0.498039 0.345098 0.329412
0.635294 0.345098 0.329412
0.760784 0.345098 0.329412
0.862745 0.345098 0.329412
0.929412 0.345098 0.329412
0.843137 0.345098 0.329412
0.588235 0.345098 0.329412
0.431373 0.345098 0.329412
0.325490 0.345098 0.329412
0.666667 0.141176 0.329412
0.345098 0.141176 0.329412
0.133333 0.141176 0.329412
0.098039 0.141176 0.329412
0.156863 0.141176 0.329412
0.250980 0.141176 0.329412
0.364706 0.141176 0.329412
0.498039 0.141176 0.329412
0.635294 0.141176 0.329412
0.760784 0.141176 0.329412
0.862745 0.141176 0.329412
0.929412 0.141176 0.329412
0.843137 0.141176 0.329412
0.588235 0.141176 0.329412
0.431373 0.141176 0.329412
0.325490 0.141176 0.329412
0.666667 0.098039 0.329412
0.345098 0.098039 0.329412
0.133333 0.098039 0.329412
0.098039 0.098039 0.329412
0.156863 0.098039 0.329412
0.250980 0.098039 0.329412
0.364706 0.098039 0.329412
0.498039 0.098039 0.329412
0.635294 0.098039 0.329412
0.760784 0.098039 0.329412
0.862745 0.098039 0.329412
0.929412 0.098039 0.329412
0.843137 0.098039 0.329412
0.588235 0.098039 0.329412
0.431373 0.098039 0.329412
0.325490 0.098039 0.329412
0.666667 0.156863 0.329412
0.345098 0.156863 0.329412
0.133333 0.156863 0.329412
0.098039 0.156863 0.329412
0.156863 0.156863 0.329412
0.250980 0.156863 0.329412
0.364706 0.156863 0.329412
0.498039 0.156863 0.329412
0.635294 0.156863 0.329412
0.760784 0.156863 0.329412
0.862745 0.156863 0.329412
0.929412 0.156863 0.329412
0.843137 0.156863 0.329412
0.588235 0.156863 0.329412
0.431373 0.156863 0.329412
0.325490 0.156863 0.329412
0.666667 0.247059 0.329412
0.345098 0.247059 0.329412
0.133333 0.247059 0.329412
0.098039 0.247059 0.329412
0.156863 0.247059 0.329412
0.250980 0.247059 0.329412
0.364706 0.247059 0.329412
0.498039 0.247059 0.329412
0.635294 0.247059 0.329412
0.760784 0.247059 0.329412
0.862745 0.247059 0.329412
0.929412 0.247059 0.329412
0.843137 0.247059 0.329412
0.588235 0.247059 0.329412
0.431373 0.247059 0.329412
0.325490 0.247059 0.329412
0.666667 0.372549 0.329412
0.345098 0.372549 0.329412
0.133333 0.372549 0.329412
0.098039 0.372549 0.329412
0.156863 0.372549 0.329412
0.250980 0.372549 0.329412
0.364706 0.372549 0.329412
0.498039 0.372549 0.329412
0.635294 0.372549 0.329412
0.760784 0.372549 0.329412
0.862745 0.372549 0.329412
0.929412 0.372549 0.329412
0.843137 0.372549 0.329412
0.588235 0.372549 0.329412
0.431373 0.372549 0.329412
0.325490 0.372549 0.329412
0.666667 0.498039 0.329412
0.345098 0.498039 0.329412
0.133333 0.498039 0.329412
0.098039 0.498039 0.329412
0.156863 0.498039 0.329412
0.250980 0.498039 0.329412
0.364706 0.498039 0.329412
0.498039 0.498039 0.329412
0.635294 0.498039 0.329412
0.760784 0.498039 0.329412
0.862745 0.498039 0.329412
0.929412 0.498039 0.329412
0.843137 0.498039 0.329412
0.588235 0.498039 0.329412
0.431373 0.498039 0.329412
0.325490 0.498039 0.329412
0.666667 0.635294 0.329412
0.345098 0.635294 0.329412
0.133333 0.635294 0.329412
0.098039 0.635294 0.329412
0.156863 0.635294 0.329412
0.250980 0.635294 0.329412
0.364706 0.635294 0.329412
0.498039 0.635294 0.329412
0.635294 0.635294 0.329412
0.760784 0.635294 0.329412
0.862745 0.635294 0.329412
0.929412 0.635294 0.329412
0.843137 0.635294 0.329412
0.588235 0.635294 0.329412
0.431373 0.635294 0.329412
0.325490 0.635294 0.329412
0.666667 0.760784 0.329412
0.345098 0.760784 0.329412
0.133333 0.760784 0.329412
0.098039 0.760784 0.329412
0.156863 0.760784 0.329412
0.250980 0.760784 0.329412
0.364706 0.760784 0.329412
0.498039 0.760784 0.329412
0.635294 0.760784 0.329412
0.760784 0.760784 0.329412
0.862745 0.760784 0.329412
0.929412 0.760784 0.329412
0.843137 0.760784 0.329412
0.588235 0.760784 0.329412
0.431373 0.760784 0.329412
0.325490 0.760784 0.329412
0.666667 0.862745 0.329412
0.345098 0.862745 0.329412
0.133333 0.862745 0.329412
0.098039 0.862745 0.329412
0.156863 0.862745 0.329412
0.250980 0.862745 0.329412
0.364706 0.862745 0.329412
0.498039 0.862745 0.329412
0.635294 0.862745 0.329412
0.760784 0.862745 0.329412
0.862745 0.862745 0.329412
0.929412 0.862745 0.329412
0.843137 0.862745 0.329412
0.588235 0.862745 0.329412
0.431373 0.862745 0.329412
0.325490 0.862745 0.329412
0.666667 0.925490 0.329412
0.345098 0.925490 0.329412
0.133333 0.925490 0.329412
0.098039 0.925490 0.329412
0.156863 0.925490 0.329412
0.250980 0.925490 0.329412
0.364706 0.925490 0.329412
0.498039 0.925490 0.329412
0.635294 0.925490 0.329412
0.760784 0.925490 0.329412
0.862745 0.925490 0.329412
0.929412 0.925490 0.329412
0.843137 0.925490 0.329412
0.588235 0.925490 0.329412
0.431373 0.925490 0.329412
0.325490 0.925490 0.329412
0.666667 0.843137 0.329412
0.345098 0.843137 0.329412
0.133333 0.843137 0.329412
0.098039 0.843137 0.329412
0.156863 0.843137 0.329412
0.250980 0.843137 0.329412
0.364706 0.843137 0.329412
0.498039 0.843137 0.329412
0.635294 0.843137 0.329412
0.760784 0.843137 0.329412
0.862745 0.843137 0.329412
0.929412 0.843137 0.329412
0.843137 0.843137 0.329412
0.588235 0.843137 0.329412
0.431373 0.843137 0.329412
0.325490 0.843137 0.329412
0.666667 0.588235 0.329412
0.345098 0.588235 0.329412
0.133333 0.588235 0.329412
0.098039 0.588235 0.329412
0.156863 0.588235 0.329412
0.250980 0.588235 0.329412
0.364706 0.588235 0.329412
0.498039 0.588235 0.329412
0.635294 0.588235 0.329412
0.760784 0.588235 0.329412
0.862745 0.588235 0.329412
0.929412 0.588235 0.329412
0.843137 0.588235 0.329412
0.588235 0.588235 0.329412
0.431373 0.588235 0.329412
0.325490 0.588235 0.329412
0.666667 0.423529 0.329412
0.345098 0.423529 0.329412
0.133333 0.423529 0.329412
0.098039 0.423529 0.329412
0.156863 0.423529 0.329412
0.250980 0.423529 0.329412
0.364706 0.423529 0.329412
0.498039 0.423529 0.329412
0.635294 0.423529 0.329412
0.760784 0.423529 0.329412
0.862745 0.423529 0.329412
0.929412 0.423529 0.329412
0.843137 0.423529 0.329412
0.588235 0.423529 0.329412
0.431373 0.423529 0.329412
0.325490 0.423529 0.329412
0.666667 0.317647 0.329412
0.345098 0.317647 0.329412
0.133333 0.317647 0.329412
0.098039 0.317647 0.329412
0.156863 0.317647 0.329412
0.250980 0.317647 0.329412
0.364706 0.317647 0.329412
0.498039 0.317647 0.329412
0.635294 0.317647 0.329412
0.760784 0.317647 0.329412
0.862745 0.317647 0.329412
0.929412 0.317647 0.329412
0.843137 0.317647 0.329412
0.588235 0.317647 0.329412
0.431373 0.317647 0.329412
0.325490 0.317647 0.329412
0.666667 0.666667 0.133333
0.345098 0.666667 0.133333
0.133333 0.666667 0.133333
0.098039 0.666667 0.133333
0.156863 0.666667 0.133333
0.250980 0.666667 0.133333
0.364706 0.666667 0.133333
0.498039 0.666667 0.133333
0.635294 0.666667 0.133333
0.760784 0.666667 0.133333
0.862745 0.666667 0.133333
0.929412 0.666667 0.133333
0.843137 0.666667 0.133333
0.588235 0.666667 0.133333
0.431373 0.666667 0.133333
0.325490 0.666667 0.133333
0.666667 0.345098 0.133333
0.345098 0.345098 0.133333
0.133333 0.345098 0.133333
0.098039 0.345098 0.133333
0.156863 0.345098 0.133333
0.250980 0.345098 0.133333
0.364706 0.345098 0.133333
0.498039 0.345098 0.133333
0.635294 0.345098 0.133333
0.760784 0.345098 0.133333
0.862745 0.345098 0.133333
0.929412 0.345098 0.133333
0.843137 0.345098 0.133333
0.588235 0.345098 0.133333
0.431373 0.345098 0.133333
0.325490 0.345098 0.133333
0.666667 0.141176 0.133333
0.345098 0.141176 0.133333
0.133333 0.141176 0.133333
0.098039 0.141176 0.133333
0.156863 0.141176 0.133333
0.250980 0.141176 0.133333
0.364706 0.141176 0.133333
0.498039 0.141176 0.133333
0.635294 0.141176 0.133333
0.760784 0.141176 0.133333
0.862745 0.141176 0.133333
0.929412 0.141176 0.133333
0.843137 0.141176 0.133333
0.588235 0.141176 0.133333
0.431373 0.141176 0.133333
0.325490 0.141176 0.133333
0.666667 0.098039 0.133333
0.345098 0.098039 0.133333
0.133333 0.098039 0.133333
0.098039 0.098039 0.133333
0.156863 0.098039 0.133333
0.250980 0.098039 0.133333
0.364706 0.098039 0.133333
0.498039 0.098039 0.133333
0.635294 0.098039 0.133333
0.760784 0.098039 0.133333
0.862745 0.098039 0.133333
0.929412 0.098039 0.133333
0.843137 0.098039 0.133333
0.588235 0.098039 0.133333
0.431373 0.098039 0.133333
0.325490 0.098039 0.133333
0.666667 0.156863 0.133333
0.345098 0.156863 0.133333
0.133333 0.156863 0.133333
0.098039 0.156863 0.133333
0.156863 0.156863 0.133333
0.250980 0.156863 0.133333
0.364706 0.156863 0.133333
0.498039 0.156863 0.133333
0.635294 0.156863 0.133333
0.760784 0.156863 0.133333
0.862745 0.156863 0.133333
0.929412 0.156863 0.133333
0.843137 0.156863 0.133333
0.588235 0.156863 0.133333
0.431373 0.156863 0.133333
0.325490 0.156863 0.133333
0.666667 0.247059 0.133333
0.345098 0.247059 0.133333
0.133333 0.247059 0.133333
0.098039 0.247059 0.133333
0.156863 0.247059 0.133333
0.250980 0.247059 0.133333
0.364706 0.247059 0.133333
0.498039 0.247059 0.133333
0.635294 0.247059 0.133333
0.760784 0.247059 0.133333
0.862745 0.247059 0.133333
0.929412 0.247059 0.133333
0.843137 0.247059 0.133333
0.588235 0.247059 0.133333
0.431373 0.247059 0.133333
0.325490 0.247059 0.133333
0.666667 0.372549 0.133333
0.345098 0.372549 0.133333
0.133333 0.372549 0.133333
0.098039 0.372549 0.133333
0.156863 0.372549 0.133333
0.250980 0.372549 0.133333
0.364706 0.372549 0.133333
0.498039 0.372549 0.133333
0.635294 0.372549 0.133333
0.760784 0.372549 0.133333
0.862745 0.372549 0.133333
0.929412 0.372549 0.133333
0.843137 0.372549 0.133333
0.588235 0.372549 0.133333
0.431373 0.372549 0.133333
0.325490 0.372549 0.133333
0.666667 0.498039 0.133333
0.345098 0.498039 0.133333
0.133333 0.498039 0.133333
0.098039 0.498039 0.133333
0.156863 0.498039 0.133333
0.250980 0.498039 0.133333
0.364706 0.498039 0.133333
0.498039 0.498039 0.133333
0.635294 0.498039 0.133333
0.760784 0.498039 0.133333
0.862745 0.498039 0.133333
0.929412 0.498039 0.133333
0.843137 0.498039 0.133333
0.588235 0.498039 0.133333
0.431373 0.498039 0.133333
0.325490 0.498039 0.133333
0.666667 0.635294 0.133333
0.345098 0.635294 0.133333
0.133333 0.635294 0.133333
0.098039 0.635294 0.133333
0.156863 0.635294 0.133333
0.250980 0.635294 0.133333
0.364706 0.635294 0.133333
0.498039 0.635294 0.133333
0.635294 0.635294 0.133333
0.760784 0.635294 0.133333
0.862745 0.635294 0.133333
0.929412 0.635294 0.133333
0.843137 0.635294 0.133333
0.588235 0.635294 0.133333
0.431373 0.635294 0.133333
0.325490 0.635294 0.133333
0.666667 0.760784 0.133333
0.345098 0.760784 0.133333
0.133333 0.760784 0.133333
0.098039 0.760784 0.133333
0.156863 0.760784 0.133333
0.250980 0.760784 0.133333
0.364706 0.760784 0.133333
0.498039 0.760784 0.133333
0.635294 0.760784 0.133333
0.760784 0.760784 0.133333
0.862745 0.760784 0.133333
0.929412 0.760784 0.133333
0.843137 0.760784 0.133333
0.588235 0.760784 0.133333
0.431373 0.760784 0.133333
0.325490 0.760784 0.133333
0.666667 0.862745 0.133333
0.345098 0.862745 0.133333
0.133333 0.862745 0.133333
0.098039 0.862745 0.133333
0.156863 0.862745 0.133333
0.250980 0.862745 0.133333
0.364706 0.862745 0.133333
0.498039 0.862745 0.133333
0.635294 0.862745 0.133333
0.760784 0.862745 0.133333
0.862745 0.862745 0.133333
0.929412 0.862745 0.133333
0.843137 0.862745 0.133333
0.588235 0.862745 0.133333
0.431373 0.862745 0.133333
0.325490 0.862745 0.133333
0.666667 0.925490 0.133333
0.345098 0.925490 0.133333
0.133333 0.925490 0.133333
0.098039 0.925490 0.133333
0.156863 0.925490 0.133333
0.250980 0.925490 0.133333
0.364706 0.925490 0.133333
0.498039 0.925490 0.133333
0.635294 0.925490 0.133333
0.760784 0.925490 0.133333
0.862745 0.925490 0.133333
0.929412 0.925490 0.133333
0.843137 0.925490 0.133333
0.588235 0.925490 0.133333
0.431373 0.925490 0.133333
0.325490 0.925490 0.133333
0.666667 0.843137 0.133333
0.345098 0.843137 0.133333
0.133333 0.843137 0.133333
0.098039 0.843137 0.133333
0.156863 0.843137 0.133333
0.250980 0.843137 0.133333
0.364706 0.843137 0.133333
0.498039 0.843137 0.133333
0.635294 0.843137 0.133333
0.760784 0.843137 0.133333
0.862745 0.843137 0.133333
0.929412 0.843137 0.133333
0.843137 0.843137 0.133333
0.588235 0.843137 0.133333
0.431373 0.843137 0.133333
0.325490 0.843137 0.133333
0.666667 0.588235 0.133333
0.345098 0.588235 0.133333
0.133333 0.588235 0.133333
0.098039 0.588235 0.133333
0.156863 0.588235 0.133333
0.250980 0.588235 0.133333
0.364706 0.588235 0.133333
0.498039 0.588235 0.133333
0.635294 0.588235 0.133333
0.760784 0.588235 0.133333
0.862745 0.588235 0.133333
0.929412 0.588235 0.133333
0.843137 0.588235 0.133333
0.588235 0.588235 0.133333
0.431373 0.588235 0.133333
0.325490 0.588235 0.133333
0.666667 0.423529 0.133333
0.345098 0.423529 0.133333
0.133333 0.423529 0.133333
0.098039 0.423529 0.133333
0.156863 0.423529 0.133333
0.250980 0.423529 0.133333
0.364706 0.423529 0.133333
0.498039 0.423529 0.133333
0.635294 0.423529 0.133333
0.760784 0.423529 0.133333
0.862745 0.423529 0.133333
0.929412 0.423529 0.133333
0.843137 0.423529 0.133333
0.588235 0.423529 0.133333
0.431373 0.423529 0.133333
0.325490 0.423529 0.133333
0.666667 0.317647 0.133333
0.345098 0.317647 0.133333
0.133333 0.317647 0.133333
0.098039 0.317647 0.133333
0.156863 0.317647 0.133333
0.250980 0.317647 0.133333
0.364706 0.317647 0.133333
0.498039 0.317647 0.133333
0.635294 0.317647 0.133333
0.760784 0.317647 0.133333
0.862745 0.317647 0.133333
0.929412 0.317647 0.133333
0.843137 0.317647 0.133333
0.588235 0.317647 0.133333
0.431373 0.317647 0.133333
0.325490 0.317647 0.133333
0.666667 0.666667 0.101961
0.345098 0.666667 0.101961
0.133333 0.666667 0.101961
0.098039 0.666667 0.101961
0.156863 0.666667 0.101961
0.250980 0.666667 0.101961
0.364706 0.666667 0.101961
0.498039 0.666667 0.101961
0.635294 0.666667 0.101961
0.760784 0.666667 0.101961
0.862745 0.666667 0.101961
0.929412 0.666667 0.101961
0.843137 0.666667 0.101961
0.588235 0.666667 0.101961
0.431373 0.666667 0.101961
0.325490 0.666667 0.101961
0.666667 0.345098 0.101961
0.345098 0.345098 0.101961
0.133333 0.345098 0.101961
0.098039 0.345098 0.101961
0.156863 0.345098 0.101961
0.250980 0.345098 0.101961
0.364706 0.345098 0.101961
0.498039 0.345098 0.101961
0.635294 0.345098 0.101961
0.760784 0.345098 0.101961
0.862745 0.345098 0.101961
0.929412 0.345098 0.101961
0.843137 0.345098 0.101961
0.588235 0.345098 0.101961
0.431373 0.345098 0.101961
0.325490 0.345098 0.101961
0.666667 0.141176 0.101961
0.345098 0.141176 0.101961
0.133333 0.141176 0.101961
0.098039 0.141176 0.101961
0.156863 0.141176 0.101961
0.250980 0.141176 0.101961
0.364706 0.141176 0.101961
0.498039 0.141176 0.101961
0.635294 0.141176 0.101961
0.760784 0.141176 0.101961
0.862745 0.141176 0.101961
0.929412 0.141176 0.101961
0.843137 0.141176 0.101961
0.588235 0.141176 0.101961
0.431373 0.141176 0.101961
0.325490 0.141176 0.101961
0.666667 0.098039 0.101961
0.345098 0.098039 0.101961
0.133333 0.098039 0.101961
0.098039 0.098039 0.101961
0.156863 0.098039 0.101961
0.250980 0.098039 0.101961
0.364706 0.098039 0.101961
0.498039 0.098039 0.101961
0.635294 0.098039 0.101961
0.760784 0.098039 0.101961
0.862745 0.098039 0.101961
0.929412 0.098039 0.101961
0.843137 0.098039 0.101961
0.588235 0.098039 0.101961
0.431373 0.098039 0.101961
0.325490 0.098039 0.101961
0.666667 0.156863 0.101961
0.345098 0.156863 0.101961
0.133333 0.156863 0.101961
0.098039 0.156863 0.101961
0.156863 0.156863 0.101961
0.250980 0.156863 0.101961
0.364706 0.156863 0.101961
0.498039 0.156863 0.101961
0.635294 0.156863 0.101961
0.760784 0.156863 0.101961
0.862745 0.156863 0.101961
0.929412 0.156863 0.101961
0.843137 0.156863 0.101961
0.588235 0.156863 0.101961
0.431373 0.156863 0.101961
0.325490 0.156863 0.101961
0.666667 0.247059 0.101961
0.345098 0.247059 0.101961
0.133333 0.247059 0.101961
0.098039 0.247059 0.101961
0.156863 0.247059 0.101961
0.250980 0.247059 0.101961
0.364706 0.247059 0.101961
0.498039 0.247059 0.101961
0.635294 0.247059 0.101961
0.760784 0.247059 0.101961
0.862745 0.247059 0.101961
0.929412 0.247059 0.101961
0.843137 0.247059 0.101961
0.588235 0.247059 0.101961
0.431373 0.247059 0.101961
0.325490 0.247059 0.101961
0.666667 0.372549 0.101961
0.345098 0.372549 0.101961
0.133333 0.372549 0.101961
0.098039 0.372549 0.101961
0.156863 0.372549 0.101961
0.250980 0.372549 0.101961
0.364706 0.372549 0.101961
0.498039 0.372549 0.101961
0.635294 0.372549 0.101961
0.760784 0.372549 0.101961
0.862745 0.372549 0.101961
0.929412 0.372549 0.101961
0.843137 0.372549 0.101961
0.588235 0.372549 0.101961
0.431373 0.372549 0.101961
0.325490 0.372549 0.101961
0.666667 0.498039 0.101961
0.345098 0.498039 0.101961
0.133333 0.498039 0.101961
0.098039 0.498039 0.101961
0.156863 0.498039 0.101961
