mpv/eye_saver.cube
#Generated by lutCreator.js
#Coded by SirSerch
#https://github.com/SirSerch/LutCreatorJs
TITLE lutCreatorJs_25
LUT_3D_SIZE 5
0.000000 0.000000 0.000000
0.250980 0.000000 0.000000
0.501961 0.000000 0.000000
0.749020 0.000000 0.000000
1.000000 0.000000 0.000000
0.000000 0.250980 0.000000
0.250980 0.250980 0.000000
0.501961 0.250980 0.000000
0.749020 0.250980 0.000000
1.000000 0.250980 0.000000
0.000000 0.501961 0.000000
0.250980 0.501961 0.000000
0.501961 0.501961 0.000000
0.749020 0.501961 0.000000
1.000000 0.501961 0.000000
0.000000 0.749020 0.000000
0.250980 0.749020 0.000000
0.501961 0.749020 0.000000
0.749020 0.749020 0.000000
1.000000 0.749020 0.000000
0.000000 1.000000 0.000000
0.250980 1.000000 0.000000
0.501961 1.000000 0.000000
0.749020 1.000000 0.000000
1.000000 1.000000 0.000000
0.000000 0.000000 0.250980
0.250980 0.000000 0.250980
0.501961 0.000000 0.250980
0.749020 0.000000 0.250980
1.000000 0.000000 0.250980
0.000000 0.250980 0.250980
0.250980 0.250980 0.250980
0.501961 0.250980 0.250980
0.749020 0.250980 0.250980
1.000000 0.250980 0.250980
0.000000 0.501961 0.250980
0.250980 0.501961 0.250980
0.501961 0.501961 0.250980
0.749020 0.501961 0.250980
1.000000 0.501961 0.250980
0.000000 0.749020 0.250980
0.250980 0.749020 0.250980
0.501961 0.749020 0.250980
0.749020 0.749020 0.250980
1.000000 0.749020 0.250980
0.000000 1.000000 0.250980
0.250980 1.000000 0.250980
0.501961 1.000000 0.250980
0.749020 1.000000 0.250980
1.000000 1.000000 0.250980
0.000000 0.000000 0.501961
0.250980 0.000000 0.501961
0.501961 0.000000 0.501961
0.749020 0.000000 0.501961
1.000000 0.000000 0.501961
0.000000 0.250980 0.501961
0.250980 0.250980 0.501961
0.501961 0.250980 0.501961
0.749020 0.250980 0.501961
1.000000 0.250980 0.501961
0.000000 0.501961 0.501961
0.250980 0.501961 0.501961
0.501961 0.501961 0.501961
0.749020 0.501961 0.501961
1.000000 0.501961 0.501961
0.000000 0.749020 0.501961
0.250980 0.749020 0.501961
0.501961 0.749020 0.501961
0.749020 0.749020 0.501961
1.000000 0.749020 0.501961
0.000000 1.000000 0.501961
0.250980 1.000000 0.501961
0.501961 1.000000 0.501961
0.749020 1.000000 0.501961
1.000000 1.000000 0.501961
0.000000 0.000000 0.749020
0.250980 0.000000 0.749020
0.501961 0.000000 0.749020
0.749020 0.000000 0.749020
1.000000 0.000000 0.749020
0.000000 0.250980 0.749020
0.250980 0.250980 0.749020
0.501961 0.250980 0.749020
0.749020 0.250980 0.749020
1.000000 0.250980 0.749020
0.000000 0.501961 0.749020
0.250980 0.501961 0.749020
0.501961 0.501961 0.749020
0.749020 0.501961 0.749020
1.000000 0.501961 0.749020
0.000000 0.749020 0.749020
0.250980 0.749020 0.749020
0.501961 0.749020 0.749020
0.376471 0.376471 0.376471
0.505882 0.376471 0.376471
0.000000 1.000000 0.749020
0.250980 1.000000 0.749020
0.501961 1.000000 0.749020
0.376471 0.505882 0.376471
0.505882 0.505882 0.376471
0.000000 0.000000 1.000000
0.250980 0.000000 1.000000
0.501961 0.000000 1.000000
0.749020 0.000000 1.000000
1.000000 0.000000 1.000000
0.000000 0.250980 1.000000
0.250980 0.250980 1.000000
0.501961 0.250980 1.000000
0.749020 0.250980 1.000000
1.000000 0.250980 1.000000
0.000000 0.501961 1.000000
0.250980 0.501961 1.000000
0.501961 0.501961 1.000000
0.749020 0.501961 1.000000
1.000000 0.501961 1.000000
0.000000 0.749020 1.000000
0.250980 0.749020 1.000000
0.501961 0.749020 1.000000
0.376471 0.376471 0.505882
0.505882 0.376471 0.505882
0.000000 1.000000 1.000000
0.250980 1.000000 1.000000
0.501961 1.000000 1.000000
0.376471 0.505882 0.505882
0.011765 0.011765 0.011765
