mpv/eye_saver.cube
#Generated by lutCreator.js
#Coded by SirSerch
#https://github.com/SirSerch/LutCreatorJs
TITLE lutCreatorJs_25
LUT_3D_SIZE 9
0.000000 0.000000 0.000000
0.125490 0.000000 0.000000
0.250980 0.000000 0.000000
0.376471 0.000000 0.000000
0.501961 0.000000 0.000000
0.623529 0.000000 0.000000
0.749020 0.000000 0.000000
0.874510 0.000000 0.000000
1.000000 0.000000 0.000000
0.000000 0.125490 0.000000
0.125490 0.125490 0.000000
0.250980 0.125490 0.000000
0.376471 0.125490 0.000000
0.501961 0.125490 0.000000
0.623529 0.125490 0.000000
0.749020 0.125490 0.000000
0.874510 0.125490 0.000000
1.000000 0.125490 0.000000
0.000000 0.250980 0.000000
0.125490 0.250980 0.000000
0.250980 0.250980 0.000000
0.376471 0.250980 0.000000
0.501961 0.250980 0.000000
0.623529 0.250980 0.000000
0.749020 0.250980 0.000000
0.874510 0.250980 0.000000
1.000000 0.250980 0.000000
0.000000 0.376471 0.000000
0.125490 0.376471 0.000000
0.250980 0.376471 0.000000
0.376471 0.376471 0.000000
0.501961 0.376471 0.000000
0.623529 0.376471 0.000000
0.749020 0.376471 0.000000
0.874510 0.376471 0.000000
1.000000 0.376471 0.000000
0.000000 0.501961 0.000000
0.125490 0.501961 0.000000
0.250980 0.501961 0.000000
0.376471 0.501961 0.000000
0.501961 0.501961 0.000000
0.623529 0.501961 0.000000
0.749020 0.501961 0.000000
0.874510 0.501961 0.000000
1.000000 0.501961 0.000000
0.000000 0.623529 0.000000
0.125490 0.623529 0.000000
0.250980 0.623529 0.000000
0.376471 0.623529 0.000000
0.501961 0.623529 0.000000
0.623529 0.623529 0.000000
0.749020 0.623529 0.000000
0.874510 0.623529 0.000000
1.000000 0.623529 0.000000
0.000000 0.749020 0.000000
0.125490 0.749020 0.000000
0.250980 0.749020 0.000000
0.376471 0.749020 0.000000
0.501961 0.749020 0.000000
0.623529 0.749020 0.000000
0.749020 0.749020 0.000000
0.874510 0.749020 0.000000
1.000000 0.749020 0.000000
0.000000 0.874510 0.000000
0.125490 0.874510 0.000000
0.250980 0.874510 0.000000
0.376471 0.874510 0.000000
0.501961 0.874510 0.000000
0.623529 0.874510 0.000000
0.749020 0.874510 0.000000
0.874510 0.874510 0.000000
1.000000 0.874510 0.000000
0.000000 1.000000 0.000000
0.125490 1.000000 0.000000
0.250980 1.000000 0.000000
0.376471 1.000000 0.000000
0.501961 1.000000 0.000000
0.623529 1.000000 0.000000
0.749020 1.000000 0.000000
0.874510 1.000000 0.000000
1.000000 1.000000 0.000000
0.000000 0.000000 0.125490
0.125490 0.000000 0.125490
0.250980 0.000000 0.125490
0.376471 0.000000 0.125490
0.501961 0.000000 0.125490
0.623529 0.000000 0.125490
0.749020 0.000000 0.125490
0.874510 0.000000 0.125490
1.000000 0.000000 0.125490
0.000000 0.125490 0.125490
0.125490 0.125490 0.125490
0.250980 0.125490 0.125490
0.376471 0.125490 0.125490
0.501961 0.125490 0.125490
0.623529 0.125490 0.125490
0.749020 0.125490 0.125490
0.874510 0.125490 0.125490
1.000000 0.125490 0.125490
0.000000 0.250980 0.125490
0.125490 0.250980 0.125490
0.250980 0.250980 0.125490
0.376471 0.250980 0.125490
0.501961 0.250980 0.125490
0.623529 0.250980 0.125490
0.749020 0.250980 0.125490
0.874510 0.250980 0.125490
1.000000 0.250980 0.125490
0.000000 0.376471 0.125490
0.125490 0.376471 0.125490
0.250980 0.376471 0.125490
0.376471 0.376471 0.125490
0.501961 0.376471 0.125490
0.623529 0.376471 0.125490
0.749020 0.376471 0.125490
0.874510 0.376471 0.125490
1.000000 0.376471 0.125490
0.000000 0.501961 0.125490
0.125490 0.501961 0.125490
0.250980 0.501961 0.125490
0.376471 0.501961 0.125490
0.501961 0.501961 0.125490
0.623529 0.501961 0.125490
0.749020 0.501961 0.125490
0.874510 0.501961 0.125490
1.000000 0.501961 0.125490
0.000000 0.623529 0.125490
0.125490 0.623529 0.125490
0.250980 0.623529 0.125490
0.376471 0.623529 0.125490
0.501961 0.623529 0.125490
0.623529 0.623529 0.125490
0.749020 0.623529 0.125490
0.874510 0.623529 0.125490
1.000000 0.623529 0.125490
0.000000 0.749020 0.125490
0.125490 0.749020 0.125490
0.250980 0.749020 0.125490
0.376471 0.749020 0.125490
0.501961 0.749020 0.125490
0.623529 0.749020 0.125490
0.749020 0.749020 0.125490
0.874510 0.749020 0.125490
1.000000 0.749020 0.125490
0.000000 0.874510 0.125490
0.125490 0.874510 0.125490
0.250980 0.874510 0.125490
0.376471 0.874510 0.125490
0.501961 0.874510 0.125490
0.623529 0.874510 0.125490
0.749020 0.874510 0.125490
0.874510 0.874510 0.125490
1.000000 0.874510 0.125490
0.000000 1.000000 0.125490
0.125490 1.000000 0.125490
0.250980 1.000000 0.125490
0.376471 1.000000 0.125490
0.501961 1.000000 0.125490
0.623529 1.000000 0.125490
0.749020 1.000000 0.125490
0.874510 1.000000 0.125490
1.000000 1.000000 0.125490
0.000000 0.000000 0.250980
0.125490 0.000000 0.250980
0.250980 0.000000 0.250980
0.376471 0.000000 0.250980
0.501961 0.000000 0.250980
0.623529 0.000000 0.250980
0.749020 0.000000 0.250980
0.874510 0.000000 0.250980
1.000000 0.000000 0.250980
0.000000 0.125490 0.250980
0.125490 0.125490 0.250980
0.250980 0.125490 0.250980
0.376471 0.125490 0.250980
0.501961 0.125490 0.250980
0.623529 0.125490 0.250980
0.749020 0.125490 0.250980
0.874510 0.125490 0.250980
1.000000 0.125490 0.250980
0.000000 0.250980 0.250980
0.125490 0.250980 0.250980
0.250980 0.250980 0.250980
0.376471 0.250980 0.250980
0.501961 0.250980 0.250980
0.623529 0.250980 0.250980
0.749020 0.250980 0.250980
0.874510 0.250980 0.250980
1.000000 0.250980 0.250980
0.000000 0.376471 0.250980
0.125490 0.376471 0.250980
0.250980 0.376471 0.250980
0.376471 0.376471 0.250980
0.501961 0.376471 0.250980
0.623529 0.376471 0.250980
0.749020 0.376471 0.250980
0.874510 0.376471 0.250980
1.000000 0.376471 0.250980
0.000000 0.501961 0.250980
0.125490 0.501961 0.250980
0.250980 0.501961 0.250980
0.376471 0.501961 0.250980
0.501961 0.501961 0.250980
0.623529 0.501961 0.250980
0.749020 0.501961 0.250980
0.874510 0.501961 0.250980
1.000000 0.501961 0.250980
0.000000 0.623529 0.250980
0.125490 0.623529 0.250980
0.250980 0.623529 0.250980
0.376471 0.623529 0.250980
0.501961 0.623529 0.250980
0.623529 0.623529 0.250980
0.749020 0.623529 0.250980
0.874510 0.623529 0.250980
1.000000 0.623529 0.250980
0.000000 0.749020 0.250980
0.125490 0.749020 0.250980
0.250980 0.749020 0.250980
0.376471 0.749020 0.250980
0.501961 0.749020 0.250980
0.623529 0.749020 0.250980
0.749020 0.749020 0.250980
0.874510 0.749020 0.250980
1.000000 0.749020 0.250980
0.000000 0.874510 0.250980
0.125490 0.874510 0.250980
0.250980 0.874510 0.250980
0.376471 0.874510 0.250980
0.501961 0.874510 0.250980
0.623529 0.874510 0.250980
0.749020 0.874510 0.250980
0.874510 0.874510 0.250980
1.000000 0.874510 0.250980
0.000000 1.000000 0.250980
0.125490 1.000000 0.250980
0.250980 1.000000 0.250980
0.376471 1.000000 0.250980
0.501961 1.000000 0.250980
0.623529 1.000000 0.250980
0.749020 1.000000 0.250980
0.874510 1.000000 0.250980
1.000000 1.000000 0.250980
0.000000 0.000000 0.376471
0.125490 0.000000 0.376471
0.250980 0.000000 0.376471
0.376471 0.000000 0.376471
0.501961 0.000000 0.376471
0.623529 0.000000 0.376471
0.749020 0.000000 0.376471
0.874510 0.000000 0.376471
1.000000 0.000000 0.376471
0.000000 0.125490 0.376471
0.125490 0.125490 0.376471
0.250980 0.125490 0.376471
0.376471 0.125490 0.376471
0.501961 0.125490 0.376471
0.623529 0.125490 0.376471
0.749020 0.125490 0.376471
0.874510 0.125490 0.376471
1.000000 0.125490 0.376471
0.000000 0.250980 0.376471
0.125490 0.250980 0.376471
0.250980 0.250980 0.376471
0.376471 0.250980 0.376471
0.501961 0.250980 0.376471
0.623529 0.250980 0.376471
0.749020 0.250980 0.376471
0.874510 0.250980 0.376471
1.000000 0.250980 0.376471
0.000000 0.376471 0.376471
0.125490 0.376471 0.376471
0.250980 0.376471 0.376471
0.376471 0.376471 0.376471
0.501961 0.376471 0.376471
0.623529 0.376471 0.376471
0.749020 0.376471 0.376471
0.874510 0.376471 0.376471
1.000000 0.376471 0.376471
0.000000 0.501961 0.376471
0.125490 0.501961 0.376471
0.250980 0.501961 0.376471
0.376471 0.501961 0.376471
0.501961 0.501961 0.376471
0.623529 0.501961 0.376471
0.749020 0.501961 0.376471
0.874510 0.501961 0.376471
1.000000 0.501961 0.376471
0.000000 0.623529 0.376471
0.125490 0.623529 0.376471
0.250980 0.623529 0.376471
0.376471 0.623529 0.376471
0.501961 0.623529 0.376471
0.623529 0.623529 0.376471
0.749020 0.623529 0.376471
0.874510 0.623529 0.376471
1.000000 0.623529 0.376471
0.000000 0.749020 0.376471
0.125490 0.749020 0.376471
0.250980 0.749020 0.376471
0.376471 0.749020 0.376471
0.501961 0.749020 0.376471
0.623529 0.749020 0.376471
0.749020 0.749020 0.376471
0.874510 0.749020 0.376471
1.000000 0.749020 0.376471
0.000000 0.874510 0.376471
0.125490 0.874510 0.376471
0.250980 0.874510 0.376471
0.376471 0.874510 0.376471
0.501961 0.874510 0.376471
0.623529 0.874510 0.376471
0.749020 0.874510 0.376471
0.874510 0.874510 0.376471
1.000000 0.874510 0.376471
0.000000 1.000000 0.376471
0.125490 1.000000 0.376471
0.250980 1.000000 0.376471
0.376471 1.000000 0.376471
0.501961 1.000000 0.376471
0.623529 1.000000 0.376471
0.749020 1.000000 0.376471
0.874510 1.000000 0.376471
1.000000 1.000000 0.376471
0.000000 0.000000 0.501961
0.125490 0.000000 0.501961
0.250980 0.000000 0.501961
0.376471 0.000000 0.501961
0.501961 0.000000 0.501961
0.623529 0.000000 0.501961
0.749020 0.000000 0.501961
0.874510 0.000000 0.501961
1.000000 0.000000 0.501961
0.000000 0.125490 0.501961
0.125490 0.125490 0.501961
0.250980 0.125490 0.501961
0.376471 0.125490 0.501961
0.501961 0.125490 0.501961
0.623529 0.125490 0.501961
0.749020 0.125490 0.501961
0.874510 0.125490 0.501961
1.000000 0.125490 0.501961
0.000000 0.250980 0.501961
0.125490 0.250980 0.501961
0.250980 0.250980 0.501961
0.376471 0.250980 0.501961
0.501961 0.250980 0.501961
0.623529 0.250980 0.501961
0.749020 0.250980 0.501961
0.874510 0.250980 0.501961
1.000000 0.250980 0.501961
0.000000 0.376471 0.501961
0.125490 0.376471 0.501961
0.250980 0.376471 0.501961
0.376471 0.376471 0.501961
0.501961 0.376471 0.501961
0.623529 0.376471 0.501961
0.749020 0.376471 0.501961
0.874510 0.376471 0.501961
1.000000 0.376471 0.501961
0.000000 0.501961 0.501961
0.125490 0.501961 0.501961
0.250980 0.501961 0.501961
0.376471 0.501961 0.501961
0.501961 0.501961 0.501961
0.623529 0.501961 0.501961
0.749020 0.501961 0.501961
0.874510 0.501961 0.501961
1.000000 0.501961 0.501961
0.000000 0.623529 0.501961
0.125490 0.623529 0.501961
0.250980 0.623529 0.501961
0.376471 0.623529 0.501961
0.501961 0.623529 0.501961
0.623529 0.623529 0.501961
0.749020 0.623529 0.501961
0.874510 0.623529 0.501961
1.000000 0.623529 0.501961
0.000000 0.749020 0.501961
0.125490 0.749020 0.501961
0.250980 0.749020 0.501961
0.376471 0.749020 0.501961
0.501961 0.749020 0.501961
0.623529 0.749020 0.501961
0.749020 0.749020 0.501961
0.874510 0.749020 0.501961
1.000000 0.749020 0.501961
0.000000 0.874510 0.501961
0.125490 0.874510 0.501961
0.250980 0.874510 0.501961
0.376471 0.874510 0.501961
0.501961 0.874510 0.501961
0.623529 0.874510 0.501961
0.749020 0.874510 0.501961
0.874510 0.874510 0.501961
1.000000 0.874510 0.501961
0.000000 1.000000 0.501961
0.125490 1.000000 0.501961
0.250980 1.000000 0.501961
0.376471 1.000000 0.501961
0.501961 1.000000 0.501961
0.623529 1.000000 0.501961
0.749020 1.000000 0.501961
0.874510 1.000000 0.501961
1.000000 1.000000 0.501961
0.000000 0.000000 0.623529
0.125490 0.000000 0.623529
0.250980 0.000000 0.623529
0.376471 0.000000 0.623529
0.501961 0.000000 0.623529
0.623529 0.000000 0.623529
0.749020 0.000000 0.623529
0.874510 0.000000 0.623529
1.000000 0.000000 0.623529
0.000000 0.125490 0.623529
0.125490 0.125490 0.623529
0.250980 0.125490 0.623529
0.376471 0.125490 0.623529
0.501961 0.125490 0.623529
0.623529 0.125490 0.623529
0.749020 0.125490 0.623529
0.874510 0.125490 0.623529
1.000000 0.125490 0.623529
0.000000 0.250980 0.623529
0.125490 0.250980 0.623529
0.250980 0.250980 0.623529
0.376471 0.250980 0.623529
0.501961 0.250980 0.623529
0.623529 0.250980 0.623529
0.749020 0.250980 0.623529
0.874510 0.250980 0.623529
1.000000 0.250980 0.623529
0.000000 0.376471 0.623529
0.125490 0.376471 0.623529
0.250980 0.376471 0.623529
0.376471 0.376471 0.623529
0.501961 0.376471 0.623529
0.623529 0.376471 0.623529
0.749020 0.376471 0.623529
0.874510 0.376471 0.623529
1.000000 0.376471 0.623529
0.000000 0.501961 0.623529
0.125490 0.501961 0.623529
0.250980 0.501961 0.623529
0.376471 0.501961 0.623529
0.501961 0.501961 0.623529
0.623529 0.501961 0.623529
0.749020 0.501961 0.623529
0.874510 0.501961 0.623529
1.000000 0.501961 0.623529
0.000000 0.623529 0.623529
0.125490 0.623529 0.623529
0.250980 0.623529 0.623529
0.376471 0.623529 0.623529
0.501961 0.623529 0.623529
0.470588 0.470588 0.470588
0.564706 0.470588 0.470588
0.658824 0.470588 0.470588
0.756863 0.470588 0.470588
0.000000 0.749020 0.623529
0.125490 0.749020 0.623529
0.250980 0.749020 0.623529
0.376471 0.749020 0.623529
0.501961 0.749020 0.623529
0.470588 0.564706 0.470588
0.564706 0.564706 0.470588
0.658824 0.564706 0.470588
0.756863 0.564706 0.470588
0.000000 0.874510 0.623529
0.125490 0.874510 0.623529
0.250980 0.874510 0.623529
0.376471 0.874510 0.623529
0.501961 0.874510 0.623529
0.470588 0.658824 0.470588
0.564706 0.658824 0.470588
0.658824 0.658824 0.470588
0.756863 0.658824 0.470588
0.000000 1.000000 0.623529
0.125490 1.000000 0.623529
0.250980 1.000000 0.623529
0.376471 1.000000 0.623529
0.501961 1.000000 0.623529
0.470588 0.756863 0.470588
0.564706 0.756863 0.470588
0.658824 0.756863 0.470588
0.756863 0.756863 0.470588
0.000000 0.000000 0.749020
0.125490 0.000000 0.749020
0.250980 0.000000 0.749020
0.376471 0.000000 0.749020
0.501961 0.000000 0.749020
0.623529 0.000000 0.749020
0.749020 0.000000 0.749020
0.874510 0.000000 0.749020
1.000000 0.000000 0.749020
0.000000 0.125490 0.749020
0.125490 0.125490 0.749020
0.250980 0.125490 0.749020
0.376471 0.125490 0.749020
0.501961 0.125490 0.749020
0.623529 0.125490 0.749020
0.749020 0.125490 0.749020
0.874510 0.125490 0.749020
1.000000 0.125490 0.749020
0.000000 0.250980 0.749020
0.125490 0.250980 0.749020
0.250980 0.250980 0.749020
0.376471 0.250980 0.749020
0.501961 0.250980 0.749020
0.623529 0.250980 0.749020
0.749020 0.250980 0.749020
0.874510 0.250980 0.749020
1.000000 0.250980 0.749020
0.000000 0.376471 0.749020
0.125490 0.376471 0.749020
0.250980 0.376471 0.749020
0.376471 0.376471 0.749020
0.501961 0.376471 0.749020
0.623529 0.376471 0.749020
0.749020 0.376471 0.749020
0.874510 0.376471 0.749020
1.000000 0.376471 0.749020
0.000000 0.501961 0.749020
0.125490 0.501961 0.749020
0.250980 0.501961 0.749020
0.376471 0.501961 0.749020
0.501961 0.501961 0.749020
0.623529 0.501961 0.749020
0.749020 0.501961 0.749020
0.874510 0.501961 0.749020
1.000000 0.501961 0.749020
0.000000 0.623529 0.749020
0.125490 0.623529 0.749020
0.250980 0.623529 0.749020
0.376471 0.623529 0.749020
0.501961 0.623529 0.749020
0.470588 0.470588 0.564706
0.564706 0.470588 0.564706
0.658824 0.470588 0.564706
0.756863 0.470588 0.564706
0.000000 0.749020 0.749020
0.125490 0.749020 0.749020
0.250980 0.749020 0.749020
0.376471 0.749020 0.749020
0.501961 0.749020 0.749020
0.470588 0.564706 0.564706
0.376471 0.376471 0.376471
0.439216 0.376471 0.376471
0.505882 0.376471 0.376471
0.000000 0.874510 0.749020
0.125490 0.874510 0.749020
0.250980 0.874510 0.749020
0.376471 0.874510 0.749020
0.501961 0.874510 0.749020
0.470588 0.658824 0.564706
0.376471 0.439216 0.376471
0.439216 0.439216 0.376471
0.505882 0.439216 0.376471
0.000000 1.000000 0.749020
0.125490 1.000000 0.749020
0.250980 1.000000 0.749020
0.376471 1.000000 0.749020
0.501961 1.000000 0.749020
0.470588 0.756863 0.564706
0.376471 0.505882 0.376471
0.439216 0.505882 0.376471
0.505882 0.505882 0.376471
0.000000 0.000000 0.874510
0.125490 0.000000 0.874510
0.250980 0.000000 0.874510
0.376471 0.000000 0.874510
0.501961 0.000000 0.874510
0.623529 0.000000 0.874510
0.749020 0.000000 0.874510
0.874510 0.000000 0.874510
1.000000 0.000000 0.874510
0.000000 0.125490 0.874510
0.125490 0.125490 0.874510
0.250980 0.125490 0.874510
0.376471 0.125490 0.874510
0.501961 0.125490 0.874510
0.623529 0.125490 0.874510
0.749020 0.125490 0.874510
0.874510 0.125490 0.874510
1.000000 0.125490 0.874510
0.000000 0.250980 0.874510
0.125490 0.250980 0.874510
0.250980 0.250980 0.874510
0.376471 0.250980 0.874510
0.501961 0.250980 0.874510
0.623529 0.250980 0.874510
0.749020 0.250980 0.874510
0.874510 0.250980 0.874510
1.000000 0.250980 0.874510
0.000000 0.376471 0.874510
0.125490 0.376471 0.874510
0.250980 0.376471 0.874510
0.376471 0.376471 0.874510
0.501961 0.376471 0.874510
0.623529 0.376471 0.874510
0.749020 0.376471 0.874510
0.874510 0.376471 0.874510
1.000000 0.376471 0.874510
0.000000 0.501961 0.874510
0.125490 0.501961 0.874510
0.250980 0.501961 0.874510
0.376471 0.501961 0.874510
0.501961 0.501961 0.874510
0.623529 0.501961 0.874510
0.749020 0.501961 0.874510
0.874510 0.501961 0.874510
1.000000 0.501961 0.874510
0.000000 0.623529 0.874510
0.125490 0.623529 0.874510
0.250980 0.623529 0.874510
0.376471 0.623529 0.874510
0.501961 0.623529 0.874510
0.470588 0.470588 0.658824
0.564706 0.470588 0.658824
0.658824 0.470588 0.658824
0.756863 0.470588 0.658824
0.000000 0.749020 0.874510
0.125490 0.749020 0.874510
0.250980 0.749020 0.874510
0.376471 0.749020 0.874510
0.501961 0.749020 0.874510
0.470588 0.564706 0.658824
0.376471 0.376471 0.439216
0.439216 0.376471 0.439216
0.505882 0.376471 0.439216
0.000000 0.874510 0.874510
0.125490 0.874510 0.874510
0.250980 0.874510 0.874510
0.376471 0.874510 0.874510
0.501961 0.874510 0.874510
0.470588 0.658824 0.658824
0.376471 0.439216 0.439216
0.219608 0.219608 0.219608
0.258824 0.219608 0.219608
0.000000 1.000000 0.874510
0.125490 1.000000 0.874510
0.250980 1.000000 0.874510
0.376471 1.000000 0.874510
0.501961 1.000000 0.874510
0.470588 0.756863 0.658824
0.376471 0.505882 0.439216
0.219608 0.258824 0.219608
0.258824 0.258824 0.219608
0.000000 0.000000 1.000000
0.125490 0.000000 1.000000
0.250980 0.000000 1.000000
0.376471 0.000000 1.000000
0.501961 0.000000 1.000000
0.623529 0.000000 1.000000
0.749020 0.000000 1.000000
0.874510 0.000000 1.000000
1.000000 0.000000 1.000000
0.000000 0.125490 1.000000
0.125490 0.125490 1.000000
0.250980 0.125490 1.000000
0.376471 0.125490 1.000000
0.501961 0.125490 1.000000
0.623529 0.125490 1.000000
0.749020 0.125490 1.000000
0.874510 0.125490 1.000000
1.000000 0.125490 1.000000
0.000000 0.250980 1.000000
0.125490 0.250980 1.000000
0.250980 0.250980 1.000000
0.376471 0.250980 1.000000
0.501961 0.250980 1.000000
0.623529 0.250980 1.000000
0.749020 0.250980 1.000000
0.874510 0.250980 1.000000
1.000000 0.250980 1.000000
0.000000 0.376471 1.000000
0.125490 0.376471 1.000000
0.250980 0.376471 1.000000
0.376471 0.376471 1.000000
0.501961 0.376471 1.000000
0.623529 0.376471 1.000000
0.749020 0.376471 1.000000
0.874510 0.376471 1.000000
1.000000 0.376471 1.000000
0.000000 0.501961 1.000000
0.125490 0.501961 1.000000
0.250980 0.501961 1.000000
0.376471 0.501961 1.000000
0.501961 0.501961 1.000000
0.623529 0.501961 1.000000
0.749020 0.501961 1.000000
0.874510 0.501961 1.000000
1.000000 0.501961 1.000000
0.000000 0.623529 1.000000
0.125490 0.623529 1.000000
0.250980 0.623529 1.000000
0.376471 0.623529 1.000000
0.501961 0.623529 1.000000
0.470588 0.470588 0.756863
0.564706 0.470588 0.756863
0.658824 0.470588 0.756863
0.756863 0.470588 0.756863
0.000000 0.749020 1.000000
0.125490 0.749020 1.000000
0.250980 0.749020 1.000000
0.376471 0.749020 1.000000
0.501961 0.749020 1.000000
0.470588 0.564706 0.756863
0.376471 0.376471 0.505882
0.439216 0.376471 0.505882
0.505882 0.376471 0.505882
0.000000 0.874510 1.000000
0.125490 0.874510 1.000000
0.250980 0.874510 1.000000
0.376471 0.874510 1.000000
0.501961 0.874510 1.000000
0.470588 0.658824 0.756863
0.376471 0.439216 0.505882
0.219608 0.219608 0.258824
0.258824 0.219608 0.258824
0.000000 1.000000 1.000000
0.125490 1.000000 1.000000
0.250980 1.000000 1.000000
0.376471 1.000000 1.000000
0.501961 1.000000 1.000000
0.470588 0.756863 0.756863
0.376471 0.505882 0.505882
0.219608 0.258824 0.258824
0.011765 0.011765 0.011765
