mpv/gray_090deg.cube
TITLE "Rainbow LUT - Hue 90°"
LUT_3D_SIZE 16
DOMAIN_MIN 0 0 0
DOMAIN_MAX 1 1 1
# Generated with fixed rainbow gradient - hue offset: 90°
0.000 0.000 0.000
0.020 0.020 0.020
0.040 0.040 0.040
0.060 0.060 0.060
0.080 0.080 0.080
0.100 0.100 0.100
0.120 0.120 0.120
0.140 0.140 0.140
0.159 0.159 0.159
0.179 0.179 0.179
0.199 0.199 0.199
0.219 0.219 0.219
0.239 0.239 0.239
0.259 0.259 0.259
0.279 0.279 0.279
0.299 0.299 0.299
0.039 0.039 0.039
0.059 0.059 0.059
0.079 0.079 0.079
0.099 0.099 0.099
0.119 0.119 0.119
0.139 0.139 0.139
0.159 0.159 0.159
0.179 0.179 0.179
0.199 0.199 0.199
0.219 0.219 0.219
0.238 0.238 0.238
0.258 0.258 0.258
0.278 0.278 0.278
0.298 0.298 0.298
0.318 0.318 0.318
0.338 0.338 0.338
0.078 0.078 0.078
0.098 0.098 0.098
0.118 0.118 0.118
0.138 0.138 0.138
0.158 0.158 0.158
0.178 0.178 0.178
0.198 0.198 0.198
0.218 0.218 0.218
0.238 0.238 0.238
0.258 0.258 0.258
0.278 0.278 0.278
0.298 0.298 0.298
0.317 0.317 0.317
0.337 0.337 0.337
0.357 0.357 0.357
0.377 0.377 0.377
0.117 0.117 0.117
0.137 0.137 0.137
0.157 0.157 0.157
0.177 0.177 0.177
0.197 0.197 0.197
0.217 0.217 0.217
0.237 0.237 0.237
0.257 0.257 0.257
0.277 0.277 0.277
0.297 0.297 0.297
0.317 0.317 0.317
0.337 0.337 0.337
0.357 0.357 0.357
0.377 0.377 0.377
0.396 0.396 0.396
0.416 0.416 0.416
0.157 0.157 0.157
0.176 0.176 0.176
0.196 0.196 0.196
0.216 0.216 0.216
0.236 0.236 0.236
0.256 0.256 0.256
0.276 0.276 0.276
0.296 0.296 0.296
0.316 0.316 0.316
0.336 0.336 0.336
0.356 0.356 0.356
0.376 0.376 0.376
0.396 0.396 0.396
0.416 0.416 0.416
0.436 0.436 0.436
0.365 0.000 1.000
0.196 0.196 0.196
0.216 0.216 0.216
0.236 0.236 0.236
0.255 0.255 0.255
0.275 0.275 0.275
0.295 0.295 0.295
0.315 0.315 0.315
0.335 0.335 0.335
0.355 0.355 0.355
0.375 0.375 0.375
0.395 0.395 0.395
0.415 0.415 0.415
0.435 0.435 0.435
0.188 0.000 1.000
1.000 0.000 0.483
1.000 0.847 0.000
0.235 0.235 0.235
0.255 0.255 0.255
0.275 0.275 0.275
0.295 0.295 0.295
0.315 0.315 0.315
0.334 0.334 0.334
0.354 0.354 0.354
0.374 0.374 0.374
0.394 0.394 0.394
0.414 0.414 0.414
0.434 0.434 0.434
0.011 0.000 1.000
1.000 0.000 0.660
1.000 0.669 0.000
0.001 1.000 0.000
0.000 0.672 1.000
0.274 0.274 0.274
0.294 0.294 0.294
0.314 0.314 0.314
0.334 0.334 0.334
0.354 0.354 0.354
0.374 0.374 0.374
0.394 0.394 0.394
0.413 0.413 0.413
0.433 0.433 0.433
0.000 0.167 1.000
1.000 0.000 0.837
1.000 0.492 0.000
0.179 1.000 0.000
0.000 0.849 1.000
0.553 0.553 0.553
0.573 0.573 0.573
0.313 0.313 0.313
0.333 0.333 0.333
0.353 0.353 0.353
0.373 0.373 0.373
0.393 0.393 0.393
0.413 0.413 0.413
0.433 0.433 0.433
0.000 0.344 1.000
0.985 0.000 1.000
1.000 0.315 0.000
0.356 1.000 0.000
0.000 1.000 0.973
0.552 0.552 0.552
0.572 0.572 0.572
0.592 0.592 0.592
0.612 0.612 0.612
0.352 0.352 0.352
0.372 0.372 0.372
0.392 0.392 0.392
0.412 0.412 0.412
0.432 0.432 0.432
0.000 0.521 1.000
0.808 0.000 1.000
1.000 0.137 0.000
0.533 1.000 0.000
0.000 1.000 0.796
0.552 0.552 0.552
0.571 0.571 0.571
0.591 0.591 0.591
0.611 0.611 0.611
0.631 0.631 0.631
0.651 0.651 0.651
0.391 0.391 0.391
0.411 0.411 0.411
0.431 0.431 0.431
0.000 0.699 1.000
0.631 0.000 1.000
1.000 0.000 0.040
0.711 1.000 0.000
0.000 1.000 0.619
0.551 0.551 0.551
0.571 0.571 0.571
0.591 0.591 0.591
0.611 0.611 0.611
0.631 0.631 0.631
0.650 0.650 0.650
0.670 0.670 0.670
0.690 0.690 0.690
0.430 0.430 0.430
0.000 0.876 1.000
0.453 0.000 1.000
1.000 0.000 0.217
0.888 1.000 0.000
0.000 1.000 0.441
0.550 0.550 0.550
0.570 0.570 0.570
0.590 0.590 0.590
0.610 0.610 0.610
0.630 0.630 0.630
0.650 0.650 0.650
0.670 0.670 0.670
0.690 0.690 0.690
0.710 0.710 0.710
0.729 0.729 0.729
0.276 0.000 1.000
1.000 0.000 0.395
1.000 0.935 0.000
0.000 1.000 0.264
0.000 0.407 1.000
0.569 0.569 0.569
0.589 0.589 0.589
0.609 0.609 0.609
0.629 0.629 0.629
0.649 0.649 0.649
0.669 0.669 0.669
0.689 0.689 0.689
0.709 0.709 0.709
0.729 0.729 0.729
0.749 0.749 0.749
0.769 0.769 0.769
1.000 0.757 0.000
0.000 1.000 0.087
0.000 0.584 1.000
0.569 0.569 0.569
0.588 0.588 0.588
0.608 0.608 0.608
0.628 0.628 0.628
0.648 0.648 0.648
0.668 0.668 0.668
0.688 0.688 0.688
0.708 0.708 0.708
0.728 0.728 0.728
0.748 0.748 0.748
0.768 0.768 0.768
0.788 0.788 0.788
0.808 0.808 0.808
0.000 0.761 1.000
0.568 0.568 0.568
0.588 0.588 0.588
0.608 0.608 0.608
0.628 0.628 0.628
0.648 0.648 0.648
0.667 0.667 0.667
0.687 0.687 0.687
0.707 0.707 0.707
0.727 0.727 0.727
0.747 0.747 0.747
0.767 0.767 0.767
0.787 0.787 0.787
0.807 0.807 0.807
0.827 0.827 0.827
0.847 0.847 0.847
0.587 0.587 0.587
0.607 0.607 0.607
0.627 0.627 0.627
0.647 0.647 0.647
0.667 0.667 0.667
0.687 0.687 0.687
0.707 0.707 0.707
0.727 0.727 0.727
0.746 0.746 0.746
0.766 0.766 0.766
0.786 0.786 0.786
0.806 0.806 0.806
0.826 0.826 0.826
0.846 0.846 0.846
0.866 0.866 0.866
0.886 0.886 0.886
0.008 0.008 0.008
0.028 0.028 0.028
0.047 0.047 0.047
0.067 0.067 0.067
0.087 0.087 0.087
0.107 0.107 0.107
0.127 0.127 0.127
0.147 0.147 0.147
0.167 0.167 0.167
0.187 0.187 0.187
0.207 0.207 0.207
0.227 0.227 0.227
0.247 0.247 0.247
0.267 0.267 0.267
0.287 0.287 0.287
0.307 0.307 0.307
0.047 0.047 0.047
0.067 0.067 0.067
0.087 0.087 0.087
0.107 0.107 0.107
0.126 0.126 0.126
0.146 0.146 0.146
0.166 0.166 0.166
0.186 0.186 0.186
0.206 0.206 0.206
0.226 0.226 0.226
0.246 0.246 0.246
0.266 0.266 0.266
0.286 0.286 0.286
0.306 0.306 0.306
0.326 0.326 0.326
0.346 0.346 0.346
0.086 0.086 0.086
0.106 0.106 0.106
0.126 0.126 0.126
0.146 0.146 0.146
0.166 0.166 0.166
0.186 0.186 0.186
0.205 0.205 0.205
0.225 0.225 0.225
0.245 0.245 0.245
0.265 0.265 0.265
0.285 0.285 0.285
0.305 0.305 0.305
0.325 0.325 0.325
0.345 0.345 0.345
0.365 0.365 0.365
0.385 0.385 0.385
0.125 0.125 0.125
0.145 0.145 0.145
0.165 0.165 0.165
0.185 0.185 0.185
0.205 0.205 0.205
0.225 0.225 0.225
0.245 0.245 0.245
0.265 0.265 0.265
0.284 0.284 0.284
0.304 0.304 0.304
0.324 0.324 0.324
0.344 0.344 0.344
0.364 0.364 0.364
0.384 0.384 0.384
0.404 0.404 0.404
0.424 0.424 0.424
0.164 0.164 0.164
0.184 0.184 0.184
0.204 0.204 0.204
0.224 0.224 0.224
0.244 0.244 0.244
0.264 0.264 0.264
0.284 0.284 0.284
0.304 0.304 0.304
0.324 0.324 0.324
0.344 0.344 0.344
0.363 0.363 0.363
0.383 0.383 0.383
0.403 0.403 0.403
0.423 0.423 0.423
0.443 0.443 0.443
0.955 0.000 1.000
0.203 0.203 0.203
0.223 0.223 0.223
0.243 0.243 0.243
0.263 0.263 0.263
0.283 0.283 0.283
0.303 0.303 0.303
0.323 0.323 0.323
0.343 0.343 0.343
0.363 0.363 0.363
0.383 0.383 0.383
0.403 0.403 0.403
0.423 0.423 0.423
0.442 0.442 0.442
0.777 0.000 1.000
1.000 0.107 0.000
0.564 1.000 0.000
0.242 0.242 0.242
0.262 0.262 0.262
0.282 0.282 0.282
0.302 0.302 0.302
0.322 0.322 0.322
0.342 0.342 0.342
0.362 0.362 0.362
0.382 0.382 0.382
0.402 0.402 0.402
0.422 0.422 0.422
0.442 0.442 0.442
0.600 0.000 1.000
1.000 0.000 0.071
0.741 1.000 0.000
0.000 1.000 0.588
0.000 0.083 1.000
0.282 0.282 0.282
0.301 0.301 0.301
0.321 0.321 0.321
0.341 0.341 0.341
0.361 0.361 0.361
0.381 0.381 0.381
0.401 0.401 0.401
0.421 0.421 0.421
0.441 0.441 0.441
0.423 0.000 1.000
1.000 0.000 0.248
0.919 1.000 0.000
0.000 1.000 0.411
0.000 0.260 1.000
0.561 0.561 0.561
0.581 0.581 0.581
0.321 0.321 0.321
0.341 0.341 0.341
0.361 0.361 0.361
0.380 0.380 0.380
0.400 0.400 0.400
0.420 0.420 0.420
0.440 0.440 0.440
0.245 0.000 1.000
1.000 0.000 0.425
1.000 0.904 0.000
0.000 1.000 0.233
0.000 0.437 1.000
0.560 0.560 0.560
0.580 0.580 0.580
0.600 0.600 0.600
0.620 0.620 0.620
0.360 0.360 0.360
0.380 0.380 0.380
0.400 0.400 0.400
0.420 0.420 0.420
0.440 0.440 0.440
0.068 0.000 1.000
1.000 0.000 0.603
1.000 0.727 0.000
0.000 1.000 0.056
0.000 0.615 1.000
0.559 0.559 0.559
0.579 0.579 0.579
0.599 0.599 0.599
0.619 0.619 0.619
0.639 0.639 0.639
0.659 0.659 0.659
0.399 0.399 0.399
0.419 0.419 0.419
0.439 0.439 0.439
0.000 0.109 1.000
1.000 0.000 0.780
1.000 0.549 0.000
0.121 1.000 0.000
0.000 0.792 1.000
0.558 0.558 0.558
0.578 0.578 0.578
0.598 0.598 0.598
0.618 0.618 0.618
0.638 0.638 0.638
0.658 0.658 0.658
0.678 0.678 0.678
0.698 0.698 0.698
0.438 0.438 0.438
0.000 0.287 1.000
1.000 0.000 0.957
1.000 0.372 0.000
0.299 1.000 0.000
0.000 0.969 1.000
0.558 0.558 0.558
0.578 0.578 0.578
0.598 0.598 0.598
0.617 0.617 0.617
0.637 0.637 0.637
0.657 0.657 0.657
0.677 0.677 0.677
0.697 0.697 0.697
0.717 0.717 0.717
0.737 0.737 0.737
0.865 0.000 1.000
1.000 0.195 0.000
0.476 1.000 0.000
0.000 1.000 0.853
0.557 0.557 0.557
0.577 0.577 0.577
0.597 0.597 0.597
0.617 0.617 0.617
0.637 0.637 0.637
0.657 0.657 0.657
0.677 0.677 0.677
0.696 0.696 0.696
0.716 0.716 0.716
0.736 0.736 0.736
0.756 0.756 0.756
0.776 0.776 0.776
0.653 1.000 0.000
0.000 1.000 0.676
0.556 0.556 0.556
0.576 0.576 0.576
0.596 0.596 0.596
0.616 0.616 0.616
0.636 0.636 0.636
0.656 0.656 0.656
0.676 0.676 0.676
0.696 0.696 0.696
0.716 0.716 0.716
0.736 0.736 0.736
0.756 0.756 0.756
0.775 0.775 0.775
0.795 0.795 0.795
0.815 0.815 0.815
0.555 0.555 0.555
0.575 0.575 0.575
0.595 0.595 0.595
0.615 0.615 0.615
0.635 0.635 0.635
0.655 0.655 0.655
0.675 0.675 0.675
0.695 0.695 0.695
0.715 0.715 0.715
0.735 0.735 0.735
0.755 0.755 0.755
0.775 0.775 0.775
0.795 0.795 0.795
0.815 0.815 0.815
0.835 0.835 0.835
0.854 0.854 0.854
0.595 0.595 0.595
0.615 0.615 0.615
0.634 0.634 0.634
0.654 0.654 0.654
0.674 0.674 0.674
0.694 0.694 0.694
0.714 0.714 0.714
0.734 0.734 0.734
0.754 0.754 0.754
0.774 0.774 0.774
0.794 0.794 0.794
0.814 0.814 0.814
0.834 0.834 0.834
0.854 0.854 0.854
0.874 0.874 0.874
0.894 0.894 0.894
0.015 0.015 0.015
0.035 0.035 0.035
0.055 0.055 0.055
0.075 0.075 0.075
0.095 0.095 0.095
0.115 0.115 0.115
0.135 0.135 0.135
0.155 0.155 0.155
0.175 0.175 0.175
0.195 0.195 0.195
0.215 0.215 0.215
0.234 0.234 0.234
0.254 0.254 0.254
0.274 0.274 0.274
0.294 0.294 0.294
0.314 0.314 0.314
0.054 0.054 0.054
0.074 0.074 0.074
0.094 0.094 0.094
0.114 0.114 0.114
0.134 0.134 0.134
0.154 0.154 0.154
0.174 0.174 0.174
0.194 0.194 0.194
0.214 0.214 0.214
0.234 0.234 0.234
0.254 0.254 0.254
0.274 0.274 0.274
0.294 0.294 0.294
0.313 0.313 0.313
0.333 0.333 0.333
0.353 0.353 0.353
0.093 0.093 0.093
0.113 0.113 0.113
0.133 0.133 0.133
0.153 0.153 0.153
0.173 0.173 0.173
0.193 0.193 0.193
0.213 0.213 0.213
0.233 0.233 0.233
0.253 0.253 0.253
0.273 0.273 0.273
0.293 0.293 0.293
0.313 0.313 0.313
0.333 0.333 0.333
0.353 0.353 0.353
0.373 0.373 0.373
0.392 0.392 0.392
0.133 0.133 0.133
0.153 0.153 0.153
0.172 0.172 0.172
0.192 0.192 0.192
0.212 0.212 0.212
0.232 0.232 0.232
0.252 0.252 0.252
0.272 0.272 0.272
0.292 0.292 0.292
0.312 0.312 0.312
0.332 0.332 0.332
0.352 0.352 0.352
0.372 0.372 0.372
0.392 0.392 0.392
0.412 0.412 0.412
0.432 0.432 0.432
0.172 0.172 0.172
0.192 0.192 0.192
0.212 0.212 0.212
0.232 0.232 0.232
0.251 0.251 0.251
0.271 0.271 0.271
0.291 0.291 0.291
0.311 0.311 0.311
0.331 0.331 0.331
0.351 0.351 0.351
0.371 0.371 0.371
0.391 0.391 0.391
0.411 0.411 0.411
0.431 0.431 0.431
0.215 0.000 1.000
1.000 0.000 0.456
0.211 0.211 0.211
0.231 0.231 0.231
0.251 0.251 0.251
0.271 0.271 0.271
0.291 0.291 0.291
0.311 0.311 0.311
0.330 0.330 0.330
0.350 0.350 0.350
0.370 0.370 0.370
0.390 0.390 0.390
0.410 0.410 0.410
0.430 0.430 0.430
0.037 0.000 1.000
1.000 0.000 0.633
1.000 0.696 0.000
0.000 1.000 0.025
0.250 0.250 0.250
0.270 0.270 0.270
0.290 0.290 0.290
0.310 0.310 0.310
0.330 0.330 0.330
0.350 0.350 0.350
0.370 0.370 0.370
0.390 0.390 0.390
0.409 0.409 0.409
0.429 0.429 0.429
0.449 0.449 0.449
1.000 0.000 0.811
1.000 0.519 0.000
0.152 1.000 0.000
0.000 0.823 1.000
0.507 0.000 1.000
0.289 0.289 0.289
0.309 0.309 0.309
0.329 0.329 0.329
0.349 0.349 0.349
0.369 0.369 0.369
0.389 0.389 0.389
0.409 0.409 0.409
0.429 0.429 0.429
0.449 0.449 0.449
1.000 0.000 0.988
1.000 0.341 0.000
0.329 1.000 0.000
0.000 1.000 1.000
0.329 0.000 1.000
0.568 0.568 0.568
0.588 0.588 0.588
0.328 0.328 0.328
0.348 0.348 0.348
0.368 0.368 0.368
0.388 0.388 0.388
0.408 0.408 0.408
0.428 0.428 0.428
0.448 0.448 0.448
0.835 0.000 1.000
1.000 0.164 0.000
0.507 1.000 0.000
0.000 1.000 0.823
0.152 0.000 1.000
0.567 0.567 0.567
0.587 0.587 0.587
0.607 0.607 0.607
0.627 0.627 0.627
0.367 0.367 0.367
0.387 0.387 0.387
0.407 0.407 0.407
0.427 0.427 0.427
0.447 0.447 0.447
0.657 0.000 1.000
1.000 0.000 0.013
0.684 1.000 0.000
0.000 1.000 0.645
0.000 0.025 1.000
0.567 0.567 0.567
0.587 0.587 0.587
0.607 0.607 0.607
0.627 0.627 0.627
0.646 0.646 0.646
0.666 0.666 0.666
0.407 0.407 0.407
0.426 0.426 0.426
0.446 0.446 0.446
0.480 0.000 1.000
1.000 0.000 0.191
0.861 1.000 0.000
0.000 1.000 0.468
0.000 0.203 1.000
0.566 0.566 0.566
0.586 0.586 0.586
0.606 0.606 0.606
0.626 0.626 0.626
0.646 0.646 0.646
0.666 0.666 0.666
0.686 0.686 0.686
0.706 0.706 0.706
0.446 0.446 0.446
0.303 0.000 1.000
1.000 0.000 0.368
1.000 0.961 0.000
0.000 1.000 0.291
0.000 0.380 1.000
0.565 0.565 0.565
0.585 0.585 0.585
0.605 0.605 0.605
0.625 0.625 0.625
0.645 0.645 0.645
0.665 0.665 0.665
0.685 0.685 0.685
0.705 0.705 0.705
0.725 0.725 0.725
0.745 0.745 0.745
1.000 0.000 0.545
1.000 0.784 0.000
0.000 1.000 0.113
0.000 0.557 1.000
0.565 0.565 0.565
0.584 0.584 0.584
0.604 0.604 0.604
0.624 0.624 0.624
0.644 0.644 0.644
0.664 0.664 0.664
0.684 0.684 0.684
0.704 0.704 0.704
0.724 0.724 0.724
0.744 0.744 0.744
0.764 0.764 0.764
0.784 0.784 0.784
0.064 1.000 0.000
0.000 0.735 1.000
0.564 0.564 0.564
0.584 0.584 0.584
0.604 0.604 0.604
0.624 0.624 0.624
0.644 0.644 0.644
0.663 0.663 0.663
0.683 0.683 0.683
0.703 0.703 0.703
0.723 0.723 0.723
0.743 0.743 0.743
0.763 0.763 0.763
0.783 0.783 0.783
0.803 0.803 0.803
0.823 0.823 0.823
0.563 0.563 0.563
0.583 0.583 0.583
0.603 0.603 0.603
0.623 0.623 0.623
0.643 0.643 0.643
0.663 0.663 0.663
0.683 0.683 0.683
0.703 0.703 0.703
0.723 0.723 0.723
0.742 0.742 0.742
0.762 0.762 0.762
0.782 0.782 0.782
0.802 0.802 0.802
0.822 0.822 0.822
0.842 0.842 0.842
0.862 0.862 0.862
0.602 0.602 0.602
0.622 0.622 0.622
0.642 0.642 0.642
0.662 0.662 0.662
0.682 0.682 0.682
0.702 0.702 0.702
0.722 0.722 0.722
0.742 0.742 0.742
0.762 0.762 0.762
0.782 0.782 0.782
0.802 0.802 0.802
0.821 0.821 0.821
0.841 0.841 0.841
0.861 0.861 0.861
0.881 0.881 0.881
0.901 0.901 0.901
0.023 0.023 0.023
0.043 0.043 0.043
0.063 0.063 0.063
0.083 0.083 0.083
0.103 0.103 0.103
0.122 0.122 0.122
0.142 0.142 0.142
0.162 0.162 0.162
0.182 0.182 0.182
0.202 0.202 0.202
0.222 0.222 0.222
0.242 0.242 0.242
0.262 0.262 0.262
0.282 0.282 0.282
0.302 0.302 0.302
0.322 0.322 0.322
0.062 0.062 0.062
0.082 0.082 0.082
0.102 0.102 0.102
0.122 0.122 0.122
0.142 0.142 0.142
0.162 0.162 0.162
0.182 0.182 0.182
0.201 0.201 0.201
0.221 0.221 0.221
0.241 0.241 0.241
0.261 0.261 0.261
0.281 0.281 0.281
0.301 0.301 0.301
0.321 0.321 0.321
0.341 0.341 0.341
0.361 0.361 0.361
0.101 0.101 0.101
0.121 0.121 0.121
0.141 0.141 0.141
0.161 0.161 0.161
0.181 0.181 0.181
0.201 0.201 0.201
0.221 0.221 0.221
0.241 0.241 0.241
0.261 0.261 0.261
0.280 0.280 0.280
0.300 0.300 0.300
0.320 0.320 0.320
0.340 0.340 0.340
0.360 0.360 0.360
0.380 0.380 0.380
0.400 0.400 0.400
0.140 0.140 0.140
0.160 0.160 0.160
0.180 0.180 0.180
0.200 0.200 0.200
0.220 0.220 0.220
0.240 0.240 0.240
0.260 0.260 0.260
0.280 0.280 0.280
0.300 0.300 0.300
0.320 0.320 0.320
0.340 0.340 0.340
0.359 0.359 0.359
0.379 0.379 0.379
0.399 0.399 0.399
0.419 0.419 0.419
0.439 0.439 0.439
0.179 0.179 0.179
0.199 0.199 0.199
0.219 0.219 0.219
0.239 0.239 0.239
0.259 0.259 0.259
0.279 0.279 0.279
0.299 0.299 0.299
0.319 0.319 0.319
0.339 0.339 0.339
0.359 0.359 0.359
0.379 0.379 0.379
0.399 0.399 0.399
0.419 0.419 0.419
0.438 0.438 0.438
0.804 0.000 1.000
1.000 0.133 0.000
0.218 0.218 0.218
0.238 0.238 0.238
0.258 0.258 0.258
0.278 0.278 0.278
0.298 0.298 0.298
0.318 0.318 0.318
0.338 0.338 0.338
0.358 0.358 0.358
0.378 0.378 0.378
0.398 0.398 0.398
0.418 0.418 0.418
0.438 0.438 0.438
0.627 0.000 1.000
1.000 0.000 0.044
0.715 1.000 0.000
0.000 1.000 0.615
0.258 0.258 0.258
0.278 0.278 0.278
0.297 0.297 0.297
0.317 0.317 0.317
0.337 0.337 0.337
0.357 0.357 0.357
0.377 0.377 0.377
0.397 0.397 0.397
0.417 0.417 0.417
0.437 0.437 0.437
0.449 0.000 1.000
1.000 0.000 0.221
0.892 1.000 0.000
0.000 1.000 0.437
0.000 0.233 1.000
0.557 0.557 0.557
0.297 0.297 0.297
0.317 0.317 0.317
0.337 0.337 0.337
0.357 0.357 0.357
0.376 0.376 0.376
0.396 0.396 0.396
0.416 0.416 0.416
0.436 0.436 0.436
0.272 0.000 1.000
1.000 0.000 0.399
1.000 0.931 0.000
0.000 1.000 0.260
0.000 0.411 1.000
0.556 0.556 0.556
0.576 0.576 0.576
0.596 0.596 0.596
0.336 0.336 0.336
0.356 0.356 0.356
0.376 0.376 0.376
0.396 0.396 0.396
