mpv/gray_270deg.cube
TITLE "Rainbow LUT - Hue 270°"
LUT_3D_SIZE 6
DOMAIN_MIN 0 0 0
DOMAIN_MAX 1 1 1
# Generated with fixed rainbow gradient - hue offset: 270°
0.000 0.000 0.000
0.060 0.060 0.060
0.120 0.120 0.120
0.179 0.179 0.179
0.239 0.239 0.239
0.299 0.299 0.299
0.117 0.117 0.117
0.177 0.177 0.177
0.237 0.237 0.237
0.297 0.297 0.297
0.357 0.357 0.357
0.416 0.416 0.416
0.235 0.235 0.235
0.295 0.295 0.295
0.354 0.354 0.354
0.414 0.414 0.414
0.000 1.000 0.340
1.000 0.328 0.000
0.352 0.352 0.352
0.412 0.412 0.412
0.192 1.000 0.000
1.000 0.000 0.204
0.591 0.591 0.591
0.651 0.651 0.651
0.724 1.000 0.000
1.000 0.000 0.736
0.589 0.589 0.589
0.649 0.649 0.649
0.709 0.709 0.709
0.769 0.769 0.769
0.587 0.587 0.587
0.647 0.647 0.647
0.707 0.707 0.707
0.766 0.766 0.766
0.826 0.826 0.826
0.886 0.886 0.886
0.023 0.023 0.023
0.083 0.083 0.083
0.142 0.142 0.142
0.202 0.202 0.202
0.262 0.262 0.262
0.322 0.322 0.322
0.140 0.140 0.140
0.200 0.200 0.200
0.260 0.260 0.260
0.320 0.320 0.320
0.379 0.379 0.379
0.439 0.439 0.439
0.258 0.258 0.258
0.317 0.317 0.317
0.377 0.377 0.377
0.437 0.437 0.437
0.108 0.000 1.000
0.557 0.557 0.557
0.375 0.375 0.375
0.435 0.435 0.435
0.000 0.424 1.000
0.554 0.554 0.554
0.614 0.614 0.614
0.674 0.674 0.674
0.000 0.956 1.000
0.552 0.552 0.552
0.612 0.612 0.612
0.672 0.672 0.672
0.732 0.732 0.732
0.791 0.791 0.791
0.610 0.610 0.610
0.670 0.670 0.670
0.729 0.729 0.729
0.789 0.789 0.789
0.849 0.849 0.849
0.909 0.909 0.909
0.046 0.046 0.046
0.105 0.105 0.105
0.165 0.165 0.165
0.225 0.225 0.225
0.285 0.285 0.285
0.345 0.345 0.345
0.163 0.163 0.163
0.223 0.223 0.223
0.283 0.283 0.283
0.342 0.342 0.342
0.402 0.402 0.402
0.000 1.000 0.420
0.280 0.280 0.280
0.340 0.340 0.340
0.400 0.400 0.400
0.112 1.000 0.000
1.000 0.000 0.124
0.579 0.579 0.579
0.398 0.398 0.398
0.644 1.000 0.000
1.000 0.000 0.656
0.577 0.577 0.577
0.637 0.637 0.637
0.697 0.697 0.697
0.812 0.000 1.000
0.575 0.575 0.575
0.635 0.635 0.635
0.695 0.695 0.695
0.754 0.754 0.754
0.814 0.814 0.814
0.633 0.633 0.633
0.692 0.692 0.692
0.752 0.752 0.752
0.812 0.812 0.812
0.872 0.872 0.872
0.932 0.932 0.932
0.068 0.068 0.068
0.128 0.128 0.128
0.188 0.188 0.188
0.248 0.248 0.248
0.308 0.308 0.308
0.367 0.367 0.367
0.186 0.186 0.186
0.246 0.246 0.246
0.305 0.305 0.305
0.365 0.365 0.365
0.425 0.425 0.425
0.188 0.000 1.000
0.303 0.303 0.303
0.363 0.363 0.363
0.423 0.423 0.423
0.000 0.344 1.000
0.356 1.000 0.000
0.602 0.602 0.602
0.421 0.421 0.421
0.000 0.876 1.000
0.888 1.000 0.000
0.600 0.600 0.600
0.660 0.660 0.660
0.720 0.720 0.720
1.000 0.580 0.000
0.598 0.598 0.598
0.658 0.658 0.658
0.717 0.717 0.717
0.777 0.777 0.777
0.837 0.837 0.837
0.655 0.655 0.655
0.715 0.715 0.715
0.775 0.775 0.775
0.835 0.835 0.835
0.895 0.895 0.895
0.954 0.954 0.954
0.091 0.091 0.091
0.151 0.151 0.151
0.211 0.211 0.211
0.271 0.271 0.271
0.330 0.330 0.330
0.390 0.390 0.390
0.209 0.209 0.209
0.268 0.268 0.268
0.328 0.328 0.328
0.388 0.388 0.388
0.448 0.448 0.448
1.000 0.000 0.044
0.326 0.326 0.326
0.386 0.386 0.386
0.446 0.446 0.446
1.000 0.000 0.576
0.565 0.565 0.565
0.625 0.625 0.625
0.443 0.443 0.443
0.892 0.000 1.000
0.563 0.563 0.563
0.623 0.623 0.623
0.683 0.683 0.683
0.742 0.742 0.742
0.561 0.561 0.561
0.621 0.621 0.621
0.680 0.680 0.680
0.740 0.740 0.740
0.800 0.800 0.800
0.860 0.860 0.860
0.678 0.678 0.678
0.738 0.738 0.738
0.798 0.798 0.798
0.858 0.858 0.858
0.917 0.917 0.917
0.977 0.977 0.977
0.114 0.114 0.114
0.174 0.174 0.174
0.234 0.234 0.234
0.293 0.293 0.293
0.353 0.353 0.353
0.413 0.413 0.413
0.231 0.231 0.231
0.291 0.291 0.291
0.351 0.351 0.351
0.411 0.411 0.411
0.000 0.264 1.000
0.276 1.000 0.000
0.349 0.349 0.349
0.409 0.409 0.409
0.000 0.796 1.000
0.808 1.000 0.000
0.588 0.588 0.588
0.648 0.648 0.648
0.000 1.000 0.672
1.000 0.660 0.000
0.586 0.586 0.586
0.646 0.646 0.646
0.705 0.705 0.705
0.765 0.765 0.765
0.584 0.584 0.584
0.643 0.643 0.643
0.703 0.703 0.703
0.763 0.763 0.763
0.823 0.823 0.823
0.883 0.883 0.883
0.701 0.701 0.701
0.761 0.761 0.761
0.821 0.821 0.821
0.880 0.880 0.880
0.940 0.940 0.940
1.000 1.000 1.000
