mpv/inv-gray-rainbow-270.cube
TITLE "selective rainbow 270° (gray middle) (100 cycles)"
LUT_3D_SIZE 16
DOMAIN_MIN 0 0 0
DOMAIN_MAX 1 1 1
0.500000 0.000000 1.000000
1.000000 0.872093 0.000000
1.000000 0.000000 0.383721
1.000000 0.732558 0.000000
0.000000 0.197674 1.000000
1.000000 0.000000 0.383721
1.000000 0.593023 0.000000
1.000000 0.732558 0.000000
0.113387 0.113387 0.113387
0.127560 0.127560 0.127560
0.141733 0.141733 0.141733
0.155907 0.155907 0.155907
0.170080 0.170080 0.170080
0.184253 0.184253 0.184253
0.198427 0.198427 0.198427
0.212600 0.212600 0.212600
1.000000 0.000000 0.523256
0.000000 1.000000 0.127907
0.000000 0.476744 1.000000
0.709302 1.000000 0.000000
0.104373 0.104373 0.104373
0.118547 0.118547 0.118547
0.132720 0.132720 0.132720
0.146893 0.146893 0.146893
0.161067 0.161067 0.161067
0.175240 0.175240 0.175240
0.189413 0.189413 0.189413
0.203587 0.203587 0.203587
0.217760 0.217760 0.217760
0.231933 0.231933 0.231933
0.246107 0.246107 0.246107
0.260280 0.260280 0.260280
0.779070 0.000000 1.000000
0.109533 0.109533 0.109533
0.123707 0.123707 0.123707
0.137880 0.137880 0.137880
0.152053 0.152053 0.152053
0.166227 0.166227 0.166227
0.180400 0.180400 0.180400
0.194573 0.194573 0.194573
0.208747 0.208747 0.208747
0.222920 0.222920 0.222920
0.237093 0.237093 0.237093
0.251267 0.251267 0.251267
0.265440 0.265440 0.265440
0.279613 0.279613 0.279613
0.293787 0.293787 0.293787
0.307960 0.307960 0.307960
0.143040 0.143040 0.143040
0.157213 0.157213 0.157213
0.171387 0.171387 0.171387
0.185560 0.185560 0.185560
0.199733 0.199733 0.199733
0.213907 0.213907 0.213907
0.228080 0.228080 0.228080
0.242253 0.242253 0.242253
0.256427 0.256427 0.256427
0.270600 0.270600 0.270600
0.284773 0.284773 0.284773
0.298947 0.298947 0.298947
0.313120 0.313120 0.313120
0.327293 0.327293 0.327293
0.341467 0.341467 0.341467
0.355640 0.355640 0.355640
0.190720 0.190720 0.190720
0.204893 0.204893 0.204893
0.219067 0.219067 0.219067
0.233240 0.233240 0.233240
0.247413 0.247413 0.247413
0.261587 0.261587 0.261587
0.275760 0.275760 0.275760
0.289933 0.289933 0.289933
0.304107 0.304107 0.304107
0.318280 0.318280 0.318280
0.332453 0.332453 0.332453
0.346627 0.346627 0.346627
0.360800 0.360800 0.360800
0.374973 0.374973 0.374973
0.389147 0.389147 0.389147
0.403320 0.403320 0.403320
0.238400 0.238400 0.238400
0.252573 0.252573 0.252573
0.266747 0.266747 0.266747
0.280920 0.280920 0.280920
0.295093 0.295093 0.295093
0.309267 0.309267 0.309267
0.323440 0.323440 0.323440
0.337613 0.337613 0.337613
0.351787 0.351787 0.351787
0.365960 0.365960 0.365960
0.380133 0.380133 0.380133
0.394307 0.394307 0.394307
0.408480 0.408480 0.408480
0.422653 0.422653 0.422653
0.436827 0.436827 0.436827
0.451000 0.451000 0.451000
0.286080 0.286080 0.286080
0.300253 0.300253 0.300253
0.314427 0.314427 0.314427
0.328600 0.328600 0.328600
0.342773 0.342773 0.342773
0.356947 0.356947 0.356947
0.371120 0.371120 0.371120
0.385293 0.385293 0.385293
0.399467 0.399467 0.399467
0.413640 0.413640 0.413640
0.427813 0.427813 0.427813
0.441987 0.441987 0.441987
0.456160 0.456160 0.456160
0.470333 0.470333 0.470333
0.484507 0.484507 0.484507
0.498680 0.498680 0.498680
0.333760 0.333760 0.333760
0.347933 0.347933 0.347933
0.362107 0.362107 0.362107
0.376280 0.376280 0.376280
0.390453 0.390453 0.390453
0.404627 0.404627 0.404627
0.418800 0.418800 0.418800
0.432973 0.432973 0.432973
0.447147 0.447147 0.447147
0.461320 0.461320 0.461320
0.475493 0.475493 0.475493
0.489667 0.489667 0.489667
0.503840 0.503840 0.503840
0.518013 0.518013 0.518013
0.532187 0.532187 0.532187
0.546360 0.546360 0.546360
0.381440 0.381440 0.381440
0.395613 0.395613 0.395613
0.409787 0.409787 0.409787
0.423960 0.423960 0.423960
0.438133 0.438133 0.438133
0.452307 0.452307 0.452307
0.466480 0.466480 0.466480
0.480653 0.480653 0.480653
0.494827 0.494827 0.494827
0.509000 0.509000 0.509000
0.523173 0.523173 0.523173
0.537347 0.537347 0.537347
0.551520 0.551520 0.551520
0.565693 0.565693 0.565693
0.579867 0.579867 0.579867
0.594040 0.594040 0.594040
0.429120 0.429120 0.429120
0.443293 0.443293 0.443293
0.457467 0.457467 0.457467
0.471640 0.471640 0.471640
0.485813 0.485813 0.485813
0.499987 0.499987 0.499987
0.514160 0.514160 0.514160
0.528333 0.528333 0.528333
0.542507 0.542507 0.542507
0.556680 0.556680 0.556680
0.570853 0.570853 0.570853
0.585027 0.585027 0.585027
0.599200 0.599200 0.599200
0.613373 0.613373 0.613373
0.627547 0.627547 0.627547
0.641720 0.641720 0.641720
0.476800 0.476800 0.476800
0.490973 0.490973 0.490973
0.505147 0.505147 0.505147
0.519320 0.519320 0.519320
0.533493 0.533493 0.533493
0.547667 0.547667 0.547667
0.561840 0.561840 0.561840
0.576013 0.576013 0.576013
0.590187 0.590187 0.590187
0.604360 0.604360 0.604360
0.618533 0.618533 0.618533
0.632707 0.632707 0.632707
0.646880 0.646880 0.646880
0.661053 0.661053 0.661053
0.675227 0.675227 0.675227
0.689400 0.689400 0.689400
0.524480 0.524480 0.524480
0.538653 0.538653 0.538653
0.552827 0.552827 0.552827
0.567000 0.567000 0.567000
0.581173 0.581173 0.581173
0.595347 0.595347 0.595347
0.609520 0.609520 0.609520
0.623693 0.623693 0.623693
0.637867 0.637867 0.637867
0.652040 0.652040 0.652040
0.666213 0.666213 0.666213
0.680387 0.680387 0.680387
0.694560 0.694560 0.694560
0.708733 0.708733 0.708733
0.722907 0.722907 0.722907
0.737080 0.737080 0.737080
0.572160 0.572160 0.572160
0.586333 0.586333 0.586333
0.600507 0.600507 0.600507
0.614680 0.614680 0.614680
0.628853 0.628853 0.628853
0.643027 0.643027 0.643027
0.657200 0.657200 0.657200
0.671373 0.671373 0.671373
0.685547 0.685547 0.685547
0.699720 0.699720 0.699720
0.713893 0.713893 0.713893
0.728067 0.728067 0.728067
0.742240 0.742240 0.742240
0.756413 0.756413 0.756413
0.770587 0.770587 0.770587
0.784760 0.784760 0.784760
0.619840 0.619840 0.619840
0.634013 0.634013 0.634013
0.648187 0.648187 0.648187
0.662360 0.662360 0.662360
0.676533 0.676533 0.676533
0.690707 0.690707 0.690707
0.704880 0.704880 0.704880
0.719053 0.719053 0.719053
0.733227 0.733227 0.733227
0.747400 0.747400 0.747400
0.761573 0.761573 0.761573
0.775747 0.775747 0.775747
0.789920 0.789920 0.789920
0.804093 0.804093 0.804093
0.818267 0.818267 0.818267
0.832440 0.832440 0.832440
0.667520 0.667520 0.667520
0.681693 0.681693 0.681693
0.695867 0.695867 0.695867
0.710040 0.710040 0.710040
0.724213 0.724213 0.724213
0.738387 0.738387 0.738387
0.752560 0.752560 0.752560
0.766733 0.766733 0.766733
0.780907 0.780907 0.780907
0.795080 0.795080 0.795080
0.809253 0.809253 0.809253
0.823427 0.823427 0.823427
0.837600 0.837600 0.837600
0.851773 0.851773 0.851773
0.865947 0.865947 0.865947
0.880120 0.880120 0.880120
0.715200 0.715200 0.715200
0.729373 0.729373 0.729373
0.743547 0.743547 0.743547
0.757720 0.757720 0.757720
0.771893 0.771893 0.771893
0.786067 0.786067 0.786067
0.800240 0.800240 0.800240
0.814413 0.814413 0.814413
0.828587 0.828587 0.828587
0.842760 0.842760 0.842760
0.856933 0.856933 0.856933
0.871107 0.871107 0.871107
0.885280 0.885280 0.885280
0.899453 0.899453 0.899453
0.081395 0.000000 1.000000
0.151163 1.000000 0.000000
0.709302 1.000000 0.000000
1.000000 0.453488 0.000000
0.011628 1.000000 0.000000
1.000000 0.000000 0.104651
0.000000 1.000000 0.546512
0.000000 0.058140 1.000000
0.290698 1.000000 0.000000
0.104027 0.104027 0.104027
0.118200 0.118200 0.118200
0.132373 0.132373 0.132373
0.146547 0.146547 0.146547
0.160720 0.160720 0.160720
0.174893 0.174893 0.174893
0.189067 0.189067 0.189067
0.203240 0.203240 0.203240
0.217413 0.217413 0.217413
0.569767 1.000000 0.000000
0.000000 0.337209 1.000000
0.151163 1.000000 0.000000
0.000000 1.000000 0.406977
0.109187 0.109187 0.109187
0.123360 0.123360 0.123360
0.137533 0.137533 0.137533
0.151707 0.151707 0.151707
0.165880 0.165880 0.165880
0.180053 0.180053 0.180053
0.194227 0.194227 0.194227
0.208400 0.208400 0.208400
0.222573 0.222573 0.222573
0.236747 0.236747 0.236747
0.250920 0.250920 0.250920
0.265093 0.265093 0.265093
0.100173 0.100173 0.100173
0.114347 0.114347 0.114347
0.128520 0.128520 0.128520
0.142693 0.142693 0.142693
0.156867 0.156867 0.156867
0.171040 0.171040 0.171040
0.185213 0.185213 0.185213
0.199387 0.199387 0.199387
0.213560 0.213560 0.213560
0.227733 0.227733 0.227733
0.241907 0.241907 0.241907
0.256080 0.256080 0.256080
0.270253 0.270253 0.270253
0.284427 0.284427 0.284427
0.298600 0.298600 0.298600
0.312773 0.312773 0.312773
0.147853 0.147853 0.147853
0.162027 0.162027 0.162027
0.176200 0.176200 0.176200
0.190373 0.190373 0.190373
0.204547 0.204547 0.204547
0.218720 0.218720 0.218720
0.232893 0.232893 0.232893
0.247067 0.247067 0.247067
0.261240 0.261240 0.261240
0.275413 0.275413 0.275413
0.289587 0.289587 0.289587
0.303760 0.303760 0.303760
0.317933 0.317933 0.317933
0.332107 0.332107 0.332107
0.346280 0.346280 0.346280
0.360453 0.360453 0.360453
0.195533 0.195533 0.195533
0.209707 0.209707 0.209707
0.223880 0.223880 0.223880
0.238053 0.238053 0.238053
0.252227 0.252227 0.252227
0.266400 0.266400 0.266400
0.280573 0.280573 0.280573
0.294747 0.294747 0.294747
0.308920 0.308920 0.308920
0.323093 0.323093 0.323093
0.337267 0.337267 0.337267
0.351440 0.351440 0.351440
0.365613 0.365613 0.365613
0.379787 0.379787 0.379787
0.393960 0.393960 0.393960
0.408133 0.408133 0.408133
0.243213 0.243213 0.243213
0.257387 0.257387 0.257387
0.271560 0.271560 0.271560
0.285733 0.285733 0.285733
0.299907 0.299907 0.299907
0.314080 0.314080 0.314080
0.328253 0.328253 0.328253
0.342427 0.342427 0.342427
0.356600 0.356600 0.356600
0.370773 0.370773 0.370773
0.384947 0.384947 0.384947
0.399120 0.399120 0.399120
0.413293 0.413293 0.413293
0.427467 0.427467 0.427467
0.441640 0.441640 0.441640
0.455813 0.455813 0.455813
0.290893 0.290893 0.290893
0.305067 0.305067 0.305067
0.319240 0.319240 0.319240
0.333413 0.333413 0.333413
0.347587 0.347587 0.347587
0.361760 0.361760 0.361760
0.375933 0.375933 0.375933
0.390107 0.390107 0.390107
0.404280 0.404280 0.404280
0.418453 0.418453 0.418453
0.432627 0.432627 0.432627
0.446800 0.446800 0.446800
0.460973 0.460973 0.460973
0.475147 0.475147 0.475147
0.489320 0.489320 0.489320
0.503493 0.503493 0.503493
0.338573 0.338573 0.338573
0.352747 0.352747 0.352747
0.366920 0.366920 0.366920
0.381093 0.381093 0.381093
0.395267 0.395267 0.395267
0.409440 0.409440 0.409440
0.423613 0.423613 0.423613
0.437787 0.437787 0.437787
0.451960 0.451960 0.451960
0.466133 0.466133 0.466133
0.480307 0.480307 0.480307
0.494480 0.494480 0.494480
0.508653 0.508653 0.508653
0.522827 0.522827 0.522827
0.537000 0.537000 0.537000
0.551173 0.551173 0.551173
0.386253 0.386253 0.386253
0.400427 0.400427 0.400427
0.414600 0.414600 0.414600
0.428773 0.428773 0.428773
0.442947 0.442947 0.442947
0.457120 0.457120 0.457120
0.471293 0.471293 0.471293
0.485467 0.485467 0.485467
0.499640 0.499640 0.499640
0.513813 0.513813 0.513813
0.527987 0.527987 0.527987
0.542160 0.542160 0.542160
0.556333 0.556333 0.556333
0.570507 0.570507 0.570507
0.584680 0.584680 0.584680
0.598853 0.598853 0.598853
0.433933 0.433933 0.433933
0.448107 0.448107 0.448107
0.462280 0.462280 0.462280
0.476453 0.476453 0.476453
0.490627 0.490627 0.490627
0.504800 0.504800 0.504800
0.518973 0.518973 0.518973
0.533147 0.533147 0.533147
0.547320 0.547320 0.547320
0.561493 0.561493 0.561493
0.575667 0.575667 0.575667
0.589840 0.589840 0.589840
0.604013 0.604013 0.604013
0.618187 0.618187 0.618187
0.632360 0.632360 0.632360
0.646533 0.646533 0.646533
0.481613 0.481613 0.481613
0.495787 0.495787 0.495787
0.509960 0.509960 0.509960
0.524133 0.524133 0.524133
0.538307 0.538307 0.538307
0.552480 0.552480 0.552480
0.566653 0.566653 0.566653
0.580827 0.580827 0.580827
0.595000 0.595000 0.595000
0.609173 0.609173 0.609173
0.623347 0.623347 0.623347
0.637520 0.637520 0.637520
0.651693 0.651693 0.651693
0.665867 0.665867 0.665867
0.680040 0.680040 0.680040
0.694213 0.694213 0.694213
0.529293 0.529293 0.529293
0.543467 0.543467 0.543467
0.557640 0.557640 0.557640
0.571813 0.571813 0.571813
0.585987 0.585987 0.585987
0.600160 0.600160 0.600160
0.614333 0.614333 0.614333
0.628507 0.628507 0.628507
0.642680 0.642680 0.642680
0.656853 0.656853 0.656853
0.671027 0.671027 0.671027
0.685200 0.685200 0.685200
0.699373 0.699373 0.699373
0.713547 0.713547 0.713547
0.727720 0.727720 0.727720
0.741893 0.741893 0.741893
0.576973 0.576973 0.576973
0.591147 0.591147 0.591147
0.605320 0.605320 0.605320
0.619493 0.619493 0.619493
0.633667 0.633667 0.633667
0.647840 0.647840 0.647840
0.662013 0.662013 0.662013
0.676187 0.676187 0.676187
0.690360 0.690360 0.690360
0.704533 0.704533 0.704533
0.718707 0.718707 0.718707
0.732880 0.732880 0.732880
0.747053 0.747053 0.747053
0.761227 0.761227 0.761227
0.775400 0.775400 0.775400
0.789573 0.789573 0.789573
0.624653 0.624653 0.624653
0.638827 0.638827 0.638827
0.653000 0.653000 0.653000
0.667173 0.667173 0.667173
0.681347 0.681347 0.681347
0.695520 0.695520 0.695520
0.709693 0.709693 0.709693
0.723867 0.723867 0.723867
0.738040 0.738040 0.738040
0.752213 0.752213 0.752213
0.766387 0.766387 0.766387
0.780560 0.780560 0.780560
0.794733 0.794733 0.794733
0.808907 0.808907 0.808907
0.823080 0.823080 0.823080
0.837253 0.837253 0.837253
0.672333 0.672333 0.672333
0.686507 0.686507 0.686507
0.700680 0.700680 0.700680
0.714853 0.714853 0.714853
0.729027 0.729027 0.729027
0.743200 0.743200 0.743200
0.757373 0.757373 0.757373
0.771547 0.771547 0.771547
0.785720 0.785720 0.785720
0.799893 0.799893 0.799893
0.814067 0.814067 0.814067
0.828240 0.828240 0.828240
0.842413 0.842413 0.842413
0.856587 0.856587 0.856587
0.870760 0.870760 0.870760
0.884933 0.884933 0.884933
0.720013 0.720013 0.720013
0.734187 0.734187 0.734187
0.748360 0.748360 0.748360
0.762533 0.762533 0.762533
0.776707 0.776707 0.776707
0.790880 0.790880 0.790880
0.805053 0.805053 0.805053
0.819227 0.819227 0.819227
0.833400 0.833400 0.833400
0.847573 0.847573 0.847573
0.861747 0.861747 0.861747
0.875920 0.875920 0.875920
0.890093 0.890093 0.890093
0.151163 1.000000 0.000000
1.000000 0.000000 0.802326
1.000000 0.174419 0.000000
0.081395 0.000000 1.000000
1.000000 0.034884 0.000000
0.360465 0.000000 1.000000
0.151163 1.000000 0.000000
0.081395 0.000000 1.000000
0.000000 1.000000 0.267442
0.000000 1.000000 0.825581
0.108840 0.108840 0.108840
0.123013 0.123013 0.123013
0.137187 0.137187 0.137187
0.151360 0.151360 0.151360
0.165533 0.165533 0.165533
0.179707 0.179707 0.179707
0.193880 0.193880 0.193880
0.208053 0.208053 0.208053
0.222227 0.222227 0.222227
1.000000 0.174419 0.000000
0.011628 1.000000 0.000000
0.000000 1.000000 0.965116
0.000000 0.895349 1.000000
0.114000 0.114000 0.114000
0.128173 0.128173 0.128173
0.142347 0.142347 0.142347
0.156520 0.156520 0.156520
0.170693 0.170693 0.170693
0.184867 0.184867 0.184867
0.199040 0.199040 0.199040
0.213213 0.213213 0.213213
0.227387 0.227387 0.227387
0.241560 0.241560 0.241560
0.255733 0.255733 0.255733
0.269907 0.269907 0.269907
0.104987 0.104987 0.104987
0.119160 0.119160 0.119160
0.133333 0.133333 0.133333
0.147507 0.147507 0.147507
0.161680 0.161680 0.161680
0.175853 0.175853 0.175853
0.190027 0.190027 0.190027
0.204200 0.204200 0.204200
0.218373 0.218373 0.218373
0.232547 0.232547 0.232547
0.246720 0.246720 0.246720
0.260893 0.260893 0.260893
0.275067 0.275067 0.275067
0.289240 0.289240 0.289240
0.303413 0.303413 0.303413
0.317587 0.317587 0.317587
0.152667 0.152667 0.152667
0.166840 0.166840 0.166840
0.181013 0.181013 0.181013
0.195187 0.195187 0.195187
0.209360 0.209360 0.209360
0.223533 0.223533 0.223533
0.237707 0.237707 0.237707
0.251880 0.251880 0.251880
0.266053 0.266053 0.266053
0.280227 0.280227 0.280227
0.294400 0.294400 0.294400
0.308573 0.308573 0.308573
0.322747 0.322747 0.322747
0.336920 0.336920 0.336920
0.351093 0.351093 0.351093
0.365267 0.365267 0.365267
0.200347 0.200347 0.200347
0.214520 0.214520 0.214520
0.228693 0.228693 0.228693
0.242867 0.242867 0.242867
0.257040 0.257040 0.257040
0.271213 0.271213 0.271213
0.285387 0.285387 0.285387
0.299560 0.299560 0.299560
0.313733 0.313733 0.313733
0.327907 0.327907 0.327907
0.342080 0.342080 0.342080
0.356253 0.356253 0.356253
0.370427 0.370427 0.370427
0.384600 0.384600 0.384600
0.398773 0.398773 0.398773
0.412947 0.412947 0.412947
0.248027 0.248027 0.248027
0.262200 0.262200 0.262200
0.276373 0.276373 0.276373
0.290547 0.290547 0.290547
0.304720 0.304720 0.304720
0.318893 0.318893 0.318893
0.333067 0.333067 0.333067
0.347240 0.347240 0.347240
0.361413 0.361413 0.361413
0.375587 0.375587 0.375587
0.389760 0.389760 0.389760
0.403933 0.403933 0.403933
0.418107 0.418107 0.418107
0.432280 0.432280 0.432280
0.446453 0.446453 0.446453
0.460627 0.460627 0.460627
0.295707 0.295707 0.295707
0.309880 0.309880 0.309880
0.324053 0.324053 0.324053
0.338227 0.338227 0.338227
0.352400 0.352400 0.352400
0.366573 0.366573 0.366573
0.380747 0.380747 0.380747
0.394920 0.394920 0.394920
0.409093 0.409093 0.409093
0.423267 0.423267 0.423267
0.437440 0.437440 0.437440
0.451613 0.451613 0.451613
0.465787 0.465787 0.465787
0.479960 0.479960 0.479960
0.494133 0.494133 0.494133
0.508307 0.508307 0.508307
0.343387 0.343387 0.343387
0.357560 0.357560 0.357560
0.371733 0.371733 0.371733
0.385907 0.385907 0.385907
0.400080 0.400080 0.400080
0.414253 0.414253 0.414253
0.428427 0.428427 0.428427
0.442600 0.442600 0.442600
0.456773 0.456773 0.456773
0.470947 0.470947 0.470947
0.485120 0.485120 0.485120
0.499293 0.499293 0.499293
0.513467 0.513467 0.513467
0.527640 0.527640 0.527640
0.541813 0.541813 0.541813
0.555987 0.555987 0.555987
0.391067 0.391067 0.391067
0.405240 0.405240 0.405240
0.419413 0.419413 0.419413
0.433587 0.433587 0.433587
0.447760 0.447760 0.447760
0.461933 0.461933 0.461933
0.476107 0.476107 0.476107
0.490280 0.490280 0.490280
0.504453 0.504453 0.504453
0.518627 0.518627 0.518627
0.532800 0.532800 0.532800
0.546973 0.546973 0.546973
0.561147 0.561147 0.561147
0.575320 0.575320 0.575320
0.589493 0.589493 0.589493
0.603667 0.603667 0.603667
0.438747 0.438747 0.438747
0.452920 0.452920 0.452920
0.467093 0.467093 0.467093
0.481267 0.481267 0.481267
0.495440 0.495440 0.495440
0.509613 0.509613 0.509613
0.523787 0.523787 0.523787
0.537960 0.537960 0.537960
0.552133 0.552133 0.552133
0.566307 0.566307 0.566307
0.580480 0.580480 0.580480
0.594653 0.594653 0.594653
0.608827 0.608827 0.608827
0.623000 0.623000 0.623000
0.637173 0.637173 0.637173
0.651347 0.651347 0.651347
0.486427 0.486427 0.486427
0.500600 0.500600 0.500600
0.514773 0.514773 0.514773
0.528947 0.528947 0.528947
0.543120 0.543120 0.543120
0.557293 0.557293 0.557293
0.571467 0.571467 0.571467
0.585640 0.585640 0.585640
0.599813 0.599813 0.599813
0.613987 0.613987 0.613987
0.628160 0.628160 0.628160
0.642333 0.642333 0.642333
0.656507 0.656507 0.656507
0.670680 0.670680 0.670680
0.684853 0.684853 0.684853
0.699027 0.699027 0.699027
0.534107 0.534107 0.534107
0.548280 0.548280 0.548280
0.562453 0.562453 0.562453
0.576627 0.576627 0.576627
0.590800 0.590800 0.590800
0.604973 0.604973 0.604973
0.619147 0.619147 0.619147
0.633320 0.633320 0.633320
0.647493 0.647493 0.647493
0.661667 0.661667 0.661667
0.675840 0.675840 0.675840
0.690013 0.690013 0.690013
0.704187 0.704187 0.704187
0.718360 0.718360 0.718360
0.732533 0.732533 0.732533
0.746707 0.746707 0.746707
0.581787 0.581787 0.581787
0.595960 0.595960 0.595960
0.610133 0.610133 0.610133
0.624307 0.624307 0.624307
0.638480 0.638480 0.638480
0.652653 0.652653 0.652653
0.666827 0.666827 0.666827
0.681000 0.681000 0.681000
0.695173 0.695173 0.695173
0.709347 0.709347 0.709347
0.723520 0.723520 0.723520
0.737693 0.737693 0.737693
0.751867 0.751867 0.751867
0.766040 0.766040 0.766040
0.780213 0.780213 0.780213
0.794387 0.794387 0.794387
0.629467 0.629467 0.629467
0.643640 0.643640 0.643640
0.657813 0.657813 0.657813
0.671987 0.671987 0.671987
0.686160 0.686160 0.686160
0.700333 0.700333 0.700333
0.714507 0.714507 0.714507
0.728680 0.728680 0.728680
0.742853 0.742853 0.742853
0.757027 0.757027 0.757027
0.771200 0.771200 0.771200
0.785373 0.785373 0.785373
0.799547 0.799547 0.799547
0.813720 0.813720 0.813720
0.827893 0.827893 0.827893
0.842067 0.842067 0.842067
0.677147 0.677147 0.677147
0.691320 0.691320 0.691320
0.705493 0.705493 0.705493
0.719667 0.719667 0.719667
0.733840 0.733840 0.733840
0.748013 0.748013 0.748013
0.762187 0.762187 0.762187
0.776360 0.776360 0.776360
0.790533 0.790533 0.790533
0.804707 0.804707 0.804707
0.818880 0.818880 0.818880
0.833053 0.833053 0.833053
0.847227 0.847227 0.847227
0.861400 0.861400 0.861400
0.875573 0.875573 0.875573
0.889747 0.889747 0.889747
0.724827 0.724827 0.724827
0.739000 0.739000 0.739000
0.753173 0.753173 0.753173
0.767347 0.767347 0.767347
0.781520 0.781520 0.781520
0.795693 0.795693 0.795693
0.809867 0.809867 0.809867
0.824040 0.824040 0.824040
0.838213 0.838213 0.838213
0.852387 0.852387 0.852387
0.866560 0.866560 0.866560
0.880733 0.880733 0.880733
0.894907 0.894907 0.894907
1.000000 0.000000 0.244186
0.000000 0.476744 1.000000
0.290698 1.000000 0.000000
0.000000 0.337209 1.000000
0.000000 1.000000 0.406977
0.000000 0.476744 1.000000
1.000000 0.593023 0.000000
0.000000 1.000000 0.406977
0.000000 0.616279 1.000000
0.000000 0.476744 1.000000
0.113653 0.113653 0.113653
0.127827 0.127827 0.127827
0.142000 0.142000 0.142000
0.156173 0.156173 0.156173
0.170347 0.170347 0.170347
0.184520 0.184520 0.184520
0.198693 0.198693 0.198693
0.212867 0.212867 0.212867
0.227040 0.227040 0.227040
0.290698 1.000000 0.000000
0.000000 0.895349 1.000000
1.000000 0.872093 0.000000
0.104640 0.104640 0.104640
0.118813 0.118813 0.118813
0.132987 0.132987 0.132987
0.147160 0.147160 0.147160
0.161333 0.161333 0.161333
0.175507 0.175507 0.175507
0.189680 0.189680 0.189680
0.203853 0.203853 0.203853
0.218027 0.218027 0.218027
0.232200 0.232200 0.232200
0.246373 0.246373 0.246373
0.260547 0.260547 0.260547
0.274720 0.274720 0.274720
0.109800 0.109800 0.109800
0.123973 0.123973 0.123973
0.138147 0.138147 0.138147
0.152320 0.152320 0.152320
0.166493 0.166493 0.166493
0.180667 0.180667 0.180667
0.194840 0.194840 0.194840
0.209013 0.209013 0.209013
0.223187 0.223187 0.223187
0.237360 0.237360 0.237360
0.251533 0.251533 0.251533
0.265707 0.265707 0.265707
0.279880 0.279880 0.279880
0.294053 0.294053 0.294053
0.308227 0.308227 0.308227
0.322400 0.322400 0.322400
0.157480 0.157480 0.157480
0.171653 0.171653 0.171653
0.185827 0.185827 0.185827
0.200000 0.200000 0.200000
0.214173 0.214173 0.214173
0.228347 0.228347 0.228347
0.242520 0.242520 0.242520
0.256693 0.256693 0.256693
0.270867 0.270867 0.270867
0.285040 0.285040 0.285040
0.299213 0.299213 0.299213
0.313387 0.313387 0.313387
0.327560 0.327560 0.327560
0.341733 0.341733 0.341733
0.355907 0.355907 0.355907
0.370080 0.370080 0.370080
0.205160 0.205160 0.205160
0.219333 0.219333 0.219333
0.233507 0.233507 0.233507
0.247680 0.247680 0.247680
0.261853 0.261853 0.261853
0.276027 0.276027 0.276027
0.290200 0.290200 0.290200
0.304373 0.304373 0.304373
0.318547 0.318547 0.318547
0.332720 0.332720 0.332720
0.346893 0.346893 0.346893
0.361067 0.361067 0.361067
0.375240 0.375240 0.375240
0.389413 0.389413 0.389413
0.403587 0.403587 0.403587
0.417760 0.417760 0.417760
0.252840 0.252840 0.252840
0.267013 0.267013 0.267013
0.281187 0.281187 0.281187
0.295360 0.295360 0.295360
0.309533 0.309533 0.309533
0.323707 0.323707 0.323707
0.337880 0.337880 0.337880
0.352053 0.352053 0.352053
0.366227 0.366227 0.366227
0.380400 0.380400 0.380400
0.394573 0.394573 0.394573
0.408747 0.408747 0.408747
0.422920 0.422920 0.422920
0.437093 0.437093 0.437093
0.451267 0.451267 0.451267
0.465440 0.465440 0.465440
0.300520 0.300520 0.300520
0.314693 0.314693 0.314693
0.328867 0.328867 0.328867
0.343040 0.343040 0.343040
0.357213 0.357213 0.357213
0.371387 0.371387 0.371387
0.385560 0.385560 0.385560
0.399733 0.399733 0.399733
0.413907 0.413907 0.413907
0.428080 0.428080 0.428080
0.442253 0.442253 0.442253
0.456427 0.456427 0.456427
0.470600 0.470600 0.470600
0.484773 0.484773 0.484773
0.498947 0.498947 0.498947
0.513120 0.513120 0.513120
0.348200 0.348200 0.348200
0.362373 0.362373 0.362373
0.376547 0.376547 0.376547
0.390720 0.390720 0.390720
