mpv/inverse-grayscale.cube
TITLE "selective inverse (grayscale)"
LUT_3D_SIZE 6
DOMAIN_MIN 0 0 0
DOMAIN_MAX 1 1 1
1.000000 1.000000 1.000000
0.957480 0.957480 0.957480
0.914960 0.914960 0.914960
0.127560 0.127560 0.127560
0.170080 0.170080 0.170080
0.212600 0.212600 0.212600
0.143040 0.143040 0.143040
0.185560 0.185560 0.185560
0.228080 0.228080 0.228080
0.270600 0.270600 0.270600
0.313120 0.313120 0.313120
0.355640 0.355640 0.355640
0.286080 0.286080 0.286080
0.328600 0.328600 0.328600
0.371120 0.371120 0.371120
0.413640 0.413640 0.413640
0.456160 0.456160 0.456160
0.498680 0.498680 0.498680
0.429120 0.429120 0.429120
0.471640 0.471640 0.471640
0.514160 0.514160 0.514160
0.556680 0.556680 0.556680
0.599200 0.599200 0.599200
0.641720 0.641720 0.641720
0.572160 0.572160 0.572160
0.614680 0.614680 0.614680
0.657200 0.657200 0.657200
0.699720 0.699720 0.699720
0.742240 0.742240 0.742240
0.784760 0.784760 0.784760
0.715200 0.715200 0.715200
0.757720 0.757720 0.757720
0.800240 0.800240 0.800240
0.842760 0.842760 0.842760
0.885280 0.885280 0.885280
0.072200 0.072200 0.072200
0.985560 0.985560 0.985560
0.943040 0.943040 0.943040
0.900520 0.900520 0.900520
0.142000 0.142000 0.142000
0.184520 0.184520 0.184520
0.227040 0.227040 0.227040
0.157480 0.157480 0.157480
0.200000 0.200000 0.200000
0.242520 0.242520 0.242520
0.285040 0.285040 0.285040
0.327560 0.327560 0.327560
0.370080 0.370080 0.370080
0.300520 0.300520 0.300520
0.343040 0.343040 0.343040
0.385560 0.385560 0.385560
0.428080 0.428080 0.428080
0.470600 0.470600 0.470600
0.513120 0.513120 0.513120
0.443560 0.443560 0.443560
0.486080 0.486080 0.486080
0.528600 0.528600 0.528600
0.571120 0.571120 0.571120
0.613640 0.613640 0.613640
0.656160 0.656160 0.656160
0.586600 0.586600 0.586600
0.629120 0.629120 0.629120
0.671640 0.671640 0.671640
0.714160 0.714160 0.714160
0.756680 0.756680 0.756680
0.799200 0.799200 0.799200
0.729640 0.729640 0.729640
0.772160 0.772160 0.772160
0.814680 0.814680 0.814680
0.857200 0.857200 0.857200
0.899720 0.899720 0.899720
0.057760 0.057760 0.057760
0.971120 0.971120 0.971120
0.928600 0.928600 0.928600
0.113920 0.113920 0.113920
0.156440 0.156440 0.156440
0.198960 0.198960 0.198960
0.241480 0.241480 0.241480
0.171920 0.171920 0.171920
0.214440 0.214440 0.214440
0.256960 0.256960 0.256960
0.299480 0.299480 0.299480
0.342000 0.342000 0.342000
0.384520 0.384520 0.384520
0.314960 0.314960 0.314960
0.357480 0.357480 0.357480
0.400000 0.400000 0.400000
0.442520 0.442520 0.442520
0.485040 0.485040 0.485040
0.527560 0.527560 0.527560
0.458000 0.458000 0.458000
0.500520 0.500520 0.500520
0.543040 0.543040 0.543040
0.585560 0.585560 0.585560
0.628080 0.628080 0.628080
0.670600 0.670600 0.670600
0.601040 0.601040 0.601040
0.643560 0.643560 0.643560
0.686080 0.686080 0.686080
0.728600 0.728600 0.728600
0.771120 0.771120 0.771120
0.813640 0.813640 0.813640
0.744080 0.744080 0.744080
0.786600 0.786600 0.786600
0.829120 0.829120 0.829120
0.871640 0.871640 0.871640
0.085840 0.085840 0.085840
0.043320 0.043320 0.043320
0.956680 0.956680 0.956680
0.914160 0.914160 0.914160
0.128360 0.128360 0.128360
0.170880 0.170880 0.170880
0.213400 0.213400 0.213400
0.255920 0.255920 0.255920
0.186360 0.186360 0.186360
0.228880 0.228880 0.228880
0.271400 0.271400 0.271400
0.313920 0.313920 0.313920
0.356440 0.356440 0.356440
0.398960 0.398960 0.398960
0.329400 0.329400 0.329400
0.371920 0.371920 0.371920
0.414440 0.414440 0.414440
0.456960 0.456960 0.456960
0.499480 0.499480 0.499480
0.542000 0.542000 0.542000
0.472440 0.472440 0.472440
0.514960 0.514960 0.514960
0.557480 0.557480 0.557480
0.600000 0.600000 0.600000
0.642520 0.642520 0.642520
0.685040 0.685040 0.685040
0.615480 0.615480 0.615480
0.658000 0.658000 0.658000
0.700520 0.700520 0.700520
0.743040 0.743040 0.743040
0.785560 0.785560 0.785560
0.828080 0.828080 0.828080
0.758520 0.758520 0.758520
0.801040 0.801040 0.801040
0.843560 0.843560 0.843560
0.886080 0.886080 0.886080
0.071400 0.071400 0.071400
0.028880 0.028880 0.028880
0.942240 0.942240 0.942240
0.100280 0.100280 0.100280
0.142800 0.142800 0.142800
0.185320 0.185320 0.185320
0.227840 0.227840 0.227840
0.270360 0.270360 0.270360
0.200800 0.200800 0.200800
0.243320 0.243320 0.243320
0.285840 0.285840 0.285840
0.328360 0.328360 0.328360
0.370880 0.370880 0.370880
0.413400 0.413400 0.413400
0.343840 0.343840 0.343840
0.386360 0.386360 0.386360
0.428880 0.428880 0.428880
0.471400 0.471400 0.471400
0.513920 0.513920 0.513920
0.556440 0.556440 0.556440
0.486880 0.486880 0.486880
0.529400 0.529400 0.529400
0.571920 0.571920 0.571920
0.614440 0.614440 0.614440
0.656960 0.656960 0.656960
0.699480 0.699480 0.699480
0.629920 0.629920 0.629920
0.672440 0.672440 0.672440
0.714960 0.714960 0.714960
0.757480 0.757480 0.757480
0.800000 0.800000 0.800000
0.842520 0.842520 0.842520
0.772960 0.772960 0.772960
0.815480 0.815480 0.815480
0.858000 0.858000 0.858000
0.099480 0.099480 0.099480
0.056960 0.056960 0.056960
0.014440 0.014440 0.014440
0.927800 0.927800 0.927800
0.114720 0.114720 0.114720
0.157240 0.157240 0.157240
0.199760 0.199760 0.199760
0.242280 0.242280 0.242280
0.284800 0.284800 0.284800
0.215240 0.215240 0.215240
0.257760 0.257760 0.257760
0.300280 0.300280 0.300280
0.342800 0.342800 0.342800
0.385320 0.385320 0.385320
0.427840 0.427840 0.427840
0.358280 0.358280 0.358280
0.400800 0.400800 0.400800
0.443320 0.443320 0.443320
0.485840 0.485840 0.485840
0.528360 0.528360 0.528360
0.570880 0.570880 0.570880
0.501320 0.501320 0.501320
0.543840 0.543840 0.543840
0.586360 0.586360 0.586360
0.628880 0.628880 0.628880
0.671400 0.671400 0.671400
0.713920 0.713920 0.713920
0.644360 0.644360 0.644360
0.686880 0.686880 0.686880
0.729400 0.729400 0.729400
0.771920 0.771920 0.771920
0.814440 0.814440 0.814440
0.856960 0.856960 0.856960
0.787400 0.787400 0.787400
0.829920 0.829920 0.829920
0.872440 0.872440 0.872440
0.085040 0.085040 0.085040
0.042520 0.042520 0.042520
0.000000 0.000000 0.000000
