mpv/inverse-rainbow-180.cube
TITLE "selective rainbow 180° (100 cycles)"
LUT_3D_SIZE 6
DOMAIN_MIN 0 0 0
DOMAIN_MAX 1 1 1
0.000000 1.000000 1.000000
1.000000 0.000000 0.767442
1.000000 0.000000 0.906977
0.600000 0.000000 0.000000
0.800000 0.000000 0.000000
1.000000 0.000000 0.000000
0.000000 0.200000 0.000000
0.200000 0.200000 0.000000
0.400000 0.200000 0.000000
0.600000 0.200000 0.000000
0.800000 0.200000 0.000000
1.000000 0.200000 0.000000
0.000000 0.400000 0.000000
0.200000 0.400000 0.000000
0.400000 0.400000 0.000000
0.600000 0.400000 0.000000
0.800000 0.400000 0.000000
1.000000 0.400000 0.000000
0.000000 0.600000 0.000000
0.200000 0.600000 0.000000
0.400000 0.600000 0.000000
0.600000 0.600000 0.000000
0.800000 0.600000 0.000000
1.000000 0.600000 0.000000
0.000000 0.800000 0.000000
0.200000 0.800000 0.000000
0.400000 0.800000 0.000000
0.600000 0.800000 0.000000
0.800000 0.800000 0.000000
1.000000 0.800000 0.000000
0.000000 1.000000 0.000000
0.200000 1.000000 0.000000
0.400000 1.000000 0.000000
0.600000 1.000000 0.000000
0.800000 1.000000 0.000000
1.000000 0.348837 0.000000
0.000000 1.000000 0.162791
1.000000 0.000000 0.906977
0.000000 1.000000 0.023256
0.600000 0.000000 0.200000
0.800000 0.000000 0.200000
1.000000 0.000000 0.200000
0.000000 0.200000 0.200000
0.200000 0.200000 0.200000
0.400000 0.200000 0.200000
0.600000 0.200000 0.200000
0.800000 0.200000 0.200000
1.000000 0.200000 0.200000
0.000000 0.400000 0.200000
0.200000 0.400000 0.200000
0.400000 0.400000 0.200000
0.600000 0.400000 0.200000
0.800000 0.400000 0.200000
1.000000 0.400000 0.200000
0.000000 0.600000 0.200000
0.200000 0.600000 0.200000
0.400000 0.600000 0.200000
0.600000 0.600000 0.200000
0.800000 0.600000 0.200000
1.000000 0.600000 0.200000
0.000000 0.800000 0.200000
0.200000 0.800000 0.200000
0.400000 0.800000 0.200000
0.600000 0.800000 0.200000
0.800000 0.800000 0.200000
1.000000 0.800000 0.200000
0.000000 1.000000 0.200000
0.200000 1.000000 0.200000
0.400000 1.000000 0.200000
0.600000 1.000000 0.200000
0.800000 1.000000 0.200000
0.255814 1.000000 0.000000
0.000000 0.302326 1.000000
0.000000 0.302326 1.000000
0.400000 0.000000 0.400000
0.600000 0.000000 0.400000
0.800000 0.000000 0.400000
1.000000 0.000000 0.400000
0.000000 0.200000 0.400000
0.200000 0.200000 0.400000
0.400000 0.200000 0.400000
0.600000 0.200000 0.400000
0.800000 0.200000 0.400000
1.000000 0.200000 0.400000
0.000000 0.400000 0.400000
0.200000 0.400000 0.400000
0.400000 0.400000 0.400000
0.600000 0.400000 0.400000
0.800000 0.400000 0.400000
1.000000 0.400000 0.400000
0.000000 0.600000 0.400000
0.200000 0.600000 0.400000
0.400000 0.600000 0.400000
0.600000 0.600000 0.400000
0.800000 0.600000 0.400000
1.000000 0.600000 0.400000
0.000000 0.800000 0.400000
0.200000 0.800000 0.400000
0.400000 0.800000 0.400000
0.600000 0.800000 0.400000
0.800000 0.800000 0.400000
1.000000 0.800000 0.400000
0.000000 1.000000 0.400000
0.200000 1.000000 0.400000
0.400000 1.000000 0.400000
0.600000 1.000000 0.400000
0.255814 1.000000 0.000000
0.395349 0.000000 1.000000
0.395349 1.000000 0.000000
0.255814 0.000000 1.000000
0.400000 0.000000 0.600000
0.600000 0.000000 0.600000
0.800000 0.000000 0.600000
1.000000 0.000000 0.600000
0.000000 0.200000 0.600000
0.200000 0.200000 0.600000
0.400000 0.200000 0.600000
0.600000 0.200000 0.600000
0.800000 0.200000 0.600000
1.000000 0.200000 0.600000
0.000000 0.400000 0.600000
0.200000 0.400000 0.600000
0.400000 0.400000 0.600000
0.600000 0.400000 0.600000
0.800000 0.400000 0.600000
1.000000 0.400000 0.600000
0.000000 0.600000 0.600000
0.200000 0.600000 0.600000
0.400000 0.600000 0.600000
0.600000 0.600000 0.600000
0.800000 0.600000 0.600000
1.000000 0.600000 0.600000
0.000000 0.800000 0.600000
0.200000 0.800000 0.600000
0.400000 0.800000 0.600000
0.600000 0.800000 0.600000
0.800000 0.800000 0.600000
1.000000 0.800000 0.600000
0.000000 1.000000 0.600000
0.200000 1.000000 0.600000
0.400000 1.000000 0.600000
0.600000 1.000000 0.600000
0.000000 1.000000 0.302326
0.000000 1.000000 0.302326
0.255814 0.000000 1.000000
0.200000 0.000000 0.800000
0.400000 0.000000 0.800000
0.600000 0.000000 0.800000
0.800000 0.000000 0.800000
1.000000 0.000000 0.800000
0.000000 0.200000 0.800000
0.200000 0.200000 0.800000
0.400000 0.200000 0.800000
0.600000 0.200000 0.800000
0.800000 0.200000 0.800000
1.000000 0.200000 0.800000
0.000000 0.400000 0.800000
0.200000 0.400000 0.800000
0.400000 0.400000 0.800000
0.600000 0.400000 0.800000
0.800000 0.400000 0.800000
1.000000 0.400000 0.800000
0.000000 0.600000 0.800000
0.200000 0.600000 0.800000
0.400000 0.600000 0.800000
0.600000 0.600000 0.800000
0.800000 0.600000 0.800000
1.000000 0.600000 0.800000
0.000000 0.800000 0.800000
0.200000 0.800000 0.800000
0.400000 0.800000 0.800000
0.600000 0.800000 0.800000
0.800000 0.800000 0.800000
1.000000 0.800000 0.800000
0.000000 1.000000 0.800000
0.200000 1.000000 0.800000
0.400000 1.000000 0.800000
0.000000 0.023256 1.000000
1.000000 0.906977 0.000000
0.000000 0.162791 1.000000
1.000000 0.000000 0.348837
0.200000 0.000000 1.000000
0.400000 0.000000 1.000000
0.600000 0.000000 1.000000
0.800000 0.000000 1.000000
1.000000 0.000000 1.000000
0.000000 0.200000 1.000000
0.200000 0.200000 1.000000
0.400000 0.200000 1.000000
0.600000 0.200000 1.000000
0.800000 0.200000 1.000000
1.000000 0.200000 1.000000
0.000000 0.400000 1.000000
0.200000 0.400000 1.000000
0.400000 0.400000 1.000000
0.600000 0.400000 1.000000
0.800000 0.400000 1.000000
1.000000 0.400000 1.000000
0.000000 0.600000 1.000000
0.200000 0.600000 1.000000
0.400000 0.600000 1.000000
0.600000 0.600000 1.000000
0.800000 0.600000 1.000000
1.000000 0.600000 1.000000
0.000000 0.800000 1.000000
0.200000 0.800000 1.000000
0.400000 0.800000 1.000000
0.600000 0.800000 1.000000
0.800000 0.800000 1.000000
1.000000 0.800000 1.000000
0.000000 1.000000 1.000000
0.200000 1.000000 1.000000
0.400000 1.000000 1.000000
1.000000 0.906977 0.000000
1.000000 0.767442 0.000000
0.000000 1.000000 1.000000
