mpv/inverse-rainbow-090.cube
TITLE "selective rainbow 90° (100 cycles)"
LUT_3D_SIZE 16
DOMAIN_MIN 0 0 0
DOMAIN_MAX 1 1 1
0.500000 1.000000 0.000000
0.000000 0.127907 1.000000
0.000000 1.000000 0.616279
0.000000 0.267442 1.000000
1.000000 0.802326 0.000000
0.000000 1.000000 0.616279
0.000000 0.406977 1.000000
0.000000 0.267442 1.000000
0.533333 0.000000 0.000000
0.600000 0.000000 0.000000
0.666667 0.000000 0.000000
0.733333 0.000000 0.000000
0.800000 0.000000 0.000000
0.866667 0.000000 0.000000
0.933333 0.000000 0.000000
1.000000 0.000000 0.000000
0.000000 1.000000 0.476744
1.000000 0.000000 0.872093
1.000000 0.523256 0.000000
0.290698 0.000000 1.000000
0.266667 0.066667 0.000000
0.333333 0.066667 0.000000
0.400000 0.066667 0.000000
0.466667 0.066667 0.000000
0.533333 0.066667 0.000000
0.600000 0.066667 0.000000
0.666667 0.066667 0.000000
0.733333 0.066667 0.000000
0.800000 0.066667 0.000000
0.866667 0.066667 0.000000
0.933333 0.066667 0.000000
1.000000 0.066667 0.000000
0.220930 1.000000 0.000000
0.066667 0.133333 0.000000
0.133333 0.133333 0.000000
0.200000 0.133333 0.000000
0.266667 0.133333 0.000000
0.333333 0.133333 0.000000
0.400000 0.133333 0.000000
0.466667 0.133333 0.000000
0.533333 0.133333 0.000000
0.600000 0.133333 0.000000
0.666667 0.133333 0.000000
0.733333 0.133333 0.000000
0.800000 0.133333 0.000000
0.866667 0.133333 0.000000
0.933333 0.133333 0.000000
1.000000 0.133333 0.000000
0.000000 0.200000 0.000000
0.066667 0.200000 0.000000
0.133333 0.200000 0.000000
0.200000 0.200000 0.000000
0.266667 0.200000 0.000000
0.333333 0.200000 0.000000
0.400000 0.200000 0.000000
0.466667 0.200000 0.000000
0.533333 0.200000 0.000000
0.600000 0.200000 0.000000
0.666667 0.200000 0.000000
0.733333 0.200000 0.000000
0.800000 0.200000 0.000000
0.866667 0.200000 0.000000
0.933333 0.200000 0.000000
1.000000 0.200000 0.000000
0.000000 0.266667 0.000000
0.066667 0.266667 0.000000
0.133333 0.266667 0.000000
0.200000 0.266667 0.000000
0.266667 0.266667 0.000000
0.333333 0.266667 0.000000
0.400000 0.266667 0.000000
0.466667 0.266667 0.000000
0.533333 0.266667 0.000000
0.600000 0.266667 0.000000
0.666667 0.266667 0.000000
0.733333 0.266667 0.000000
0.800000 0.266667 0.000000
0.866667 0.266667 0.000000
0.933333 0.266667 0.000000
1.000000 0.266667 0.000000
0.000000 0.333333 0.000000
0.066667 0.333333 0.000000
0.133333 0.333333 0.000000
0.200000 0.333333 0.000000
0.266667 0.333333 0.000000
0.333333 0.333333 0.000000
0.400000 0.333333 0.000000
0.466667 0.333333 0.000000
0.533333 0.333333 0.000000
0.600000 0.333333 0.000000
0.666667 0.333333 0.000000
0.733333 0.333333 0.000000
0.800000 0.333333 0.000000
0.866667 0.333333 0.000000
0.933333 0.333333 0.000000
1.000000 0.333333 0.000000
0.000000 0.400000 0.000000
0.066667 0.400000 0.000000
0.133333 0.400000 0.000000
0.200000 0.400000 0.000000
0.266667 0.400000 0.000000
0.333333 0.400000 0.000000
0.400000 0.400000 0.000000
0.466667 0.400000 0.000000
0.533333 0.400000 0.000000
0.600000 0.400000 0.000000
0.666667 0.400000 0.000000
0.733333 0.400000 0.000000
0.800000 0.400000 0.000000
0.866667 0.400000 0.000000
0.933333 0.400000 0.000000
1.000000 0.400000 0.000000
0.000000 0.466667 0.000000
0.066667 0.466667 0.000000
0.133333 0.466667 0.000000
0.200000 0.466667 0.000000
0.266667 0.466667 0.000000
0.333333 0.466667 0.000000
0.400000 0.466667 0.000000
0.466667 0.466667 0.000000
0.533333 0.466667 0.000000
0.600000 0.466667 0.000000
0.666667 0.466667 0.000000
0.733333 0.466667 0.000000
0.800000 0.466667 0.000000
0.866667 0.466667 0.000000
0.933333 0.466667 0.000000
1.000000 0.466667 0.000000
0.000000 0.533333 0.000000
0.066667 0.533333 0.000000
0.133333 0.533333 0.000000
0.200000 0.533333 0.000000
0.266667 0.533333 0.000000
0.333333 0.533333 0.000000
0.400000 0.533333 0.000000
0.466667 0.533333 0.000000
0.533333 0.533333 0.000000
0.600000 0.533333 0.000000
0.666667 0.533333 0.000000
0.733333 0.533333 0.000000
0.800000 0.533333 0.000000
0.866667 0.533333 0.000000
0.933333 0.533333 0.000000
1.000000 0.533333 0.000000
0.000000 0.600000 0.000000
0.066667 0.600000 0.000000
0.133333 0.600000 0.000000
0.200000 0.600000 0.000000
0.266667 0.600000 0.000000
0.333333 0.600000 0.000000
0.400000 0.600000 0.000000
0.466667 0.600000 0.000000
0.533333 0.600000 0.000000
0.600000 0.600000 0.000000
0.666667 0.600000 0.000000
0.733333 0.600000 0.000000
0.800000 0.600000 0.000000
0.866667 0.600000 0.000000
0.933333 0.600000 0.000000
1.000000 0.600000 0.000000
0.000000 0.666667 0.000000
0.066667 0.666667 0.000000
0.133333 0.666667 0.000000
0.200000 0.666667 0.000000
0.266667 0.666667 0.000000
0.333333 0.666667 0.000000
0.400000 0.666667 0.000000
0.466667 0.666667 0.000000
0.533333 0.666667 0.000000
0.600000 0.666667 0.000000
0.666667 0.666667 0.000000
0.733333 0.666667 0.000000
0.800000 0.666667 0.000000
0.866667 0.666667 0.000000
0.933333 0.666667 0.000000
1.000000 0.666667 0.000000
0.000000 0.733333 0.000000
0.066667 0.733333 0.000000
0.133333 0.733333 0.000000
0.200000 0.733333 0.000000
0.266667 0.733333 0.000000
0.333333 0.733333 0.000000
0.400000 0.733333 0.000000
0.466667 0.733333 0.000000
0.533333 0.733333 0.000000
0.600000 0.733333 0.000000
0.666667 0.733333 0.000000
0.733333 0.733333 0.000000
0.800000 0.733333 0.000000
0.866667 0.733333 0.000000
0.933333 0.733333 0.000000
1.000000 0.733333 0.000000
0.000000 0.800000 0.000000
0.066667 0.800000 0.000000
0.133333 0.800000 0.000000
0.200000 0.800000 0.000000
0.266667 0.800000 0.000000
0.333333 0.800000 0.000000
0.400000 0.800000 0.000000
0.466667 0.800000 0.000000
0.533333 0.800000 0.000000
0.600000 0.800000 0.000000
0.666667 0.800000 0.000000
0.733333 0.800000 0.000000
0.800000 0.800000 0.000000
0.866667 0.800000 0.000000
0.933333 0.800000 0.000000
1.000000 0.800000 0.000000
0.000000 0.866667 0.000000
0.066667 0.866667 0.000000
0.133333 0.866667 0.000000
0.200000 0.866667 0.000000
0.266667 0.866667 0.000000
0.333333 0.866667 0.000000
0.400000 0.866667 0.000000
0.466667 0.866667 0.000000
0.533333 0.866667 0.000000
0.600000 0.866667 0.000000
0.666667 0.866667 0.000000
0.733333 0.866667 0.000000
0.800000 0.866667 0.000000
0.866667 0.866667 0.000000
0.933333 0.866667 0.000000
1.000000 0.866667 0.000000
0.000000 0.933333 0.000000
0.066667 0.933333 0.000000
0.133333 0.933333 0.000000
0.200000 0.933333 0.000000
0.266667 0.933333 0.000000
0.333333 0.933333 0.000000
0.400000 0.933333 0.000000
0.466667 0.933333 0.000000
0.533333 0.933333 0.000000
0.600000 0.933333 0.000000
0.666667 0.933333 0.000000
0.733333 0.933333 0.000000
0.800000 0.933333 0.000000
0.866667 0.933333 0.000000
0.933333 0.933333 0.000000
1.000000 0.933333 0.000000
0.000000 1.000000 0.000000
0.066667 1.000000 0.000000
0.133333 1.000000 0.000000
0.200000 1.000000 0.000000
0.266667 1.000000 0.000000
0.333333 1.000000 0.000000
0.400000 1.000000 0.000000
0.466667 1.000000 0.000000
0.533333 1.000000 0.000000
0.600000 1.000000 0.000000
0.666667 1.000000 0.000000
0.733333 1.000000 0.000000
0.800000 1.000000 0.000000
0.866667 1.000000 0.000000
0.918605 1.000000 0.000000
0.848837 0.000000 1.000000
0.290698 0.000000 1.000000
0.000000 0.546512 1.000000
0.988372 0.000000 1.000000
0.000000 1.000000 0.895349
1.000000 0.000000 0.453488
1.000000 0.941860 0.000000
0.709302 0.000000 1.000000
0.466667 0.000000 0.066667
0.533333 0.000000 0.066667
0.600000 0.000000 0.066667
0.666667 0.000000 0.066667
0.733333 0.000000 0.066667
0.800000 0.000000 0.066667
0.866667 0.000000 0.066667
0.933333 0.000000 0.066667
1.000000 0.000000 0.066667
0.430233 0.000000 1.000000
1.000000 0.662791 0.000000
0.848837 0.000000 1.000000
1.000000 0.000000 0.593023
0.266667 0.066667 0.066667
0.333333 0.066667 0.066667
0.400000 0.066667 0.066667
0.466667 0.066667 0.066667
0.533333 0.066667 0.066667
0.600000 0.066667 0.066667
0.666667 0.066667 0.066667
0.733333 0.066667 0.066667
0.800000 0.066667 0.066667
0.866667 0.066667 0.066667
0.933333 0.066667 0.066667
1.000000 0.066667 0.066667
0.000000 0.133333 0.066667
0.066667 0.133333 0.066667
0.133333 0.133333 0.066667
0.200000 0.133333 0.066667
0.266667 0.133333 0.066667
0.333333 0.133333 0.066667
0.400000 0.133333 0.066667
0.466667 0.133333 0.066667
0.533333 0.133333 0.066667
0.600000 0.133333 0.066667
0.666667 0.133333 0.066667
0.733333 0.133333 0.066667
0.800000 0.133333 0.066667
0.866667 0.133333 0.066667
0.933333 0.133333 0.066667
1.000000 0.133333 0.066667
0.000000 0.200000 0.066667
0.066667 0.200000 0.066667
0.133333 0.200000 0.066667
0.200000 0.200000 0.066667
0.266667 0.200000 0.066667
0.333333 0.200000 0.066667
0.400000 0.200000 0.066667
0.466667 0.200000 0.066667
0.533333 0.200000 0.066667
0.600000 0.200000 0.066667
0.666667 0.200000 0.066667
0.733333 0.200000 0.066667
0.800000 0.200000 0.066667
0.866667 0.200000 0.066667
0.933333 0.200000 0.066667
1.000000 0.200000 0.066667
0.000000 0.266667 0.066667
0.066667 0.266667 0.066667
0.133333 0.266667 0.066667
0.200000 0.266667 0.066667
0.266667 0.266667 0.066667
0.333333 0.266667 0.066667
0.400000 0.266667 0.066667
0.466667 0.266667 0.066667
0.533333 0.266667 0.066667
0.600000 0.266667 0.066667
0.666667 0.266667 0.066667
0.733333 0.266667 0.066667
0.800000 0.266667 0.066667
0.866667 0.266667 0.066667
0.933333 0.266667 0.066667
1.000000 0.266667 0.066667
0.000000 0.333333 0.066667
0.066667 0.333333 0.066667
0.133333 0.333333 0.066667
0.200000 0.333333 0.066667
0.266667 0.333333 0.066667
0.333333 0.333333 0.066667
0.400000 0.333333 0.066667
0.466667 0.333333 0.066667
0.533333 0.333333 0.066667
0.600000 0.333333 0.066667
0.666667 0.333333 0.066667
0.733333 0.333333 0.066667
0.800000 0.333333 0.066667
0.866667 0.333333 0.066667
0.933333 0.333333 0.066667
1.000000 0.333333 0.066667
0.000000 0.400000 0.066667
0.066667 0.400000 0.066667
0.133333 0.400000 0.066667
0.200000 0.400000 0.066667
0.266667 0.400000 0.066667
0.333333 0.400000 0.066667
0.400000 0.400000 0.066667
0.466667 0.400000 0.066667
0.533333 0.400000 0.066667
0.600000 0.400000 0.066667
0.666667 0.400000 0.066667
0.733333 0.400000 0.066667
0.800000 0.400000 0.066667
0.866667 0.400000 0.066667
0.933333 0.400000 0.066667
1.000000 0.400000 0.066667
0.000000 0.466667 0.066667
0.066667 0.466667 0.066667
0.133333 0.466667 0.066667
0.200000 0.466667 0.066667
0.266667 0.466667 0.066667
0.333333 0.466667 0.066667
0.400000 0.466667 0.066667
0.466667 0.466667 0.066667
0.533333 0.466667 0.066667
0.600000 0.466667 0.066667
0.666667 0.466667 0.066667
0.733333 0.466667 0.066667
0.800000 0.466667 0.066667
0.866667 0.466667 0.066667
0.933333 0.466667 0.066667
1.000000 0.466667 0.066667
0.000000 0.533333 0.066667
0.066667 0.533333 0.066667
0.133333 0.533333 0.066667
0.200000 0.533333 0.066667
0.266667 0.533333 0.066667
0.333333 0.533333 0.066667
0.400000 0.533333 0.066667
0.466667 0.533333 0.066667
0.533333 0.533333 0.066667
0.600000 0.533333 0.066667
0.666667 0.533333 0.066667
0.733333 0.533333 0.066667
0.800000 0.533333 0.066667
0.866667 0.533333 0.066667
0.933333 0.533333 0.066667
1.000000 0.533333 0.066667
0.000000 0.600000 0.066667
0.066667 0.600000 0.066667
0.133333 0.600000 0.066667
0.200000 0.600000 0.066667
0.266667 0.600000 0.066667
0.333333 0.600000 0.066667
0.400000 0.600000 0.066667
0.466667 0.600000 0.066667
0.533333 0.600000 0.066667
0.600000 0.600000 0.066667
0.666667 0.600000 0.066667
0.733333 0.600000 0.066667
0.800000 0.600000 0.066667
0.866667 0.600000 0.066667
0.933333 0.600000 0.066667
1.000000 0.600000 0.066667
0.000000 0.666667 0.066667
0.066667 0.666667 0.066667
0.133333 0.666667 0.066667
0.200000 0.666667 0.066667
0.266667 0.666667 0.066667
0.333333 0.666667 0.066667
0.400000 0.666667 0.066667
0.466667 0.666667 0.066667
0.533333 0.666667 0.066667
0.600000 0.666667 0.066667
0.666667 0.666667 0.066667
0.733333 0.666667 0.066667
0.800000 0.666667 0.066667
0.866667 0.666667 0.066667
0.933333 0.666667 0.066667
1.000000 0.666667 0.066667
0.000000 0.733333 0.066667
0.066667 0.733333 0.066667
0.133333 0.733333 0.066667
0.200000 0.733333 0.066667
0.266667 0.733333 0.066667
0.333333 0.733333 0.066667
0.400000 0.733333 0.066667
0.466667 0.733333 0.066667
0.533333 0.733333 0.066667
0.600000 0.733333 0.066667
0.666667 0.733333 0.066667
0.733333 0.733333 0.066667
0.800000 0.733333 0.066667
0.866667 0.733333 0.066667
0.933333 0.733333 0.066667
1.000000 0.733333 0.066667
0.000000 0.800000 0.066667
0.066667 0.800000 0.066667
0.133333 0.800000 0.066667
0.200000 0.800000 0.066667
0.266667 0.800000 0.066667
0.333333 0.800000 0.066667
0.400000 0.800000 0.066667
0.466667 0.800000 0.066667
0.533333 0.800000 0.066667
0.600000 0.800000 0.066667
0.666667 0.800000 0.066667
0.733333 0.800000 0.066667
0.800000 0.800000 0.066667
0.866667 0.800000 0.066667
0.933333 0.800000 0.066667
1.000000 0.800000 0.066667
0.000000 0.866667 0.066667
0.066667 0.866667 0.066667
0.133333 0.866667 0.066667
0.200000 0.866667 0.066667
0.266667 0.866667 0.066667
0.333333 0.866667 0.066667
0.400000 0.866667 0.066667
0.466667 0.866667 0.066667
0.533333 0.866667 0.066667
0.600000 0.866667 0.066667
0.666667 0.866667 0.066667
0.733333 0.866667 0.066667
0.800000 0.866667 0.066667
0.866667 0.866667 0.066667
0.933333 0.866667 0.066667
1.000000 0.866667 0.066667
0.000000 0.933333 0.066667
0.066667 0.933333 0.066667
0.133333 0.933333 0.066667
0.200000 0.933333 0.066667
0.266667 0.933333 0.066667
0.333333 0.933333 0.066667
0.400000 0.933333 0.066667
0.466667 0.933333 0.066667
0.533333 0.933333 0.066667
0.600000 0.933333 0.066667
0.666667 0.933333 0.066667
0.733333 0.933333 0.066667
0.800000 0.933333 0.066667
0.866667 0.933333 0.066667
0.933333 0.933333 0.066667
1.000000 0.933333 0.066667
0.000000 1.000000 0.066667
0.066667 1.000000 0.066667
0.133333 1.000000 0.066667
0.200000 1.000000 0.066667
0.266667 1.000000 0.066667
0.333333 1.000000 0.066667
0.400000 1.000000 0.066667
0.466667 1.000000 0.066667
0.533333 1.000000 0.066667
0.600000 1.000000 0.066667
0.666667 1.000000 0.066667
0.733333 1.000000 0.066667
0.800000 1.000000 0.066667
0.848837 0.000000 1.000000
0.000000 1.000000 0.197674
0.000000 0.825581 1.000000
0.918605 1.000000 0.000000
0.000000 0.965116 1.000000
0.639535 1.000000 0.000000
0.848837 0.000000 1.000000
0.918605 1.000000 0.000000
1.000000 0.000000 0.732558
1.000000 0.000000 0.174419
0.466667 0.000000 0.133333
0.533333 0.000000 0.133333
0.600000 0.000000 0.133333
0.666667 0.000000 0.133333
0.733333 0.000000 0.133333
0.800000 0.000000 0.133333
0.866667 0.000000 0.133333
0.933333 0.000000 0.133333
1.000000 0.000000 0.133333
0.000000 0.825581 1.000000
0.988372 0.000000 1.000000
1.000000 0.000000 0.034884
1.000000 0.104651 0.000000
0.266667 0.066667 0.133333
0.333333 0.066667 0.133333
0.400000 0.066667 0.133333
0.466667 0.066667 0.133333
0.533333 0.066667 0.133333
0.600000 0.066667 0.133333
0.666667 0.066667 0.133333
0.733333 0.066667 0.133333
0.800000 0.066667 0.133333
0.866667 0.066667 0.133333
0.933333 0.066667 0.133333
1.000000 0.066667 0.133333
0.000000 0.133333 0.133333
0.066667 0.133333 0.133333
0.133333 0.133333 0.133333
0.200000 0.133333 0.133333
0.266667 0.133333 0.133333
0.333333 0.133333 0.133333
0.400000 0.133333 0.133333
0.466667 0.133333 0.133333
0.533333 0.133333 0.133333
0.600000 0.133333 0.133333
0.666667 0.133333 0.133333
0.733333 0.133333 0.133333
0.800000 0.133333 0.133333
0.866667 0.133333 0.133333
0.933333 0.133333 0.133333
1.000000 0.133333 0.133333
0.000000 0.200000 0.133333
0.066667 0.200000 0.133333
0.133333 0.200000 0.133333
0.200000 0.200000 0.133333
0.266667 0.200000 0.133333
0.333333 0.200000 0.133333
0.400000 0.200000 0.133333
0.466667 0.200000 0.133333
0.533333 0.200000 0.133333
0.600000 0.200000 0.133333
0.666667 0.200000 0.133333
0.733333 0.200000 0.133333
0.800000 0.200000 0.133333
0.866667 0.200000 0.133333
0.933333 0.200000 0.133333
1.000000 0.200000 0.133333
0.000000 0.266667 0.133333
0.066667 0.266667 0.133333
0.133333 0.266667 0.133333
0.200000 0.266667 0.133333
0.266667 0.266667 0.133333
0.333333 0.266667 0.133333
0.400000 0.266667 0.133333
0.466667 0.266667 0.133333
0.533333 0.266667 0.133333
0.600000 0.266667 0.133333
0.666667 0.266667 0.133333
0.733333 0.266667 0.133333
0.800000 0.266667 0.133333
0.866667 0.266667 0.133333
0.933333 0.266667 0.133333
1.000000 0.266667 0.133333
0.000000 0.333333 0.133333
0.066667 0.333333 0.133333
0.133333 0.333333 0.133333
0.200000 0.333333 0.133333
0.266667 0.333333 0.133333
0.333333 0.333333 0.133333
0.400000 0.333333 0.133333
0.466667 0.333333 0.133333
0.533333 0.333333 0.133333
0.600000 0.333333 0.133333
0.666667 0.333333 0.133333
0.733333 0.333333 0.133333
0.800000 0.333333 0.133333
0.866667 0.333333 0.133333
0.933333 0.333333 0.133333
1.000000 0.333333 0.133333
0.000000 0.400000 0.133333
0.066667 0.400000 0.133333
0.133333 0.400000 0.133333
0.200000 0.400000 0.133333
0.266667 0.400000 0.133333
0.333333 0.400000 0.133333
0.400000 0.400000 0.133333
0.466667 0.400000 0.133333
0.533333 0.400000 0.133333
0.600000 0.400000 0.133333
0.666667 0.400000 0.133333
0.733333 0.400000 0.133333
0.800000 0.400000 0.133333
0.866667 0.400000 0.133333
0.933333 0.400000 0.133333
1.000000 0.400000 0.133333
0.000000 0.466667 0.133333
0.066667 0.466667 0.133333
0.133333 0.466667 0.133333
0.200000 0.466667 0.133333
0.266667 0.466667 0.133333
0.333333 0.466667 0.133333
0.400000 0.466667 0.133333
0.466667 0.466667 0.133333
0.533333 0.466667 0.133333
0.600000 0.466667 0.133333
0.666667 0.466667 0.133333
0.733333 0.466667 0.133333
0.800000 0.466667 0.133333
0.866667 0.466667 0.133333
0.933333 0.466667 0.133333
1.000000 0.466667 0.133333
0.000000 0.533333 0.133333
0.066667 0.533333 0.133333
0.133333 0.533333 0.133333
0.200000 0.533333 0.133333
0.266667 0.533333 0.133333
0.333333 0.533333 0.133333
0.400000 0.533333 0.133333
0.466667 0.533333 0.133333
0.533333 0.533333 0.133333
0.600000 0.533333 0.133333
0.666667 0.533333 0.133333
0.733333 0.533333 0.133333
0.800000 0.533333 0.133333
0.866667 0.533333 0.133333
0.933333 0.533333 0.133333
1.000000 0.533333 0.133333
0.000000 0.600000 0.133333
0.066667 0.600000 0.133333
0.133333 0.600000 0.133333
0.200000 0.600000 0.133333
0.266667 0.600000 0.133333
0.333333 0.600000 0.133333
0.400000 0.600000 0.133333
0.466667 0.600000 0.133333
0.533333 0.600000 0.133333
0.600000 0.600000 0.133333
0.666667 0.600000 0.133333
0.733333 0.600000 0.133333
0.800000 0.600000 0.133333
0.866667 0.600000 0.133333
0.933333 0.600000 0.133333
1.000000 0.600000 0.133333
0.000000 0.666667 0.133333
0.066667 0.666667 0.133333
0.133333 0.666667 0.133333
0.200000 0.666667 0.133333
0.266667 0.666667 0.133333
0.333333 0.666667 0.133333
0.400000 0.666667 0.133333
0.466667 0.666667 0.133333
0.533333 0.666667 0.133333
0.600000 0.666667 0.133333
0.666667 0.666667 0.133333
0.733333 0.666667 0.133333
0.800000 0.666667 0.133333
0.866667 0.666667 0.133333
0.933333 0.666667 0.133333
1.000000 0.666667 0.133333
0.000000 0.733333 0.133333
0.066667 0.733333 0.133333
0.133333 0.733333 0.133333
0.200000 0.733333 0.133333
0.266667 0.733333 0.133333
0.333333 0.733333 0.133333
0.400000 0.733333 0.133333
0.466667 0.733333 0.133333
0.533333 0.733333 0.133333
0.600000 0.733333 0.133333
0.666667 0.733333 0.133333
0.733333 0.733333 0.133333
0.800000 0.733333 0.133333
0.866667 0.733333 0.133333
0.933333 0.733333 0.133333
1.000000 0.733333 0.133333
0.000000 0.800000 0.133333
0.066667 0.800000 0.133333
0.133333 0.800000 0.133333
0.200000 0.800000 0.133333
0.266667 0.800000 0.133333
0.333333 0.800000 0.133333
0.400000 0.800000 0.133333
0.466667 0.800000 0.133333
0.533333 0.800000 0.133333
0.600000 0.800000 0.133333
0.666667 0.800000 0.133333
0.733333 0.800000 0.133333
0.800000 0.800000 0.133333
0.866667 0.800000 0.133333
0.933333 0.800000 0.133333
1.000000 0.800000 0.133333
0.000000 0.866667 0.133333
0.066667 0.866667 0.133333
0.133333 0.866667 0.133333
0.200000 0.866667 0.133333
0.266667 0.866667 0.133333
0.333333 0.866667 0.133333
0.400000 0.866667 0.133333
0.466667 0.866667 0.133333
0.533333 0.866667 0.133333
0.600000 0.866667 0.133333
0.666667 0.866667 0.133333
0.733333 0.866667 0.133333
0.800000 0.866667 0.133333
0.866667 0.866667 0.133333
0.933333 0.866667 0.133333
1.000000 0.866667 0.133333
0.000000 0.933333 0.133333
0.066667 0.933333 0.133333
0.133333 0.933333 0.133333
0.200000 0.933333 0.133333
0.266667 0.933333 0.133333
0.333333 0.933333 0.133333
0.400000 0.933333 0.133333
0.466667 0.933333 0.133333
0.533333 0.933333 0.133333
0.600000 0.933333 0.133333
0.666667 0.933333 0.133333
0.733333 0.933333 0.133333
0.800000 0.933333 0.133333
0.866667 0.933333 0.133333
0.933333 0.933333 0.133333
1.000000 0.933333 0.133333
0.000000 1.000000 0.133333
0.066667 1.000000 0.133333
0.133333 1.000000 0.133333
0.200000 1.000000 0.133333
0.266667 1.000000 0.133333
0.333333 1.000000 0.133333
0.400000 1.000000 0.133333
0.466667 1.000000 0.133333
0.533333 1.000000 0.133333
0.600000 1.000000 0.133333
0.666667 1.000000 0.133333
0.733333 1.000000 0.133333
0.800000 1.000000 0.133333
0.000000 1.000000 0.755814
1.000000 0.523256 0.000000
0.709302 0.000000 1.000000
1.000000 0.662791 0.000000
1.000000 0.000000 0.593023
1.000000 0.523256 0.000000
0.000000 0.406977 1.000000
1.000000 0.000000 0.593023
1.000000 0.383721 0.000000
1.000000 0.523256 0.000000
0.466667 0.000000 0.200000
0.533333 0.000000 0.200000
0.600000 0.000000 0.200000
0.666667 0.000000 0.200000
0.733333 0.000000 0.200000
0.800000 0.000000 0.200000
0.866667 0.000000 0.200000
0.933333 0.000000 0.200000
1.000000 0.000000 0.200000
0.709302 0.000000 1.000000
1.000000 0.104651 0.000000
0.000000 0.127907 1.000000
0.200000 0.066667 0.200000
0.266667 0.066667 0.200000
0.333333 0.066667 0.200000
0.400000 0.066667 0.200000
0.466667 0.066667 0.200000
0.533333 0.066667 0.200000
0.600000 0.066667 0.200000
0.666667 0.066667 0.200000
0.733333 0.066667 0.200000
0.800000 0.066667 0.200000
0.866667 0.066667 0.200000
0.933333 0.066667 0.200000
1.000000 0.066667 0.200000
0.000000 0.133333 0.200000
0.066667 0.133333 0.200000
0.133333 0.133333 0.200000
0.200000 0.133333 0.200000
0.266667 0.133333 0.200000
0.333333 0.133333 0.200000
0.400000 0.133333 0.200000
0.466667 0.133333 0.200000
0.533333 0.133333 0.200000
0.600000 0.133333 0.200000
0.666667 0.133333 0.200000
0.733333 0.133333 0.200000
0.800000 0.133333 0.200000
0.866667 0.133333 0.200000
0.933333 0.133333 0.200000
1.000000 0.133333 0.200000
0.000000 0.200000 0.200000
0.066667 0.200000 0.200000
0.133333 0.200000 0.200000
0.200000 0.200000 0.200000
0.266667 0.200000 0.200000
0.333333 0.200000 0.200000
0.400000 0.200000 0.200000
0.466667 0.200000 0.200000
0.533333 0.200000 0.200000
0.600000 0.200000 0.200000
0.666667 0.200000 0.200000
0.733333 0.200000 0.200000
0.800000 0.200000 0.200000
0.866667 0.200000 0.200000
0.933333 0.200000 0.200000
1.000000 0.200000 0.200000
0.000000 0.266667 0.200000
0.066667 0.266667 0.200000
0.133333 0.266667 0.200000
0.200000 0.266667 0.200000
0.266667 0.266667 0.200000
0.333333 0.266667 0.200000
0.400000 0.266667 0.200000
0.466667 0.266667 0.200000
0.533333 0.266667 0.200000
0.600000 0.266667 0.200000
0.666667 0.266667 0.200000
0.733333 0.266667 0.200000
0.800000 0.266667 0.200000
0.866667 0.266667 0.200000
0.933333 0.266667 0.200000
1.000000 0.266667 0.200000
0.000000 0.333333 0.200000
0.066667 0.333333 0.200000
0.133333 0.333333 0.200000
0.200000 0.333333 0.200000
0.266667 0.333333 0.200000
0.333333 0.333333 0.200000
0.400000 0.333333 0.200000
0.466667 0.333333 0.200000
0.533333 0.333333 0.200000
0.600000 0.333333 0.200000
0.666667 0.333333 0.200000
0.733333 0.333333 0.200000
0.800000 0.333333 0.200000
0.866667 0.333333 0.200000
0.933333 0.333333 0.200000
1.000000 0.333333 0.200000
0.000000 0.400000 0.200000
0.066667 0.400000 0.200000
0.133333 0.400000 0.200000
0.200000 0.400000 0.200000
0.266667 0.400000 0.200000
0.333333 0.400000 0.200000
0.400000 0.400000 0.200000
0.466667 0.400000 0.200000
0.533333 0.400000 0.200000
0.600000 0.400000 0.200000
0.666667 0.400000 0.200000
0.733333 0.400000 0.200000
0.800000 0.400000 0.200000
0.866667 0.400000 0.200000
0.933333 0.400000 0.200000
1.000000 0.400000 0.200000
0.000000 0.466667 0.200000
0.066667 0.466667 0.200000
0.133333 0.466667 0.200000
0.200000 0.466667 0.200000
0.266667 0.466667 0.200000
