mpv/inverse-rainbow-180.cube
TITLE "selective rainbow 180° (100 cycles)"
LUT_3D_SIZE 16
DOMAIN_MIN 0 0 0
DOMAIN_MAX 1 1 1
0.000000 1.000000 1.000000
1.000000 0.000000 0.627907
0.116279 0.000000 1.000000
1.000000 0.000000 0.767442
0.000000 1.000000 0.302326
0.116279 0.000000 1.000000
1.000000 0.000000 0.906977
1.000000 0.000000 0.767442
0.533333 0.000000 0.000000
0.600000 0.000000 0.000000
0.666667 0.000000 0.000000
0.733333 0.000000 0.000000
0.800000 0.000000 0.000000
0.866667 0.000000 0.000000
0.933333 0.000000 0.000000
1.000000 0.000000 0.000000
0.000000 0.023256 1.000000
1.000000 0.627907 0.000000
0.000000 1.000000 0.023256
1.000000 0.000000 0.209302
0.266667 0.066667 0.000000
0.333333 0.066667 0.000000
0.400000 0.066667 0.000000
0.466667 0.066667 0.000000
0.533333 0.066667 0.000000
0.600000 0.066667 0.000000
0.666667 0.066667 0.000000
0.733333 0.066667 0.000000
0.800000 0.066667 0.000000
0.866667 0.066667 0.000000
0.933333 0.066667 0.000000
1.000000 0.066667 0.000000
0.000000 0.720930 1.000000
0.066667 0.133333 0.000000
0.133333 0.133333 0.000000
0.200000 0.133333 0.000000
0.266667 0.133333 0.000000
0.333333 0.133333 0.000000
0.400000 0.133333 0.000000
0.466667 0.133333 0.000000
0.533333 0.133333 0.000000
0.600000 0.133333 0.000000
0.666667 0.133333 0.000000
0.733333 0.133333 0.000000
0.800000 0.133333 0.000000
0.866667 0.133333 0.000000
0.933333 0.133333 0.000000
1.000000 0.133333 0.000000
0.000000 0.200000 0.000000
0.066667 0.200000 0.000000
0.133333 0.200000 0.000000
0.200000 0.200000 0.000000
0.266667 0.200000 0.000000
0.333333 0.200000 0.000000
0.400000 0.200000 0.000000
0.466667 0.200000 0.000000
0.533333 0.200000 0.000000
0.600000 0.200000 0.000000
0.666667 0.200000 0.000000
0.733333 0.200000 0.000000
0.800000 0.200000 0.000000
0.866667 0.200000 0.000000
0.933333 0.200000 0.000000
1.000000 0.200000 0.000000
0.000000 0.266667 0.000000
0.066667 0.266667 0.000000
0.133333 0.266667 0.000000
0.200000 0.266667 0.000000
0.266667 0.266667 0.000000
0.333333 0.266667 0.000000
0.400000 0.266667 0.000000
0.466667 0.266667 0.000000
0.533333 0.266667 0.000000
0.600000 0.266667 0.000000
0.666667 0.266667 0.000000
0.733333 0.266667 0.000000
0.800000 0.266667 0.000000
0.866667 0.266667 0.000000
0.933333 0.266667 0.000000
1.000000 0.266667 0.000000
0.000000 0.333333 0.000000
0.066667 0.333333 0.000000
0.133333 0.333333 0.000000
0.200000 0.333333 0.000000
0.266667 0.333333 0.000000
0.333333 0.333333 0.000000
0.400000 0.333333 0.000000
0.466667 0.333333 0.000000
0.533333 0.333333 0.000000
0.600000 0.333333 0.000000
0.666667 0.333333 0.000000
0.733333 0.333333 0.000000
0.800000 0.333333 0.000000
0.866667 0.333333 0.000000
0.933333 0.333333 0.000000
1.000000 0.333333 0.000000
0.000000 0.400000 0.000000
0.066667 0.400000 0.000000
0.133333 0.400000 0.000000
0.200000 0.400000 0.000000
0.266667 0.400000 0.000000
0.333333 0.400000 0.000000
0.400000 0.400000 0.000000
0.466667 0.400000 0.000000
0.533333 0.400000 0.000000
0.600000 0.400000 0.000000
0.666667 0.400000 0.000000
0.733333 0.400000 0.000000
0.800000 0.400000 0.000000
0.866667 0.400000 0.000000
0.933333 0.400000 0.000000
1.000000 0.400000 0.000000
0.000000 0.466667 0.000000
0.066667 0.466667 0.000000
0.133333 0.466667 0.000000
0.200000 0.466667 0.000000
0.266667 0.466667 0.000000
0.333333 0.466667 0.000000
0.400000 0.466667 0.000000
0.466667 0.466667 0.000000
0.533333 0.466667 0.000000
0.600000 0.466667 0.000000
0.666667 0.466667 0.000000
0.733333 0.466667 0.000000
0.800000 0.466667 0.000000
0.866667 0.466667 0.000000
0.933333 0.466667 0.000000
1.000000 0.466667 0.000000
0.000000 0.533333 0.000000
0.066667 0.533333 0.000000
0.133333 0.533333 0.000000
0.200000 0.533333 0.000000
0.266667 0.533333 0.000000
0.333333 0.533333 0.000000
0.400000 0.533333 0.000000
0.466667 0.533333 0.000000
0.533333 0.533333 0.000000
0.600000 0.533333 0.000000
0.666667 0.533333 0.000000
0.733333 0.533333 0.000000
0.800000 0.533333 0.000000
0.866667 0.533333 0.000000
0.933333 0.533333 0.000000
1.000000 0.533333 0.000000
0.000000 0.600000 0.000000
0.066667 0.600000 0.000000
0.133333 0.600000 0.000000
0.200000 0.600000 0.000000
0.266667 0.600000 0.000000
0.333333 0.600000 0.000000
0.400000 0.600000 0.000000
0.466667 0.600000 0.000000
0.533333 0.600000 0.000000
0.600000 0.600000 0.000000
0.666667 0.600000 0.000000
0.733333 0.600000 0.000000
0.800000 0.600000 0.000000
0.866667 0.600000 0.000000
0.933333 0.600000 0.000000
1.000000 0.600000 0.000000
0.000000 0.666667 0.000000
0.066667 0.666667 0.000000
0.133333 0.666667 0.000000
0.200000 0.666667 0.000000
0.266667 0.666667 0.000000
0.333333 0.666667 0.000000
0.400000 0.666667 0.000000
0.466667 0.666667 0.000000
0.533333 0.666667 0.000000
0.600000 0.666667 0.000000
0.666667 0.666667 0.000000
0.733333 0.666667 0.000000
0.800000 0.666667 0.000000
0.866667 0.666667 0.000000
0.933333 0.666667 0.000000
1.000000 0.666667 0.000000
0.000000 0.733333 0.000000
0.066667 0.733333 0.000000
0.133333 0.733333 0.000000
0.200000 0.733333 0.000000
0.266667 0.733333 0.000000
0.333333 0.733333 0.000000
0.400000 0.733333 0.000000
0.466667 0.733333 0.000000
0.533333 0.733333 0.000000
0.600000 0.733333 0.000000
0.666667 0.733333 0.000000
0.733333 0.733333 0.000000
0.800000 0.733333 0.000000
0.866667 0.733333 0.000000
0.933333 0.733333 0.000000
1.000000 0.733333 0.000000
0.000000 0.800000 0.000000
0.066667 0.800000 0.000000
0.133333 0.800000 0.000000
0.200000 0.800000 0.000000
0.266667 0.800000 0.000000
0.333333 0.800000 0.000000
0.400000 0.800000 0.000000
0.466667 0.800000 0.000000
0.533333 0.800000 0.000000
0.600000 0.800000 0.000000
0.666667 0.800000 0.000000
0.733333 0.800000 0.000000
0.800000 0.800000 0.000000
0.866667 0.800000 0.000000
0.933333 0.800000 0.000000
1.000000 0.800000 0.000000
0.000000 0.866667 0.000000
0.066667 0.866667 0.000000
0.133333 0.866667 0.000000
0.200000 0.866667 0.000000
0.266667 0.866667 0.000000
0.333333 0.866667 0.000000
0.400000 0.866667 0.000000
0.466667 0.866667 0.000000
0.533333 0.866667 0.000000
0.600000 0.866667 0.000000
0.666667 0.866667 0.000000
0.733333 0.866667 0.000000
0.800000 0.866667 0.000000
0.866667 0.866667 0.000000
0.933333 0.866667 0.000000
1.000000 0.866667 0.000000
0.000000 0.933333 0.000000
0.066667 0.933333 0.000000
0.133333 0.933333 0.000000
0.200000 0.933333 0.000000
0.266667 0.933333 0.000000
0.333333 0.933333 0.000000
0.400000 0.933333 0.000000
0.466667 0.933333 0.000000
0.533333 0.933333 0.000000
0.600000 0.933333 0.000000
0.666667 0.933333 0.000000
0.733333 0.933333 0.000000
0.800000 0.933333 0.000000
0.866667 0.933333 0.000000
0.933333 0.933333 0.000000
1.000000 0.933333 0.000000
0.000000 1.000000 0.000000
0.066667 1.000000 0.000000
0.133333 1.000000 0.000000
0.200000 1.000000 0.000000
0.266667 1.000000 0.000000
0.333333 1.000000 0.000000
0.400000 1.000000 0.000000
0.466667 1.000000 0.000000
0.533333 1.000000 0.000000
0.600000 1.000000 0.000000
0.666667 1.000000 0.000000
0.733333 1.000000 0.000000
0.800000 1.000000 0.000000
0.866667 1.000000 0.000000
0.000000 1.000000 0.581395
1.000000 0.348837 0.000000
1.000000 0.000000 0.209302
0.953488 0.000000 1.000000
1.000000 0.488372 0.000000
0.395349 0.000000 1.000000
0.953488 1.000000 0.000000
0.000000 1.000000 0.441860
1.000000 0.209302 0.000000
0.466667 0.000000 0.066667
0.533333 0.000000 0.066667
0.600000 0.000000 0.066667
0.666667 0.000000 0.066667
0.733333 0.000000 0.066667
0.800000 0.000000 0.066667
0.866667 0.000000 0.066667
0.933333 0.000000 0.066667
1.000000 0.000000 0.066667
1.000000 0.000000 0.069767
0.000000 1.000000 0.162791
1.000000 0.348837 0.000000
1.000000 0.906977 0.000000
0.266667 0.066667 0.066667
0.333333 0.066667 0.066667
0.400000 0.066667 0.066667
0.466667 0.066667 0.066667
0.533333 0.066667 0.066667
0.600000 0.066667 0.066667
0.666667 0.066667 0.066667
0.733333 0.066667 0.066667
0.800000 0.066667 0.066667
0.866667 0.066667 0.066667
0.933333 0.066667 0.066667
1.000000 0.066667 0.066667
0.000000 0.133333 0.066667
0.066667 0.133333 0.066667
0.133333 0.133333 0.066667
0.200000 0.133333 0.066667
0.266667 0.133333 0.066667
0.333333 0.133333 0.066667
0.400000 0.133333 0.066667
0.466667 0.133333 0.066667
0.533333 0.133333 0.066667
0.600000 0.133333 0.066667
0.666667 0.133333 0.066667
0.733333 0.133333 0.066667
0.800000 0.133333 0.066667
0.866667 0.133333 0.066667
0.933333 0.133333 0.066667
1.000000 0.133333 0.066667
0.000000 0.200000 0.066667
0.066667 0.200000 0.066667
0.133333 0.200000 0.066667
0.200000 0.200000 0.066667
0.266667 0.200000 0.066667
0.333333 0.200000 0.066667
0.400000 0.200000 0.066667
0.466667 0.200000 0.066667
0.533333 0.200000 0.066667
0.600000 0.200000 0.066667
0.666667 0.200000 0.066667
0.733333 0.200000 0.066667
0.800000 0.200000 0.066667
0.866667 0.200000 0.066667
0.933333 0.200000 0.066667
1.000000 0.200000 0.066667
0.000000 0.266667 0.066667
0.066667 0.266667 0.066667
0.133333 0.266667 0.066667
0.200000 0.266667 0.066667
0.266667 0.266667 0.066667
0.333333 0.266667 0.066667
0.400000 0.266667 0.066667
0.466667 0.266667 0.066667
0.533333 0.266667 0.066667
0.600000 0.266667 0.066667
0.666667 0.266667 0.066667
0.733333 0.266667 0.066667
0.800000 0.266667 0.066667
0.866667 0.266667 0.066667
0.933333 0.266667 0.066667
1.000000 0.266667 0.066667
0.000000 0.333333 0.066667
0.066667 0.333333 0.066667
0.133333 0.333333 0.066667
0.200000 0.333333 0.066667
0.266667 0.333333 0.066667
0.333333 0.333333 0.066667
0.400000 0.333333 0.066667
0.466667 0.333333 0.066667
0.533333 0.333333 0.066667
0.600000 0.333333 0.066667
0.666667 0.333333 0.066667
0.733333 0.333333 0.066667
0.800000 0.333333 0.066667
0.866667 0.333333 0.066667
0.933333 0.333333 0.066667
1.000000 0.333333 0.066667
0.000000 0.400000 0.066667
0.066667 0.400000 0.066667
0.133333 0.400000 0.066667
0.200000 0.400000 0.066667
0.266667 0.400000 0.066667
0.333333 0.400000 0.066667
0.400000 0.400000 0.066667
0.466667 0.400000 0.066667
0.533333 0.400000 0.066667
0.600000 0.400000 0.066667
0.666667 0.400000 0.066667
0.733333 0.400000 0.066667
0.800000 0.400000 0.066667
0.866667 0.400000 0.066667
0.933333 0.400000 0.066667
1.000000 0.400000 0.066667
0.000000 0.466667 0.066667
0.066667 0.466667 0.066667
0.133333 0.466667 0.066667
0.200000 0.466667 0.066667
0.266667 0.466667 0.066667
0.333333 0.466667 0.066667
0.400000 0.466667 0.066667
0.466667 0.466667 0.066667
0.533333 0.466667 0.066667
0.600000 0.466667 0.066667
0.666667 0.466667 0.066667
0.733333 0.466667 0.066667
0.800000 0.466667 0.066667
0.866667 0.466667 0.066667
0.933333 0.466667 0.066667
1.000000 0.466667 0.066667
0.000000 0.533333 0.066667
0.066667 0.533333 0.066667
0.133333 0.533333 0.066667
0.200000 0.533333 0.066667
0.266667 0.533333 0.066667
0.333333 0.533333 0.066667
0.400000 0.533333 0.066667
0.466667 0.533333 0.066667
0.533333 0.533333 0.066667
0.600000 0.533333 0.066667
0.666667 0.533333 0.066667
0.733333 0.533333 0.066667
0.800000 0.533333 0.066667
0.866667 0.533333 0.066667
0.933333 0.533333 0.066667
1.000000 0.533333 0.066667
0.000000 0.600000 0.066667
0.066667 0.600000 0.066667
0.133333 0.600000 0.066667
0.200000 0.600000 0.066667
0.266667 0.600000 0.066667
0.333333 0.600000 0.066667
0.400000 0.600000 0.066667
0.466667 0.600000 0.066667
0.533333 0.600000 0.066667
0.600000 0.600000 0.066667
0.666667 0.600000 0.066667
0.733333 0.600000 0.066667
0.800000 0.600000 0.066667
0.866667 0.600000 0.066667
0.933333 0.600000 0.066667
1.000000 0.600000 0.066667
0.000000 0.666667 0.066667
0.066667 0.666667 0.066667
0.133333 0.666667 0.066667
0.200000 0.666667 0.066667
0.266667 0.666667 0.066667
0.333333 0.666667 0.066667
0.400000 0.666667 0.066667
0.466667 0.666667 0.066667
0.533333 0.666667 0.066667
0.600000 0.666667 0.066667
0.666667 0.666667 0.066667
0.733333 0.666667 0.066667
0.800000 0.666667 0.066667
0.866667 0.666667 0.066667
0.933333 0.666667 0.066667
1.000000 0.666667 0.066667
0.000000 0.733333 0.066667
0.066667 0.733333 0.066667
0.133333 0.733333 0.066667
0.200000 0.733333 0.066667
0.266667 0.733333 0.066667
0.333333 0.733333 0.066667
0.400000 0.733333 0.066667
0.466667 0.733333 0.066667
0.533333 0.733333 0.066667
0.600000 0.733333 0.066667
0.666667 0.733333 0.066667
0.733333 0.733333 0.066667
0.800000 0.733333 0.066667
0.866667 0.733333 0.066667
0.933333 0.733333 0.066667
1.000000 0.733333 0.066667
0.000000 0.800000 0.066667
0.066667 0.800000 0.066667
0.133333 0.800000 0.066667
0.200000 0.800000 0.066667
0.266667 0.800000 0.066667
0.333333 0.800000 0.066667
0.400000 0.800000 0.066667
0.466667 0.800000 0.066667
0.533333 0.800000 0.066667
0.600000 0.800000 0.066667
0.666667 0.800000 0.066667
0.733333 0.800000 0.066667
0.800000 0.800000 0.066667
0.866667 0.800000 0.066667
0.933333 0.800000 0.066667
1.000000 0.800000 0.066667
0.000000 0.866667 0.066667
0.066667 0.866667 0.066667
0.133333 0.866667 0.066667
0.200000 0.866667 0.066667
0.266667 0.866667 0.066667
0.333333 0.866667 0.066667
0.400000 0.866667 0.066667
0.466667 0.866667 0.066667
0.533333 0.866667 0.066667
0.600000 0.866667 0.066667
0.666667 0.866667 0.066667
0.733333 0.866667 0.066667
0.800000 0.866667 0.066667
0.866667 0.866667 0.066667
0.933333 0.866667 0.066667
1.000000 0.866667 0.066667
0.000000 0.933333 0.066667
0.066667 0.933333 0.066667
0.133333 0.933333 0.066667
0.200000 0.933333 0.066667
0.266667 0.933333 0.066667
0.333333 0.933333 0.066667
0.400000 0.933333 0.066667
0.466667 0.933333 0.066667
0.533333 0.933333 0.066667
0.600000 0.933333 0.066667
0.666667 0.933333 0.066667
0.733333 0.933333 0.066667
0.800000 0.933333 0.066667
0.866667 0.933333 0.066667
0.933333 0.933333 0.066667
1.000000 0.933333 0.066667
0.000000 1.000000 0.066667
0.066667 1.000000 0.066667
0.133333 1.000000 0.066667
0.200000 1.000000 0.066667
0.266667 1.000000 0.066667
0.333333 1.000000 0.066667
0.400000 1.000000 0.066667
0.466667 1.000000 0.066667
0.533333 1.000000 0.066667
0.600000 1.000000 0.066667
0.666667 1.000000 0.066667
0.733333 1.000000 0.066667
0.800000 1.000000 0.066667
1.000000 0.348837 0.000000
0.000000 0.302326 1.000000
0.674419 0.000000 1.000000
0.000000 1.000000 0.581395
0.534884 0.000000 1.000000
0.000000 1.000000 0.860465
1.000000 0.348837 0.000000
0.000000 1.000000 0.581395
1.000000 0.767442 0.000000
0.674419 1.000000 0.000000
0.466667 0.000000 0.133333
0.533333 0.000000 0.133333
0.600000 0.000000 0.133333
0.666667 0.000000 0.133333
0.733333 0.000000 0.133333
0.800000 0.000000 0.133333
0.866667 0.000000 0.133333
0.933333 0.000000 0.133333
1.000000 0.000000 0.133333
0.674419 0.000000 1.000000
1.000000 0.488372 0.000000
0.534884 1.000000 0.000000
0.395349 1.000000 0.000000
0.266667 0.066667 0.133333
0.333333 0.066667 0.133333
0.400000 0.066667 0.133333
0.466667 0.066667 0.133333
0.533333 0.066667 0.133333
0.600000 0.066667 0.133333
0.666667 0.066667 0.133333
0.733333 0.066667 0.133333
0.800000 0.066667 0.133333
0.866667 0.066667 0.133333
0.933333 0.066667 0.133333
1.000000 0.066667 0.133333
0.000000 0.133333 0.133333
0.066667 0.133333 0.133333
0.133333 0.133333 0.133333
0.200000 0.133333 0.133333
0.266667 0.133333 0.133333
0.333333 0.133333 0.133333
0.400000 0.133333 0.133333
0.466667 0.133333 0.133333
0.533333 0.133333 0.133333
0.600000 0.133333 0.133333
0.666667 0.133333 0.133333
0.733333 0.133333 0.133333
0.800000 0.133333 0.133333
0.866667 0.133333 0.133333
0.933333 0.133333 0.133333
1.000000 0.133333 0.133333
0.000000 0.200000 0.133333
0.066667 0.200000 0.133333
0.133333 0.200000 0.133333
0.200000 0.200000 0.133333
0.266667 0.200000 0.133333
0.333333 0.200000 0.133333
0.400000 0.200000 0.133333
0.466667 0.200000 0.133333
0.533333 0.200000 0.133333
0.600000 0.200000 0.133333
0.666667 0.200000 0.133333
0.733333 0.200000 0.133333
0.800000 0.200000 0.133333
0.866667 0.200000 0.133333
0.933333 0.200000 0.133333
1.000000 0.200000 0.133333
0.000000 0.266667 0.133333
0.066667 0.266667 0.133333
0.133333 0.266667 0.133333
0.200000 0.266667 0.133333
0.266667 0.266667 0.133333
0.333333 0.266667 0.133333
0.400000 0.266667 0.133333
0.466667 0.266667 0.133333
0.533333 0.266667 0.133333
0.600000 0.266667 0.133333
0.666667 0.266667 0.133333
0.733333 0.266667 0.133333
0.800000 0.266667 0.133333
0.866667 0.266667 0.133333
0.933333 0.266667 0.133333
1.000000 0.266667 0.133333
0.000000 0.333333 0.133333
0.066667 0.333333 0.133333
0.133333 0.333333 0.133333
0.200000 0.333333 0.133333
0.266667 0.333333 0.133333
0.333333 0.333333 0.133333
0.400000 0.333333 0.133333
0.466667 0.333333 0.133333
0.533333 0.333333 0.133333
0.600000 0.333333 0.133333
0.666667 0.333333 0.133333
0.733333 0.333333 0.133333
0.800000 0.333333 0.133333
0.866667 0.333333 0.133333
0.933333 0.333333 0.133333
1.000000 0.333333 0.133333
0.000000 0.400000 0.133333
0.066667 0.400000 0.133333
0.133333 0.400000 0.133333
0.200000 0.400000 0.133333
0.266667 0.400000 0.133333
0.333333 0.400000 0.133333
0.400000 0.400000 0.133333
0.466667 0.400000 0.133333
0.533333 0.400000 0.133333
0.600000 0.400000 0.133333
0.666667 0.400000 0.133333
0.733333 0.400000 0.133333
0.800000 0.400000 0.133333
0.866667 0.400000 0.133333
0.933333 0.400000 0.133333
1.000000 0.400000 0.133333
0.000000 0.466667 0.133333
0.066667 0.466667 0.133333
0.133333 0.466667 0.133333
0.200000 0.466667 0.133333
0.266667 0.466667 0.133333
0.333333 0.466667 0.133333
0.400000 0.466667 0.133333
0.466667 0.466667 0.133333
0.533333 0.466667 0.133333
0.600000 0.466667 0.133333
0.666667 0.466667 0.133333
0.733333 0.466667 0.133333
0.800000 0.466667 0.133333
0.866667 0.466667 0.133333
0.933333 0.466667 0.133333
1.000000 0.466667 0.133333
0.000000 0.533333 0.133333
0.066667 0.533333 0.133333
0.133333 0.533333 0.133333
0.200000 0.533333 0.133333
0.266667 0.533333 0.133333
0.333333 0.533333 0.133333
0.400000 0.533333 0.133333
0.466667 0.533333 0.133333
0.533333 0.533333 0.133333
0.600000 0.533333 0.133333
0.666667 0.533333 0.133333
0.733333 0.533333 0.133333
0.800000 0.533333 0.133333
0.866667 0.533333 0.133333
0.933333 0.533333 0.133333
1.000000 0.533333 0.133333
0.000000 0.600000 0.133333
0.066667 0.600000 0.133333
0.133333 0.600000 0.133333
0.200000 0.600000 0.133333
0.266667 0.600000 0.133333
0.333333 0.600000 0.133333
0.400000 0.600000 0.133333
0.466667 0.600000 0.133333
0.533333 0.600000 0.133333
0.600000 0.600000 0.133333
0.666667 0.600000 0.133333
0.733333 0.600000 0.133333
0.800000 0.600000 0.133333
0.866667 0.600000 0.133333
0.933333 0.600000 0.133333
1.000000 0.600000 0.133333
0.000000 0.666667 0.133333
0.066667 0.666667 0.133333
0.133333 0.666667 0.133333
0.200000 0.666667 0.133333
0.266667 0.666667 0.133333
0.333333 0.666667 0.133333
0.400000 0.666667 0.133333
0.466667 0.666667 0.133333
0.533333 0.666667 0.133333
0.600000 0.666667 0.133333
0.666667 0.666667 0.133333
0.733333 0.666667 0.133333
0.800000 0.666667 0.133333
0.866667 0.666667 0.133333
0.933333 0.666667 0.133333
1.000000 0.666667 0.133333
0.000000 0.733333 0.133333
0.066667 0.733333 0.133333
0.133333 0.733333 0.133333
0.200000 0.733333 0.133333
0.266667 0.733333 0.133333
0.333333 0.733333 0.133333
0.400000 0.733333 0.133333
0.466667 0.733333 0.133333
0.533333 0.733333 0.133333
0.600000 0.733333 0.133333
0.666667 0.733333 0.133333
0.733333 0.733333 0.133333
0.800000 0.733333 0.133333
0.866667 0.733333 0.133333
0.933333 0.733333 0.133333
1.000000 0.733333 0.133333
0.000000 0.800000 0.133333
0.066667 0.800000 0.133333
0.133333 0.800000 0.133333
0.200000 0.800000 0.133333
0.266667 0.800000 0.133333
0.333333 0.800000 0.133333
0.400000 0.800000 0.133333
0.466667 0.800000 0.133333
0.533333 0.800000 0.133333
0.600000 0.800000 0.133333
0.666667 0.800000 0.133333
0.733333 0.800000 0.133333
0.800000 0.800000 0.133333
0.866667 0.800000 0.133333
0.933333 0.800000 0.133333
1.000000 0.800000 0.133333
0.000000 0.866667 0.133333
0.066667 0.866667 0.133333
0.133333 0.866667 0.133333
0.200000 0.866667 0.133333
0.266667 0.866667 0.133333
0.333333 0.866667 0.133333
0.400000 0.866667 0.133333
0.466667 0.866667 0.133333
0.533333 0.866667 0.133333
0.600000 0.866667 0.133333
0.666667 0.866667 0.133333
0.733333 0.866667 0.133333
0.800000 0.866667 0.133333
0.866667 0.866667 0.133333
0.933333 0.866667 0.133333
1.000000 0.866667 0.133333
0.000000 0.933333 0.133333
0.066667 0.933333 0.133333
0.133333 0.933333 0.133333
0.200000 0.933333 0.133333
0.266667 0.933333 0.133333
0.333333 0.933333 0.133333
0.400000 0.933333 0.133333
0.466667 0.933333 0.133333
0.533333 0.933333 0.133333
0.600000 0.933333 0.133333
0.666667 0.933333 0.133333
0.733333 0.933333 0.133333
0.800000 0.933333 0.133333
0.866667 0.933333 0.133333
0.933333 0.933333 0.133333
1.000000 0.933333 0.133333
0.000000 1.000000 0.133333
0.066667 1.000000 0.133333
0.133333 1.000000 0.133333
0.200000 1.000000 0.133333
0.266667 1.000000 0.133333
0.333333 1.000000 0.133333
0.400000 1.000000 0.133333
0.466667 1.000000 0.133333
0.533333 1.000000 0.133333
0.600000 1.000000 0.133333
0.666667 1.000000 0.133333
0.733333 1.000000 0.133333
0.800000 1.000000 0.133333
0.255814 0.000000 1.000000
0.000000 1.000000 0.023256
1.000000 0.209302 0.000000
0.000000 1.000000 0.162791
1.000000 0.906977 0.000000
0.000000 1.000000 0.023256
1.000000 0.000000 0.906977
1.000000 0.906977 0.000000
0.116279 1.000000 0.000000
0.000000 1.000000 0.023256
0.466667 0.000000 0.200000
0.533333 0.000000 0.200000
0.600000 0.000000 0.200000
0.666667 0.000000 0.200000
0.733333 0.000000 0.200000
0.800000 0.000000 0.200000
0.866667 0.000000 0.200000
0.933333 0.000000 0.200000
1.000000 0.000000 0.200000
1.000000 0.209302 0.000000
0.395349 1.000000 0.000000
1.000000 0.000000 0.627907
0.200000 0.066667 0.200000
0.266667 0.066667 0.200000
0.333333 0.066667 0.200000
0.400000 0.066667 0.200000
0.466667 0.066667 0.200000
0.533333 0.066667 0.200000
0.600000 0.066667 0.200000
0.666667 0.066667 0.200000
0.733333 0.066667 0.200000
0.800000 0.066667 0.200000
0.866667 0.066667 0.200000
0.933333 0.066667 0.200000
1.000000 0.066667 0.200000
0.000000 0.133333 0.200000
0.066667 0.133333 0.200000
0.133333 0.133333 0.200000
0.200000 0.133333 0.200000
0.266667 0.133333 0.200000
0.333333 0.133333 0.200000
0.400000 0.133333 0.200000
0.466667 0.133333 0.200000
0.533333 0.133333 0.200000
0.600000 0.133333 0.200000
0.666667 0.133333 0.200000
0.733333 0.133333 0.200000
0.800000 0.133333 0.200000
0.866667 0.133333 0.200000
0.933333 0.133333 0.200000
1.000000 0.133333 0.200000
0.000000 0.200000 0.200000
0.066667 0.200000 0.200000
0.133333 0.200000 0.200000
0.200000 0.200000 0.200000
0.266667 0.200000 0.200000
0.333333 0.200000 0.200000
0.400000 0.200000 0.200000
0.466667 0.200000 0.200000
0.533333 0.200000 0.200000
0.600000 0.200000 0.200000
0.666667 0.200000 0.200000
0.733333 0.200000 0.200000
0.800000 0.200000 0.200000
0.866667 0.200000 0.200000
0.933333 0.200000 0.200000
1.000000 0.200000 0.200000
0.000000 0.266667 0.200000
0.066667 0.266667 0.200000
0.133333 0.266667 0.200000
0.200000 0.266667 0.200000
0.266667 0.266667 0.200000
0.333333 0.266667 0.200000
0.400000 0.266667 0.200000
0.466667 0.266667 0.200000
0.533333 0.266667 0.200000
0.600000 0.266667 0.200000
0.666667 0.266667 0.200000
0.733333 0.266667 0.200000
0.800000 0.266667 0.200000
0.866667 0.266667 0.200000
0.933333 0.266667 0.200000
1.000000 0.266667 0.200000
0.000000 0.333333 0.200000
0.066667 0.333333 0.200000
0.133333 0.333333 0.200000
0.200000 0.333333 0.200000
0.266667 0.333333 0.200000
0.333333 0.333333 0.200000
0.400000 0.333333 0.200000
0.466667 0.333333 0.200000
0.533333 0.333333 0.200000
0.600000 0.333333 0.200000
0.666667 0.333333 0.200000
0.733333 0.333333 0.200000
0.800000 0.333333 0.200000
0.866667 0.333333 0.200000
0.933333 0.333333 0.200000
1.000000 0.333333 0.200000
0.000000 0.400000 0.200000
0.066667 0.400000 0.200000
0.133333 0.400000 0.200000
0.200000 0.400000 0.200000
0.266667 0.400000 0.200000
0.333333 0.400000 0.200000
0.400000 0.400000 0.200000
0.466667 0.400000 0.200000
0.533333 0.400000 0.200000
0.600000 0.400000 0.200000
0.666667 0.400000 0.200000
0.733333 0.400000 0.200000
0.800000 0.400000 0.200000
0.866667 0.400000 0.200000
0.933333 0.400000 0.200000
1.000000 0.400000 0.200000
0.000000 0.466667 0.200000
0.066667 0.466667 0.200000
0.133333 0.466667 0.200000
0.200000 0.466667 0.200000
0.266667 0.466667 0.200000
