mpv/inverse-rainbow-270.cube
TITLE "selective rainbow 270° (100 cycles)"
LUT_3D_SIZE 6
DOMAIN_MIN 0 0 0
DOMAIN_MAX 1 1 1
0.500000 0.000000 1.000000
1.000000 0.732558 0.000000
1.000000 0.593023 0.000000
0.600000 0.000000 0.000000
0.800000 0.000000 0.000000
1.000000 0.000000 0.000000
0.000000 0.200000 0.000000
0.200000 0.200000 0.000000
0.400000 0.200000 0.000000
0.600000 0.200000 0.000000
0.800000 0.200000 0.000000
1.000000 0.200000 0.000000
0.000000 0.400000 0.000000
0.200000 0.400000 0.000000
0.400000 0.400000 0.000000
0.600000 0.400000 0.000000
0.800000 0.400000 0.000000
1.000000 0.400000 0.000000
0.000000 0.600000 0.000000
0.200000 0.600000 0.000000
0.400000 0.600000 0.000000
0.600000 0.600000 0.000000
0.800000 0.600000 0.000000
1.000000 0.600000 0.000000
0.000000 0.800000 0.000000
0.200000 0.800000 0.000000
0.400000 0.800000 0.000000
0.600000 0.800000 0.000000
0.800000 0.800000 0.000000
1.000000 0.800000 0.000000
0.000000 1.000000 0.000000
0.200000 1.000000 0.000000
0.400000 1.000000 0.000000
0.600000 1.000000 0.000000
0.800000 1.000000 0.000000
0.151163 1.000000 0.000000
0.000000 0.337209 1.000000
1.000000 0.593023 0.000000
0.000000 0.476744 1.000000
0.600000 0.000000 0.200000
0.800000 0.000000 0.200000
1.000000 0.000000 0.200000
0.000000 0.200000 0.200000
0.200000 0.200000 0.200000
0.400000 0.200000 0.200000
0.600000 0.200000 0.200000
0.800000 0.200000 0.200000
1.000000 0.200000 0.200000
0.000000 0.400000 0.200000
0.200000 0.400000 0.200000
0.400000 0.400000 0.200000
0.600000 0.400000 0.200000
0.800000 0.400000 0.200000
1.000000 0.400000 0.200000
0.000000 0.600000 0.200000
0.200000 0.600000 0.200000
0.400000 0.600000 0.200000
0.600000 0.600000 0.200000
0.800000 0.600000 0.200000
1.000000 0.600000 0.200000
0.000000 0.800000 0.200000
0.200000 0.800000 0.200000
0.400000 0.800000 0.200000
0.600000 0.800000 0.200000
0.800000 0.800000 0.200000
1.000000 0.800000 0.200000
0.000000 1.000000 0.200000
0.200000 1.000000 0.200000
0.400000 1.000000 0.200000
0.600000 1.000000 0.200000
0.800000 1.000000 0.200000
0.000000 0.755814 1.000000
1.000000 0.000000 0.802326
1.000000 0.000000 0.802326
0.400000 0.000000 0.400000
0.600000 0.000000 0.400000
0.800000 0.000000 0.400000
1.000000 0.000000 0.400000
0.000000 0.200000 0.400000
0.200000 0.200000 0.400000
0.400000 0.200000 0.400000
0.600000 0.200000 0.400000
0.800000 0.200000 0.400000
1.000000 0.200000 0.400000
0.000000 0.400000 0.400000
0.200000 0.400000 0.400000
0.400000 0.400000 0.400000
0.600000 0.400000 0.400000
0.800000 0.400000 0.400000
1.000000 0.400000 0.400000
0.000000 0.600000 0.400000
0.200000 0.600000 0.400000
0.400000 0.600000 0.400000
0.600000 0.600000 0.400000
0.800000 0.600000 0.400000
1.000000 0.600000 0.400000
0.000000 0.800000 0.400000
0.200000 0.800000 0.400000
0.400000 0.800000 0.400000
0.600000 0.800000 0.400000
0.800000 0.800000 0.400000
1.000000 0.800000 0.400000
0.000000 1.000000 0.400000
0.200000 1.000000 0.400000
0.400000 1.000000 0.400000
0.600000 1.000000 0.400000
0.000000 0.755814 1.000000
1.000000 0.000000 0.104651
0.000000 0.895349 1.000000
1.000000 0.000000 0.244186
0.400000 0.000000 0.600000
0.600000 0.000000 0.600000
0.800000 0.000000 0.600000
1.000000 0.000000 0.600000
0.000000 0.200000 0.600000
0.200000 0.200000 0.600000
0.400000 0.200000 0.600000
0.600000 0.200000 0.600000
0.800000 0.200000 0.600000
1.000000 0.200000 0.600000
0.000000 0.400000 0.600000
0.200000 0.400000 0.600000
0.400000 0.400000 0.600000
0.600000 0.400000 0.600000
0.800000 0.400000 0.600000
1.000000 0.400000 0.600000
0.000000 0.600000 0.600000
0.200000 0.600000 0.600000
0.400000 0.600000 0.600000
0.600000 0.600000 0.600000
0.800000 0.600000 0.600000
1.000000 0.600000 0.600000
0.000000 0.800000 0.600000
0.200000 0.800000 0.600000
0.400000 0.800000 0.600000
0.600000 0.800000 0.600000
0.800000 0.800000 0.600000
1.000000 0.800000 0.600000
0.000000 1.000000 0.600000
0.200000 1.000000 0.600000
0.400000 1.000000 0.600000
0.600000 1.000000 0.600000
0.000000 0.197674 1.000000
0.000000 0.197674 1.000000
1.000000 0.000000 0.244186
0.200000 0.000000 0.800000
0.400000 0.000000 0.800000
0.600000 0.000000 0.800000
0.800000 0.000000 0.800000
1.000000 0.000000 0.800000
0.000000 0.200000 0.800000
0.200000 0.200000 0.800000
0.400000 0.200000 0.800000
0.600000 0.200000 0.800000
0.800000 0.200000 0.800000
1.000000 0.200000 0.800000
0.000000 0.400000 0.800000
0.200000 0.400000 0.800000
0.400000 0.400000 0.800000
0.600000 0.400000 0.800000
0.800000 0.400000 0.800000
1.000000 0.400000 0.800000
0.000000 0.600000 0.800000
0.200000 0.600000 0.800000
0.400000 0.600000 0.800000
0.600000 0.600000 0.800000
0.800000 0.600000 0.800000
1.000000 0.600000 0.800000
0.000000 0.800000 0.800000
0.200000 0.800000 0.800000
0.400000 0.800000 0.800000
0.600000 0.800000 0.800000
0.800000 0.800000 0.800000
1.000000 0.800000 0.800000
0.000000 1.000000 0.800000
0.200000 1.000000 0.800000
0.400000 1.000000 0.800000
1.000000 0.000000 0.523256
0.000000 1.000000 0.406977
1.000000 0.000000 0.662791
0.848837 1.000000 0.000000
0.200000 0.000000 1.000000
0.400000 0.000000 1.000000
0.600000 0.000000 1.000000
0.800000 0.000000 1.000000
1.000000 0.000000 1.000000
0.000000 0.200000 1.000000
0.200000 0.200000 1.000000
0.400000 0.200000 1.000000
0.600000 0.200000 1.000000
0.800000 0.200000 1.000000
1.000000 0.200000 1.000000
0.000000 0.400000 1.000000
0.200000 0.400000 1.000000
0.400000 0.400000 1.000000
0.600000 0.400000 1.000000
0.800000 0.400000 1.000000
1.000000 0.400000 1.000000
0.000000 0.600000 1.000000
0.200000 0.600000 1.000000
0.400000 0.600000 1.000000
0.600000 0.600000 1.000000
0.800000 0.600000 1.000000
1.000000 0.600000 1.000000
0.000000 0.800000 1.000000
0.200000 0.800000 1.000000
0.400000 0.800000 1.000000
0.600000 0.800000 1.000000
0.800000 0.800000 1.000000
1.000000 0.800000 1.000000
0.000000 1.000000 1.000000
0.200000 1.000000 1.000000
0.400000 1.000000 1.000000
0.000000 1.000000 0.406977
0.000000 1.000000 0.267442
0.500000 0.000000 1.000000
