mpv/inverse-rainbow-270.cube
TITLE "selective rainbow 270° (100 cycles)"
LUT_3D_SIZE 16
DOMAIN_MIN 0 0 0
DOMAIN_MAX 1 1 1
0.500000 0.000000 1.000000
1.000000 0.872093 0.000000
1.000000 0.000000 0.383721
1.000000 0.732558 0.000000
0.000000 0.197674 1.000000
1.000000 0.000000 0.383721
1.000000 0.593023 0.000000
1.000000 0.732558 0.000000
0.533333 0.000000 0.000000
0.600000 0.000000 0.000000
0.666667 0.000000 0.000000
0.733333 0.000000 0.000000
0.800000 0.000000 0.000000
0.866667 0.000000 0.000000
0.933333 0.000000 0.000000
1.000000 0.000000 0.000000
1.000000 0.000000 0.523256
0.000000 1.000000 0.127907
0.000000 0.476744 1.000000
0.709302 1.000000 0.000000
0.266667 0.066667 0.000000
0.333333 0.066667 0.000000
0.400000 0.066667 0.000000
0.466667 0.066667 0.000000
0.533333 0.066667 0.000000
0.600000 0.066667 0.000000
0.666667 0.066667 0.000000
0.733333 0.066667 0.000000
0.800000 0.066667 0.000000
0.866667 0.066667 0.000000
0.933333 0.066667 0.000000
1.000000 0.066667 0.000000
0.779070 0.000000 1.000000
0.066667 0.133333 0.000000
0.133333 0.133333 0.000000
0.200000 0.133333 0.000000
0.266667 0.133333 0.000000
0.333333 0.133333 0.000000
0.400000 0.133333 0.000000
0.466667 0.133333 0.000000
0.533333 0.133333 0.000000
0.600000 0.133333 0.000000
0.666667 0.133333 0.000000
0.733333 0.133333 0.000000
0.800000 0.133333 0.000000
0.866667 0.133333 0.000000
0.933333 0.133333 0.000000
1.000000 0.133333 0.000000
0.000000 0.200000 0.000000
0.066667 0.200000 0.000000
0.133333 0.200000 0.000000
0.200000 0.200000 0.000000
0.266667 0.200000 0.000000
0.333333 0.200000 0.000000
0.400000 0.200000 0.000000
0.466667 0.200000 0.000000
0.533333 0.200000 0.000000
0.600000 0.200000 0.000000
0.666667 0.200000 0.000000
0.733333 0.200000 0.000000
0.800000 0.200000 0.000000
0.866667 0.200000 0.000000
0.933333 0.200000 0.000000
1.000000 0.200000 0.000000
0.000000 0.266667 0.000000
0.066667 0.266667 0.000000
0.133333 0.266667 0.000000
0.200000 0.266667 0.000000
0.266667 0.266667 0.000000
0.333333 0.266667 0.000000
0.400000 0.266667 0.000000
0.466667 0.266667 0.000000
0.533333 0.266667 0.000000
0.600000 0.266667 0.000000
0.666667 0.266667 0.000000
0.733333 0.266667 0.000000
0.800000 0.266667 0.000000
0.866667 0.266667 0.000000
0.933333 0.266667 0.000000
1.000000 0.266667 0.000000
0.000000 0.333333 0.000000
0.066667 0.333333 0.000000
0.133333 0.333333 0.000000
0.200000 0.333333 0.000000
0.266667 0.333333 0.000000
0.333333 0.333333 0.000000
0.400000 0.333333 0.000000
0.466667 0.333333 0.000000
0.533333 0.333333 0.000000
0.600000 0.333333 0.000000
0.666667 0.333333 0.000000
0.733333 0.333333 0.000000
0.800000 0.333333 0.000000
0.866667 0.333333 0.000000
0.933333 0.333333 0.000000
1.000000 0.333333 0.000000
0.000000 0.400000 0.000000
0.066667 0.400000 0.000000
0.133333 0.400000 0.000000
0.200000 0.400000 0.000000
0.266667 0.400000 0.000000
0.333333 0.400000 0.000000
0.400000 0.400000 0.000000
0.466667 0.400000 0.000000
0.533333 0.400000 0.000000
0.600000 0.400000 0.000000
0.666667 0.400000 0.000000
0.733333 0.400000 0.000000
0.800000 0.400000 0.000000
0.866667 0.400000 0.000000
0.933333 0.400000 0.000000
1.000000 0.400000 0.000000
0.000000 0.466667 0.000000
0.066667 0.466667 0.000000
0.133333 0.466667 0.000000
0.200000 0.466667 0.000000
0.266667 0.466667 0.000000
0.333333 0.466667 0.000000
0.400000 0.466667 0.000000
0.466667 0.466667 0.000000
0.533333 0.466667 0.000000
0.600000 0.466667 0.000000
0.666667 0.466667 0.000000
0.733333 0.466667 0.000000
0.800000 0.466667 0.000000
0.866667 0.466667 0.000000
0.933333 0.466667 0.000000
1.000000 0.466667 0.000000
0.000000 0.533333 0.000000
0.066667 0.533333 0.000000
0.133333 0.533333 0.000000
0.200000 0.533333 0.000000
0.266667 0.533333 0.000000
0.333333 0.533333 0.000000
0.400000 0.533333 0.000000
0.466667 0.533333 0.000000
0.533333 0.533333 0.000000
0.600000 0.533333 0.000000
0.666667 0.533333 0.000000
0.733333 0.533333 0.000000
0.800000 0.533333 0.000000
0.866667 0.533333 0.000000
0.933333 0.533333 0.000000
1.000000 0.533333 0.000000
0.000000 0.600000 0.000000
0.066667 0.600000 0.000000
0.133333 0.600000 0.000000
0.200000 0.600000 0.000000
0.266667 0.600000 0.000000
0.333333 0.600000 0.000000
0.400000 0.600000 0.000000
0.466667 0.600000 0.000000
0.533333 0.600000 0.000000
0.600000 0.600000 0.000000
0.666667 0.600000 0.000000
0.733333 0.600000 0.000000
0.800000 0.600000 0.000000
0.866667 0.600000 0.000000
0.933333 0.600000 0.000000
1.000000 0.600000 0.000000
0.000000 0.666667 0.000000
0.066667 0.666667 0.000000
0.133333 0.666667 0.000000
0.200000 0.666667 0.000000
0.266667 0.666667 0.000000
0.333333 0.666667 0.000000
0.400000 0.666667 0.000000
0.466667 0.666667 0.000000
0.533333 0.666667 0.000000
0.600000 0.666667 0.000000
0.666667 0.666667 0.000000
0.733333 0.666667 0.000000
0.800000 0.666667 0.000000
0.866667 0.666667 0.000000
0.933333 0.666667 0.000000
1.000000 0.666667 0.000000
0.000000 0.733333 0.000000
0.066667 0.733333 0.000000
0.133333 0.733333 0.000000
0.200000 0.733333 0.000000
0.266667 0.733333 0.000000
0.333333 0.733333 0.000000
0.400000 0.733333 0.000000
0.466667 0.733333 0.000000
0.533333 0.733333 0.000000
0.600000 0.733333 0.000000
0.666667 0.733333 0.000000
0.733333 0.733333 0.000000
0.800000 0.733333 0.000000
0.866667 0.733333 0.000000
0.933333 0.733333 0.000000
1.000000 0.733333 0.000000
0.000000 0.800000 0.000000
0.066667 0.800000 0.000000
0.133333 0.800000 0.000000
0.200000 0.800000 0.000000
0.266667 0.800000 0.000000
0.333333 0.800000 0.000000
0.400000 0.800000 0.000000
0.466667 0.800000 0.000000
0.533333 0.800000 0.000000
0.600000 0.800000 0.000000
0.666667 0.800000 0.000000
0.733333 0.800000 0.000000
0.800000 0.800000 0.000000
0.866667 0.800000 0.000000
0.933333 0.800000 0.000000
1.000000 0.800000 0.000000
0.000000 0.866667 0.000000
0.066667 0.866667 0.000000
0.133333 0.866667 0.000000
0.200000 0.866667 0.000000
0.266667 0.866667 0.000000
0.333333 0.866667 0.000000
0.400000 0.866667 0.000000
0.466667 0.866667 0.000000
0.533333 0.866667 0.000000
0.600000 0.866667 0.000000
0.666667 0.866667 0.000000
0.733333 0.866667 0.000000
0.800000 0.866667 0.000000
0.866667 0.866667 0.000000
0.933333 0.866667 0.000000
1.000000 0.866667 0.000000
0.000000 0.933333 0.000000
0.066667 0.933333 0.000000
0.133333 0.933333 0.000000
0.200000 0.933333 0.000000
0.266667 0.933333 0.000000
0.333333 0.933333 0.000000
0.400000 0.933333 0.000000
0.466667 0.933333 0.000000
0.533333 0.933333 0.000000
0.600000 0.933333 0.000000
0.666667 0.933333 0.000000
0.733333 0.933333 0.000000
0.800000 0.933333 0.000000
0.866667 0.933333 0.000000
0.933333 0.933333 0.000000
1.000000 0.933333 0.000000
0.000000 1.000000 0.000000
0.066667 1.000000 0.000000
0.133333 1.000000 0.000000
0.200000 1.000000 0.000000
0.266667 1.000000 0.000000
0.333333 1.000000 0.000000
0.400000 1.000000 0.000000
0.466667 1.000000 0.000000
0.533333 1.000000 0.000000
0.600000 1.000000 0.000000
0.666667 1.000000 0.000000
0.733333 1.000000 0.000000
0.800000 1.000000 0.000000
0.866667 1.000000 0.000000
0.081395 0.000000 1.000000
0.151163 1.000000 0.000000
0.709302 1.000000 0.000000
1.000000 0.453488 0.000000
0.011628 1.000000 0.000000
1.000000 0.000000 0.104651
0.000000 1.000000 0.546512
0.000000 0.058140 1.000000
0.290698 1.000000 0.000000
0.466667 0.000000 0.066667
0.533333 0.000000 0.066667
0.600000 0.000000 0.066667
0.666667 0.000000 0.066667
0.733333 0.000000 0.066667
0.800000 0.000000 0.066667
0.866667 0.000000 0.066667
0.933333 0.000000 0.066667
1.000000 0.000000 0.066667
0.569767 1.000000 0.000000
0.000000 0.337209 1.000000
0.151163 1.000000 0.000000
0.000000 1.000000 0.406977
0.266667 0.066667 0.066667
0.333333 0.066667 0.066667
0.400000 0.066667 0.066667
0.466667 0.066667 0.066667
0.533333 0.066667 0.066667
0.600000 0.066667 0.066667
0.666667 0.066667 0.066667
0.733333 0.066667 0.066667
0.800000 0.066667 0.066667
0.866667 0.066667 0.066667
0.933333 0.066667 0.066667
1.000000 0.066667 0.066667
0.000000 0.133333 0.066667
0.066667 0.133333 0.066667
0.133333 0.133333 0.066667
0.200000 0.133333 0.066667
0.266667 0.133333 0.066667
0.333333 0.133333 0.066667
0.400000 0.133333 0.066667
0.466667 0.133333 0.066667
0.533333 0.133333 0.066667
0.600000 0.133333 0.066667
0.666667 0.133333 0.066667
0.733333 0.133333 0.066667
0.800000 0.133333 0.066667
0.866667 0.133333 0.066667
0.933333 0.133333 0.066667
1.000000 0.133333 0.066667
0.000000 0.200000 0.066667
0.066667 0.200000 0.066667
0.133333 0.200000 0.066667
0.200000 0.200000 0.066667
0.266667 0.200000 0.066667
0.333333 0.200000 0.066667
0.400000 0.200000 0.066667
0.466667 0.200000 0.066667
0.533333 0.200000 0.066667
0.600000 0.200000 0.066667
0.666667 0.200000 0.066667
0.733333 0.200000 0.066667
0.800000 0.200000 0.066667
0.866667 0.200000 0.066667
0.933333 0.200000 0.066667
1.000000 0.200000 0.066667
0.000000 0.266667 0.066667
0.066667 0.266667 0.066667
0.133333 0.266667 0.066667
0.200000 0.266667 0.066667
0.266667 0.266667 0.066667
0.333333 0.266667 0.066667
0.400000 0.266667 0.066667
0.466667 0.266667 0.066667
0.533333 0.266667 0.066667
0.600000 0.266667 0.066667
0.666667 0.266667 0.066667
0.733333 0.266667 0.066667
0.800000 0.266667 0.066667
0.866667 0.266667 0.066667
0.933333 0.266667 0.066667
1.000000 0.266667 0.066667
0.000000 0.333333 0.066667
0.066667 0.333333 0.066667
0.133333 0.333333 0.066667
0.200000 0.333333 0.066667
0.266667 0.333333 0.066667
0.333333 0.333333 0.066667
0.400000 0.333333 0.066667
0.466667 0.333333 0.066667
0.533333 0.333333 0.066667
0.600000 0.333333 0.066667
0.666667 0.333333 0.066667
0.733333 0.333333 0.066667
0.800000 0.333333 0.066667
0.866667 0.333333 0.066667
0.933333 0.333333 0.066667
1.000000 0.333333 0.066667
0.000000 0.400000 0.066667
0.066667 0.400000 0.066667
0.133333 0.400000 0.066667
0.200000 0.400000 0.066667
0.266667 0.400000 0.066667
0.333333 0.400000 0.066667
0.400000 0.400000 0.066667
0.466667 0.400000 0.066667
0.533333 0.400000 0.066667
0.600000 0.400000 0.066667
0.666667 0.400000 0.066667
0.733333 0.400000 0.066667
0.800000 0.400000 0.066667
0.866667 0.400000 0.066667
0.933333 0.400000 0.066667
1.000000 0.400000 0.066667
0.000000 0.466667 0.066667
0.066667 0.466667 0.066667
0.133333 0.466667 0.066667
0.200000 0.466667 0.066667
0.266667 0.466667 0.066667
0.333333 0.466667 0.066667
0.400000 0.466667 0.066667
0.466667 0.466667 0.066667
0.533333 0.466667 0.066667
0.600000 0.466667 0.066667
0.666667 0.466667 0.066667
0.733333 0.466667 0.066667
0.800000 0.466667 0.066667
0.866667 0.466667 0.066667
0.933333 0.466667 0.066667
1.000000 0.466667 0.066667
0.000000 0.533333 0.066667
0.066667 0.533333 0.066667
0.133333 0.533333 0.066667
0.200000 0.533333 0.066667
0.266667 0.533333 0.066667
0.333333 0.533333 0.066667
0.400000 0.533333 0.066667
0.466667 0.533333 0.066667
0.533333 0.533333 0.066667
0.600000 0.533333 0.066667
0.666667 0.533333 0.066667
0.733333 0.533333 0.066667
0.800000 0.533333 0.066667
0.866667 0.533333 0.066667
0.933333 0.533333 0.066667
1.000000 0.533333 0.066667
0.000000 0.600000 0.066667
0.066667 0.600000 0.066667
0.133333 0.600000 0.066667
0.200000 0.600000 0.066667
0.266667 0.600000 0.066667
0.333333 0.600000 0.066667
0.400000 0.600000 0.066667
0.466667 0.600000 0.066667
0.533333 0.600000 0.066667
0.600000 0.600000 0.066667
0.666667 0.600000 0.066667
0.733333 0.600000 0.066667
0.800000 0.600000 0.066667
0.866667 0.600000 0.066667
0.933333 0.600000 0.066667
1.000000 0.600000 0.066667
0.000000 0.666667 0.066667
0.066667 0.666667 0.066667
0.133333 0.666667 0.066667
0.200000 0.666667 0.066667
0.266667 0.666667 0.066667
0.333333 0.666667 0.066667
0.400000 0.666667 0.066667
0.466667 0.666667 0.066667
0.533333 0.666667 0.066667
0.600000 0.666667 0.066667
0.666667 0.666667 0.066667
0.733333 0.666667 0.066667
0.800000 0.666667 0.066667
0.866667 0.666667 0.066667
0.933333 0.666667 0.066667
1.000000 0.666667 0.066667
0.000000 0.733333 0.066667
0.066667 0.733333 0.066667
0.133333 0.733333 0.066667
0.200000 0.733333 0.066667
0.266667 0.733333 0.066667
0.333333 0.733333 0.066667
0.400000 0.733333 0.066667
0.466667 0.733333 0.066667
0.533333 0.733333 0.066667
0.600000 0.733333 0.066667
0.666667 0.733333 0.066667
0.733333 0.733333 0.066667
0.800000 0.733333 0.066667
0.866667 0.733333 0.066667
0.933333 0.733333 0.066667
1.000000 0.733333 0.066667
0.000000 0.800000 0.066667
0.066667 0.800000 0.066667
0.133333 0.800000 0.066667
0.200000 0.800000 0.066667
0.266667 0.800000 0.066667
0.333333 0.800000 0.066667
0.400000 0.800000 0.066667
0.466667 0.800000 0.066667
0.533333 0.800000 0.066667
0.600000 0.800000 0.066667
0.666667 0.800000 0.066667
0.733333 0.800000 0.066667
0.800000 0.800000 0.066667
0.866667 0.800000 0.066667
0.933333 0.800000 0.066667
1.000000 0.800000 0.066667
0.000000 0.866667 0.066667
0.066667 0.866667 0.066667
0.133333 0.866667 0.066667
0.200000 0.866667 0.066667
0.266667 0.866667 0.066667
0.333333 0.866667 0.066667
0.400000 0.866667 0.066667
0.466667 0.866667 0.066667
0.533333 0.866667 0.066667
0.600000 0.866667 0.066667
0.666667 0.866667 0.066667
0.733333 0.866667 0.066667
0.800000 0.866667 0.066667
0.866667 0.866667 0.066667
0.933333 0.866667 0.066667
1.000000 0.866667 0.066667
0.000000 0.933333 0.066667
0.066667 0.933333 0.066667
0.133333 0.933333 0.066667
0.200000 0.933333 0.066667
0.266667 0.933333 0.066667
0.333333 0.933333 0.066667
0.400000 0.933333 0.066667
0.466667 0.933333 0.066667
0.533333 0.933333 0.066667
0.600000 0.933333 0.066667
0.666667 0.933333 0.066667
0.733333 0.933333 0.066667
0.800000 0.933333 0.066667
0.866667 0.933333 0.066667
0.933333 0.933333 0.066667
1.000000 0.933333 0.066667
0.000000 1.000000 0.066667
0.066667 1.000000 0.066667
0.133333 1.000000 0.066667
0.200000 1.000000 0.066667
0.266667 1.000000 0.066667
0.333333 1.000000 0.066667
0.400000 1.000000 0.066667
0.466667 1.000000 0.066667
0.533333 1.000000 0.066667
0.600000 1.000000 0.066667
0.666667 1.000000 0.066667
0.733333 1.000000 0.066667
0.800000 1.000000 0.066667
0.151163 1.000000 0.000000
1.000000 0.000000 0.802326
1.000000 0.174419 0.000000
0.081395 0.000000 1.000000
1.000000 0.034884 0.000000
0.360465 0.000000 1.000000
0.151163 1.000000 0.000000
0.081395 0.000000 1.000000
0.000000 1.000000 0.267442
0.000000 1.000000 0.825581
0.466667 0.000000 0.133333
0.533333 0.000000 0.133333
0.600000 0.000000 0.133333
0.666667 0.000000 0.133333
0.733333 0.000000 0.133333
0.800000 0.000000 0.133333
0.866667 0.000000 0.133333
0.933333 0.000000 0.133333
1.000000 0.000000 0.133333
1.000000 0.174419 0.000000
0.011628 1.000000 0.000000
0.000000 1.000000 0.965116
0.000000 0.895349 1.000000
0.266667 0.066667 0.133333
0.333333 0.066667 0.133333
0.400000 0.066667 0.133333
0.466667 0.066667 0.133333
0.533333 0.066667 0.133333
0.600000 0.066667 0.133333
0.666667 0.066667 0.133333
0.733333 0.066667 0.133333
0.800000 0.066667 0.133333
0.866667 0.066667 0.133333
0.933333 0.066667 0.133333
1.000000 0.066667 0.133333
0.000000 0.133333 0.133333
0.066667 0.133333 0.133333
0.133333 0.133333 0.133333
0.200000 0.133333 0.133333
0.266667 0.133333 0.133333
0.333333 0.133333 0.133333
0.400000 0.133333 0.133333
0.466667 0.133333 0.133333
0.533333 0.133333 0.133333
0.600000 0.133333 0.133333
0.666667 0.133333 0.133333
0.733333 0.133333 0.133333
0.800000 0.133333 0.133333
0.866667 0.133333 0.133333
0.933333 0.133333 0.133333
1.000000 0.133333 0.133333
0.000000 0.200000 0.133333
0.066667 0.200000 0.133333
0.133333 0.200000 0.133333
0.200000 0.200000 0.133333
0.266667 0.200000 0.133333
0.333333 0.200000 0.133333
0.400000 0.200000 0.133333
0.466667 0.200000 0.133333
0.533333 0.200000 0.133333
0.600000 0.200000 0.133333
0.666667 0.200000 0.133333
0.733333 0.200000 0.133333
0.800000 0.200000 0.133333
0.866667 0.200000 0.133333
0.933333 0.200000 0.133333
1.000000 0.200000 0.133333
0.000000 0.266667 0.133333
0.066667 0.266667 0.133333
0.133333 0.266667 0.133333
0.200000 0.266667 0.133333
0.266667 0.266667 0.133333
0.333333 0.266667 0.133333
0.400000 0.266667 0.133333
0.466667 0.266667 0.133333
0.533333 0.266667 0.133333
0.600000 0.266667 0.133333
0.666667 0.266667 0.133333
0.733333 0.266667 0.133333
0.800000 0.266667 0.133333
0.866667 0.266667 0.133333
0.933333 0.266667 0.133333
1.000000 0.266667 0.133333
0.000000 0.333333 0.133333
0.066667 0.333333 0.133333
0.133333 0.333333 0.133333
0.200000 0.333333 0.133333
0.266667 0.333333 0.133333
0.333333 0.333333 0.133333
0.400000 0.333333 0.133333
0.466667 0.333333 0.133333
0.533333 0.333333 0.133333
0.600000 0.333333 0.133333
0.666667 0.333333 0.133333
0.733333 0.333333 0.133333
0.800000 0.333333 0.133333
0.866667 0.333333 0.133333
0.933333 0.333333 0.133333
1.000000 0.333333 0.133333
0.000000 0.400000 0.133333
0.066667 0.400000 0.133333
0.133333 0.400000 0.133333
0.200000 0.400000 0.133333
0.266667 0.400000 0.133333
0.333333 0.400000 0.133333
0.400000 0.400000 0.133333
0.466667 0.400000 0.133333
0.533333 0.400000 0.133333
0.600000 0.400000 0.133333
0.666667 0.400000 0.133333
0.733333 0.400000 0.133333
0.800000 0.400000 0.133333
0.866667 0.400000 0.133333
0.933333 0.400000 0.133333
1.000000 0.400000 0.133333
0.000000 0.466667 0.133333
0.066667 0.466667 0.133333
0.133333 0.466667 0.133333
0.200000 0.466667 0.133333
0.266667 0.466667 0.133333
0.333333 0.466667 0.133333
0.400000 0.466667 0.133333
0.466667 0.466667 0.133333
0.533333 0.466667 0.133333
0.600000 0.466667 0.133333
0.666667 0.466667 0.133333
0.733333 0.466667 0.133333
0.800000 0.466667 0.133333
0.866667 0.466667 0.133333
0.933333 0.466667 0.133333
1.000000 0.466667 0.133333
0.000000 0.533333 0.133333
0.066667 0.533333 0.133333
0.133333 0.533333 0.133333
0.200000 0.533333 0.133333
0.266667 0.533333 0.133333
0.333333 0.533333 0.133333
0.400000 0.533333 0.133333
0.466667 0.533333 0.133333
0.533333 0.533333 0.133333
0.600000 0.533333 0.133333
0.666667 0.533333 0.133333
0.733333 0.533333 0.133333
0.800000 0.533333 0.133333
0.866667 0.533333 0.133333
0.933333 0.533333 0.133333
1.000000 0.533333 0.133333
0.000000 0.600000 0.133333
0.066667 0.600000 0.133333
0.133333 0.600000 0.133333
0.200000 0.600000 0.133333
0.266667 0.600000 0.133333
0.333333 0.600000 0.133333
0.400000 0.600000 0.133333
0.466667 0.600000 0.133333
0.533333 0.600000 0.133333
0.600000 0.600000 0.133333
0.666667 0.600000 0.133333
0.733333 0.600000 0.133333
0.800000 0.600000 0.133333
0.866667 0.600000 0.133333
0.933333 0.600000 0.133333
1.000000 0.600000 0.133333
0.000000 0.666667 0.133333
0.066667 0.666667 0.133333
0.133333 0.666667 0.133333
0.200000 0.666667 0.133333
0.266667 0.666667 0.133333
0.333333 0.666667 0.133333
0.400000 0.666667 0.133333
0.466667 0.666667 0.133333
0.533333 0.666667 0.133333
0.600000 0.666667 0.133333
0.666667 0.666667 0.133333
0.733333 0.666667 0.133333
0.800000 0.666667 0.133333
0.866667 0.666667 0.133333
0.933333 0.666667 0.133333
1.000000 0.666667 0.133333
0.000000 0.733333 0.133333
0.066667 0.733333 0.133333
0.133333 0.733333 0.133333
0.200000 0.733333 0.133333
0.266667 0.733333 0.133333
0.333333 0.733333 0.133333
0.400000 0.733333 0.133333
0.466667 0.733333 0.133333
0.533333 0.733333 0.133333
0.600000 0.733333 0.133333
0.666667 0.733333 0.133333
0.733333 0.733333 0.133333
0.800000 0.733333 0.133333
0.866667 0.733333 0.133333
0.933333 0.733333 0.133333
1.000000 0.733333 0.133333
0.000000 0.800000 0.133333
0.066667 0.800000 0.133333
0.133333 0.800000 0.133333
0.200000 0.800000 0.133333
0.266667 0.800000 0.133333
0.333333 0.800000 0.133333
0.400000 0.800000 0.133333
0.466667 0.800000 0.133333
0.533333 0.800000 0.133333
0.600000 0.800000 0.133333
0.666667 0.800000 0.133333
0.733333 0.800000 0.133333
0.800000 0.800000 0.133333
0.866667 0.800000 0.133333
0.933333 0.800000 0.133333
1.000000 0.800000 0.133333
0.000000 0.866667 0.133333
0.066667 0.866667 0.133333
0.133333 0.866667 0.133333
0.200000 0.866667 0.133333
0.266667 0.866667 0.133333
0.333333 0.866667 0.133333
0.400000 0.866667 0.133333
0.466667 0.866667 0.133333
0.533333 0.866667 0.133333
0.600000 0.866667 0.133333
0.666667 0.866667 0.133333
0.733333 0.866667 0.133333
0.800000 0.866667 0.133333
0.866667 0.866667 0.133333
0.933333 0.866667 0.133333
1.000000 0.866667 0.133333
0.000000 0.933333 0.133333
0.066667 0.933333 0.133333
0.133333 0.933333 0.133333
0.200000 0.933333 0.133333
0.266667 0.933333 0.133333
0.333333 0.933333 0.133333
0.400000 0.933333 0.133333
0.466667 0.933333 0.133333
0.533333 0.933333 0.133333
0.600000 0.933333 0.133333
0.666667 0.933333 0.133333
0.733333 0.933333 0.133333
0.800000 0.933333 0.133333
0.866667 0.933333 0.133333
0.933333 0.933333 0.133333
1.000000 0.933333 0.133333
0.000000 1.000000 0.133333
0.066667 1.000000 0.133333
0.133333 1.000000 0.133333
0.200000 1.000000 0.133333
0.266667 1.000000 0.133333
0.333333 1.000000 0.133333
0.400000 1.000000 0.133333
0.466667 1.000000 0.133333
0.533333 1.000000 0.133333
0.600000 1.000000 0.133333
0.666667 1.000000 0.133333
0.733333 1.000000 0.133333
0.800000 1.000000 0.133333
1.000000 0.000000 0.244186
0.000000 0.476744 1.000000
0.290698 1.000000 0.000000
0.000000 0.337209 1.000000
0.000000 1.000000 0.406977
0.000000 0.476744 1.000000
1.000000 0.593023 0.000000
0.000000 1.000000 0.406977
0.000000 0.616279 1.000000
0.000000 0.476744 1.000000
0.466667 0.000000 0.200000
0.533333 0.000000 0.200000
0.600000 0.000000 0.200000
0.666667 0.000000 0.200000
0.733333 0.000000 0.200000
0.800000 0.000000 0.200000
0.866667 0.000000 0.200000
0.933333 0.000000 0.200000
1.000000 0.000000 0.200000
0.290698 1.000000 0.000000
0.000000 0.895349 1.000000
1.000000 0.872093 0.000000
0.200000 0.066667 0.200000
0.266667 0.066667 0.200000
0.333333 0.066667 0.200000
0.400000 0.066667 0.200000
0.466667 0.066667 0.200000
0.533333 0.066667 0.200000
0.600000 0.066667 0.200000
0.666667 0.066667 0.200000
0.733333 0.066667 0.200000
0.800000 0.066667 0.200000
0.866667 0.066667 0.200000
0.933333 0.066667 0.200000
1.000000 0.066667 0.200000
0.000000 0.133333 0.200000
0.066667 0.133333 0.200000
0.133333 0.133333 0.200000
0.200000 0.133333 0.200000
0.266667 0.133333 0.200000
0.333333 0.133333 0.200000
0.400000 0.133333 0.200000
0.466667 0.133333 0.200000
0.533333 0.133333 0.200000
0.600000 0.133333 0.200000
0.666667 0.133333 0.200000
0.733333 0.133333 0.200000
0.800000 0.133333 0.200000
0.866667 0.133333 0.200000
0.933333 0.133333 0.200000
1.000000 0.133333 0.200000
0.000000 0.200000 0.200000
0.066667 0.200000 0.200000
0.133333 0.200000 0.200000
0.200000 0.200000 0.200000
0.266667 0.200000 0.200000
0.333333 0.200000 0.200000
0.400000 0.200000 0.200000
0.466667 0.200000 0.200000
0.533333 0.200000 0.200000
0.600000 0.200000 0.200000
0.666667 0.200000 0.200000
0.733333 0.200000 0.200000
0.800000 0.200000 0.200000
0.866667 0.200000 0.200000
0.933333 0.200000 0.200000
1.000000 0.200000 0.200000
0.000000 0.266667 0.200000
0.066667 0.266667 0.200000
0.133333 0.266667 0.200000
0.200000 0.266667 0.200000
0.266667 0.266667 0.200000
0.333333 0.266667 0.200000
0.400000 0.266667 0.200000
0.466667 0.266667 0.200000
0.533333 0.266667 0.200000
0.600000 0.266667 0.200000
0.666667 0.266667 0.200000
0.733333 0.266667 0.200000
0.800000 0.266667 0.200000
0.866667 0.266667 0.200000
0.933333 0.266667 0.200000
1.000000 0.266667 0.200000
0.000000 0.333333 0.200000
0.066667 0.333333 0.200000
0.133333 0.333333 0.200000
0.200000 0.333333 0.200000
0.266667 0.333333 0.200000
0.333333 0.333333 0.200000
0.400000 0.333333 0.200000
0.466667 0.333333 0.200000
0.533333 0.333333 0.200000
0.600000 0.333333 0.200000
0.666667 0.333333 0.200000
0.733333 0.333333 0.200000
0.800000 0.333333 0.200000
0.866667 0.333333 0.200000
0.933333 0.333333 0.200000
1.000000 0.333333 0.200000
0.000000 0.400000 0.200000
0.066667 0.400000 0.200000
0.133333 0.400000 0.200000
0.200000 0.400000 0.200000
0.266667 0.400000 0.200000
0.333333 0.400000 0.200000
0.400000 0.400000 0.200000
0.466667 0.400000 0.200000
0.533333 0.400000 0.200000
0.600000 0.400000 0.200000
0.666667 0.400000 0.200000
0.733333 0.400000 0.200000
0.800000 0.400000 0.200000
0.866667 0.400000 0.200000
0.933333 0.400000 0.200000
1.000000 0.400000 0.200000
0.000000 0.466667 0.200000
0.066667 0.466667 0.200000
0.133333 0.466667 0.200000
0.200000 0.466667 0.200000
0.266667 0.466667 0.200000
