mpv/inverse.cube
TITLE "selective inverse"
LUT_3D_SIZE 16
DOMAIN_MIN 0 0 0
DOMAIN_MAX 1 1 1
1.000000 1.000000 1.000000
0.933333 1.000000 1.000000
0.866667 1.000000 1.000000
0.800000 1.000000 1.000000
0.733333 1.000000 1.000000
0.666667 1.000000 1.000000
0.600000 1.000000 1.000000
0.533333 1.000000 1.000000
0.533333 0.000000 0.000000
0.600000 0.000000 0.000000
0.666667 0.000000 0.000000
0.733333 0.000000 0.000000
0.800000 0.000000 0.000000
0.866667 0.000000 0.000000
0.933333 0.000000 0.000000
1.000000 0.000000 0.000000
1.000000 0.933333 1.000000
0.933333 0.933333 1.000000
0.866667 0.933333 1.000000
0.800000 0.933333 1.000000
0.266667 0.066667 0.000000
0.333333 0.066667 0.000000
0.400000 0.066667 0.000000
0.466667 0.066667 0.000000
0.533333 0.066667 0.000000
0.600000 0.066667 0.000000
0.666667 0.066667 0.000000
0.733333 0.066667 0.000000
0.800000 0.066667 0.000000
0.866667 0.066667 0.000000
0.933333 0.066667 0.000000
1.000000 0.066667 0.000000
1.000000 0.866667 1.000000
0.066667 0.133333 0.000000
0.133333 0.133333 0.000000
0.200000 0.133333 0.000000
0.266667 0.133333 0.000000
0.333333 0.133333 0.000000
0.400000 0.133333 0.000000
0.466667 0.133333 0.000000
0.533333 0.133333 0.000000
0.600000 0.133333 0.000000
0.666667 0.133333 0.000000
0.733333 0.133333 0.000000
0.800000 0.133333 0.000000
0.866667 0.133333 0.000000
0.933333 0.133333 0.000000
1.000000 0.133333 0.000000
0.000000 0.200000 0.000000
0.066667 0.200000 0.000000
0.133333 0.200000 0.000000
0.200000 0.200000 0.000000
0.266667 0.200000 0.000000
0.333333 0.200000 0.000000
0.400000 0.200000 0.000000
0.466667 0.200000 0.000000
0.533333 0.200000 0.000000
0.600000 0.200000 0.000000
0.666667 0.200000 0.000000
0.733333 0.200000 0.000000
0.800000 0.200000 0.000000
0.866667 0.200000 0.000000
0.933333 0.200000 0.000000
1.000000 0.200000 0.000000
0.000000 0.266667 0.000000
0.066667 0.266667 0.000000
0.133333 0.266667 0.000000
0.200000 0.266667 0.000000
0.266667 0.266667 0.000000
0.333333 0.266667 0.000000
0.400000 0.266667 0.000000
0.466667 0.266667 0.000000
0.533333 0.266667 0.000000
0.600000 0.266667 0.000000
0.666667 0.266667 0.000000
0.733333 0.266667 0.000000
0.800000 0.266667 0.000000
0.866667 0.266667 0.000000
0.933333 0.266667 0.000000
1.000000 0.266667 0.000000
0.000000 0.333333 0.000000
0.066667 0.333333 0.000000
0.133333 0.333333 0.000000
0.200000 0.333333 0.000000
0.266667 0.333333 0.000000
0.333333 0.333333 0.000000
0.400000 0.333333 0.000000
0.466667 0.333333 0.000000
0.533333 0.333333 0.000000
0.600000 0.333333 0.000000
0.666667 0.333333 0.000000
0.733333 0.333333 0.000000
0.800000 0.333333 0.000000
0.866667 0.333333 0.000000
0.933333 0.333333 0.000000
1.000000 0.333333 0.000000
0.000000 0.400000 0.000000
0.066667 0.400000 0.000000
0.133333 0.400000 0.000000
0.200000 0.400000 0.000000
0.266667 0.400000 0.000000
0.333333 0.400000 0.000000
0.400000 0.400000 0.000000
0.466667 0.400000 0.000000
0.533333 0.400000 0.000000
0.600000 0.400000 0.000000
0.666667 0.400000 0.000000
0.733333 0.400000 0.000000
0.800000 0.400000 0.000000
0.866667 0.400000 0.000000
0.933333 0.400000 0.000000
1.000000 0.400000 0.000000
0.000000 0.466667 0.000000
0.066667 0.466667 0.000000
0.133333 0.466667 0.000000
0.200000 0.466667 0.000000
0.266667 0.466667 0.000000
0.333333 0.466667 0.000000
0.400000 0.466667 0.000000
0.466667 0.466667 0.000000
0.533333 0.466667 0.000000
0.600000 0.466667 0.000000
0.666667 0.466667 0.000000
0.733333 0.466667 0.000000
0.800000 0.466667 0.000000
0.866667 0.466667 0.000000
0.933333 0.466667 0.000000
1.000000 0.466667 0.000000
0.000000 0.533333 0.000000
0.066667 0.533333 0.000000
0.133333 0.533333 0.000000
0.200000 0.533333 0.000000
0.266667 0.533333 0.000000
0.333333 0.533333 0.000000
0.400000 0.533333 0.000000
0.466667 0.533333 0.000000
0.533333 0.533333 0.000000
0.600000 0.533333 0.000000
0.666667 0.533333 0.000000
0.733333 0.533333 0.000000
0.800000 0.533333 0.000000
0.866667 0.533333 0.000000
0.933333 0.533333 0.000000
1.000000 0.533333 0.000000
0.000000 0.600000 0.000000
0.066667 0.600000 0.000000
0.133333 0.600000 0.000000
0.200000 0.600000 0.000000
0.266667 0.600000 0.000000
0.333333 0.600000 0.000000
0.400000 0.600000 0.000000
0.466667 0.600000 0.000000
0.533333 0.600000 0.000000
0.600000 0.600000 0.000000
0.666667 0.600000 0.000000
0.733333 0.600000 0.000000
0.800000 0.600000 0.000000
0.866667 0.600000 0.000000
0.933333 0.600000 0.000000
1.000000 0.600000 0.000000
0.000000 0.666667 0.000000
0.066667 0.666667 0.000000
0.133333 0.666667 0.000000
0.200000 0.666667 0.000000
0.266667 0.666667 0.000000
0.333333 0.666667 0.000000
0.400000 0.666667 0.000000
0.466667 0.666667 0.000000
0.533333 0.666667 0.000000
0.600000 0.666667 0.000000
0.666667 0.666667 0.000000
0.733333 0.666667 0.000000
0.800000 0.666667 0.000000
0.866667 0.666667 0.000000
0.933333 0.666667 0.000000
1.000000 0.666667 0.000000
0.000000 0.733333 0.000000
0.066667 0.733333 0.000000
0.133333 0.733333 0.000000
0.200000 0.733333 0.000000
0.266667 0.733333 0.000000
0.333333 0.733333 0.000000
0.400000 0.733333 0.000000
0.466667 0.733333 0.000000
0.533333 0.733333 0.000000
0.600000 0.733333 0.000000
0.666667 0.733333 0.000000
0.733333 0.733333 0.000000
0.800000 0.733333 0.000000
0.866667 0.733333 0.000000
0.933333 0.733333 0.000000
1.000000 0.733333 0.000000
0.000000 0.800000 0.000000
0.066667 0.800000 0.000000
0.133333 0.800000 0.000000
0.200000 0.800000 0.000000
0.266667 0.800000 0.000000
0.333333 0.800000 0.000000
0.400000 0.800000 0.000000
0.466667 0.800000 0.000000
0.533333 0.800000 0.000000
0.600000 0.800000 0.000000
0.666667 0.800000 0.000000
0.733333 0.800000 0.000000
0.800000 0.800000 0.000000
0.866667 0.800000 0.000000
0.933333 0.800000 0.000000
1.000000 0.800000 0.000000
0.000000 0.866667 0.000000
0.066667 0.866667 0.000000
0.133333 0.866667 0.000000
0.200000 0.866667 0.000000
0.266667 0.866667 0.000000
0.333333 0.866667 0.000000
0.400000 0.866667 0.000000
0.466667 0.866667 0.000000
0.533333 0.866667 0.000000
0.600000 0.866667 0.000000
0.666667 0.866667 0.000000
0.733333 0.866667 0.000000
0.800000 0.866667 0.000000
0.866667 0.866667 0.000000
0.933333 0.866667 0.000000
1.000000 0.866667 0.000000
0.000000 0.933333 0.000000
0.066667 0.933333 0.000000
0.133333 0.933333 0.000000
0.200000 0.933333 0.000000
0.266667 0.933333 0.000000
0.333333 0.933333 0.000000
0.400000 0.933333 0.000000
0.466667 0.933333 0.000000
0.533333 0.933333 0.000000
0.600000 0.933333 0.000000
0.666667 0.933333 0.000000
0.733333 0.933333 0.000000
0.800000 0.933333 0.000000
0.866667 0.933333 0.000000
0.933333 0.933333 0.000000
1.000000 0.933333 0.000000
0.000000 1.000000 0.000000
0.066667 1.000000 0.000000
0.133333 1.000000 0.000000
0.200000 1.000000 0.000000
0.266667 1.000000 0.000000
0.333333 1.000000 0.000000
0.400000 1.000000 0.000000
0.466667 1.000000 0.000000
0.533333 1.000000 0.000000
0.600000 1.000000 0.000000
0.666667 1.000000 0.000000
0.733333 1.000000 0.000000
0.800000 1.000000 0.000000
0.866667 1.000000 0.000000
0.066667 0.000000 1.000000
0.000000 0.000000 1.000000
1.000000 1.000000 0.933333
0.933333 1.000000 0.933333
0.866667 1.000000 0.933333
0.800000 1.000000 0.933333
0.733333 1.000000 0.933333
0.666667 1.000000 0.933333
0.600000 1.000000 0.933333
0.466667 0.000000 0.066667
0.533333 0.000000 0.066667
0.600000 0.000000 0.066667
0.666667 0.000000 0.066667
0.733333 0.000000 0.066667
0.800000 0.000000 0.066667
0.866667 0.000000 0.066667
0.933333 0.000000 0.066667
1.000000 0.000000 0.066667
1.000000 0.933333 0.933333
0.933333 0.933333 0.933333
0.866667 0.933333 0.933333
0.800000 0.933333 0.933333
0.266667 0.066667 0.066667
0.333333 0.066667 0.066667
0.400000 0.066667 0.066667
0.466667 0.066667 0.066667
0.533333 0.066667 0.066667
0.600000 0.066667 0.066667
0.666667 0.066667 0.066667
0.733333 0.066667 0.066667
0.800000 0.066667 0.066667
0.866667 0.066667 0.066667
0.933333 0.066667 0.066667
1.000000 0.066667 0.066667
0.000000 0.133333 0.066667
0.066667 0.133333 0.066667
0.133333 0.133333 0.066667
0.200000 0.133333 0.066667
0.266667 0.133333 0.066667
0.333333 0.133333 0.066667
0.400000 0.133333 0.066667
0.466667 0.133333 0.066667
0.533333 0.133333 0.066667
0.600000 0.133333 0.066667
0.666667 0.133333 0.066667
0.733333 0.133333 0.066667
0.800000 0.133333 0.066667
0.866667 0.133333 0.066667
0.933333 0.133333 0.066667
1.000000 0.133333 0.066667
0.000000 0.200000 0.066667
0.066667 0.200000 0.066667
0.133333 0.200000 0.066667
0.200000 0.200000 0.066667
0.266667 0.200000 0.066667
0.333333 0.200000 0.066667
0.400000 0.200000 0.066667
0.466667 0.200000 0.066667
0.533333 0.200000 0.066667
0.600000 0.200000 0.066667
0.666667 0.200000 0.066667
0.733333 0.200000 0.066667
0.800000 0.200000 0.066667
0.866667 0.200000 0.066667
0.933333 0.200000 0.066667
1.000000 0.200000 0.066667
0.000000 0.266667 0.066667
0.066667 0.266667 0.066667
0.133333 0.266667 0.066667
0.200000 0.266667 0.066667
0.266667 0.266667 0.066667
0.333333 0.266667 0.066667
0.400000 0.266667 0.066667
0.466667 0.266667 0.066667
0.533333 0.266667 0.066667
0.600000 0.266667 0.066667
0.666667 0.266667 0.066667
0.733333 0.266667 0.066667
0.800000 0.266667 0.066667
0.866667 0.266667 0.066667
0.933333 0.266667 0.066667
1.000000 0.266667 0.066667
0.000000 0.333333 0.066667
0.066667 0.333333 0.066667
0.133333 0.333333 0.066667
0.200000 0.333333 0.066667
0.266667 0.333333 0.066667
0.333333 0.333333 0.066667
0.400000 0.333333 0.066667
0.466667 0.333333 0.066667
0.533333 0.333333 0.066667
0.600000 0.333333 0.066667
0.666667 0.333333 0.066667
0.733333 0.333333 0.066667
0.800000 0.333333 0.066667
0.866667 0.333333 0.066667
0.933333 0.333333 0.066667
1.000000 0.333333 0.066667
0.000000 0.400000 0.066667
0.066667 0.400000 0.066667
0.133333 0.400000 0.066667
0.200000 0.400000 0.066667
0.266667 0.400000 0.066667
0.333333 0.400000 0.066667
0.400000 0.400000 0.066667
0.466667 0.400000 0.066667
0.533333 0.400000 0.066667
0.600000 0.400000 0.066667
0.666667 0.400000 0.066667
0.733333 0.400000 0.066667
0.800000 0.400000 0.066667
0.866667 0.400000 0.066667
0.933333 0.400000 0.066667
1.000000 0.400000 0.066667
0.000000 0.466667 0.066667
0.066667 0.466667 0.066667
0.133333 0.466667 0.066667
0.200000 0.466667 0.066667
0.266667 0.466667 0.066667
0.333333 0.466667 0.066667
0.400000 0.466667 0.066667
0.466667 0.466667 0.066667
0.533333 0.466667 0.066667
0.600000 0.466667 0.066667
0.666667 0.466667 0.066667
0.733333 0.466667 0.066667
0.800000 0.466667 0.066667
0.866667 0.466667 0.066667
0.933333 0.466667 0.066667
1.000000 0.466667 0.066667
0.000000 0.533333 0.066667
0.066667 0.533333 0.066667
0.133333 0.533333 0.066667
0.200000 0.533333 0.066667
0.266667 0.533333 0.066667
0.333333 0.533333 0.066667
0.400000 0.533333 0.066667
0.466667 0.533333 0.066667
0.533333 0.533333 0.066667
0.600000 0.533333 0.066667
0.666667 0.533333 0.066667
0.733333 0.533333 0.066667
0.800000 0.533333 0.066667
0.866667 0.533333 0.066667
0.933333 0.533333 0.066667
1.000000 0.533333 0.066667
0.000000 0.600000 0.066667
0.066667 0.600000 0.066667
0.133333 0.600000 0.066667
0.200000 0.600000 0.066667
0.266667 0.600000 0.066667
0.333333 0.600000 0.066667
0.400000 0.600000 0.066667
0.466667 0.600000 0.066667
0.533333 0.600000 0.066667
0.600000 0.600000 0.066667
0.666667 0.600000 0.066667
0.733333 0.600000 0.066667
0.800000 0.600000 0.066667
0.866667 0.600000 0.066667
0.933333 0.600000 0.066667
1.000000 0.600000 0.066667
0.000000 0.666667 0.066667
0.066667 0.666667 0.066667
0.133333 0.666667 0.066667
0.200000 0.666667 0.066667
0.266667 0.666667 0.066667
0.333333 0.666667 0.066667
0.400000 0.666667 0.066667
0.466667 0.666667 0.066667
0.533333 0.666667 0.066667
0.600000 0.666667 0.066667
0.666667 0.666667 0.066667
0.733333 0.666667 0.066667
0.800000 0.666667 0.066667
0.866667 0.666667 0.066667
0.933333 0.666667 0.066667
1.000000 0.666667 0.066667
0.000000 0.733333 0.066667
0.066667 0.733333 0.066667
0.133333 0.733333 0.066667
0.200000 0.733333 0.066667
0.266667 0.733333 0.066667
0.333333 0.733333 0.066667
0.400000 0.733333 0.066667
0.466667 0.733333 0.066667
0.533333 0.733333 0.066667
0.600000 0.733333 0.066667
0.666667 0.733333 0.066667
0.733333 0.733333 0.066667
0.800000 0.733333 0.066667
0.866667 0.733333 0.066667
0.933333 0.733333 0.066667
1.000000 0.733333 0.066667
0.000000 0.800000 0.066667
0.066667 0.800000 0.066667
0.133333 0.800000 0.066667
0.200000 0.800000 0.066667
0.266667 0.800000 0.066667
0.333333 0.800000 0.066667
0.400000 0.800000 0.066667
0.466667 0.800000 0.066667
0.533333 0.800000 0.066667
0.600000 0.800000 0.066667
0.666667 0.800000 0.066667
0.733333 0.800000 0.066667
0.800000 0.800000 0.066667
0.866667 0.800000 0.066667
0.933333 0.800000 0.066667
1.000000 0.800000 0.066667
0.000000 0.866667 0.066667
0.066667 0.866667 0.066667
0.133333 0.866667 0.066667
0.200000 0.866667 0.066667
0.266667 0.866667 0.066667
0.333333 0.866667 0.066667
0.400000 0.866667 0.066667
0.466667 0.866667 0.066667
0.533333 0.866667 0.066667
0.600000 0.866667 0.066667
0.666667 0.866667 0.066667
0.733333 0.866667 0.066667
0.800000 0.866667 0.066667
0.866667 0.866667 0.066667
0.933333 0.866667 0.066667
1.000000 0.866667 0.066667
0.000000 0.933333 0.066667
0.066667 0.933333 0.066667
0.133333 0.933333 0.066667
0.200000 0.933333 0.066667
0.266667 0.933333 0.066667
0.333333 0.933333 0.066667
0.400000 0.933333 0.066667
0.466667 0.933333 0.066667
0.533333 0.933333 0.066667
0.600000 0.933333 0.066667
0.666667 0.933333 0.066667
0.733333 0.933333 0.066667
0.800000 0.933333 0.066667
0.866667 0.933333 0.066667
0.933333 0.933333 0.066667
1.000000 0.933333 0.066667
0.000000 1.000000 0.066667
0.066667 1.000000 0.066667
0.133333 1.000000 0.066667
0.200000 1.000000 0.066667
0.266667 1.000000 0.066667
0.333333 1.000000 0.066667
0.400000 1.000000 0.066667
0.466667 1.000000 0.066667
0.533333 1.000000 0.066667
0.600000 1.000000 0.066667
0.666667 1.000000 0.066667
0.733333 1.000000 0.066667
0.800000 1.000000 0.066667
0.133333 0.000000 0.933333
0.066667 0.000000 0.933333
0.000000 0.000000 0.933333
1.000000 1.000000 0.866667
0.933333 1.000000 0.866667
0.866667 1.000000 0.866667
0.800000 1.000000 0.866667
0.733333 1.000000 0.866667
0.666667 1.000000 0.866667
0.600000 1.000000 0.866667
0.466667 0.000000 0.133333
0.533333 0.000000 0.133333
0.600000 0.000000 0.133333
0.666667 0.000000 0.133333
0.733333 0.000000 0.133333
0.800000 0.000000 0.133333
0.866667 0.000000 0.133333
0.933333 0.000000 0.133333
1.000000 0.000000 0.133333
1.000000 0.933333 0.866667
0.933333 0.933333 0.866667
0.866667 0.933333 0.866667
0.800000 0.933333 0.866667
0.266667 0.066667 0.133333
0.333333 0.066667 0.133333
0.400000 0.066667 0.133333
0.466667 0.066667 0.133333
0.533333 0.066667 0.133333
0.600000 0.066667 0.133333
0.666667 0.066667 0.133333
0.733333 0.066667 0.133333
0.800000 0.066667 0.133333
0.866667 0.066667 0.133333
0.933333 0.066667 0.133333
1.000000 0.066667 0.133333
0.000000 0.133333 0.133333
0.066667 0.133333 0.133333
0.133333 0.133333 0.133333
0.200000 0.133333 0.133333
0.266667 0.133333 0.133333
0.333333 0.133333 0.133333
0.400000 0.133333 0.133333
0.466667 0.133333 0.133333
0.533333 0.133333 0.133333
0.600000 0.133333 0.133333
0.666667 0.133333 0.133333
0.733333 0.133333 0.133333
0.800000 0.133333 0.133333
0.866667 0.133333 0.133333
0.933333 0.133333 0.133333
1.000000 0.133333 0.133333
0.000000 0.200000 0.133333
0.066667 0.200000 0.133333
0.133333 0.200000 0.133333
0.200000 0.200000 0.133333
0.266667 0.200000 0.133333
0.333333 0.200000 0.133333
0.400000 0.200000 0.133333
0.466667 0.200000 0.133333
0.533333 0.200000 0.133333
0.600000 0.200000 0.133333
0.666667 0.200000 0.133333
0.733333 0.200000 0.133333
0.800000 0.200000 0.133333
0.866667 0.200000 0.133333
0.933333 0.200000 0.133333
1.000000 0.200000 0.133333
0.000000 0.266667 0.133333
0.066667 0.266667 0.133333
0.133333 0.266667 0.133333
0.200000 0.266667 0.133333
0.266667 0.266667 0.133333
0.333333 0.266667 0.133333
0.400000 0.266667 0.133333
0.466667 0.266667 0.133333
0.533333 0.266667 0.133333
0.600000 0.266667 0.133333
0.666667 0.266667 0.133333
0.733333 0.266667 0.133333
0.800000 0.266667 0.133333
0.866667 0.266667 0.133333
0.933333 0.266667 0.133333
1.000000 0.266667 0.133333
0.000000 0.333333 0.133333
0.066667 0.333333 0.133333
0.133333 0.333333 0.133333
0.200000 0.333333 0.133333
0.266667 0.333333 0.133333
0.333333 0.333333 0.133333
0.400000 0.333333 0.133333
0.466667 0.333333 0.133333
0.533333 0.333333 0.133333
0.600000 0.333333 0.133333
0.666667 0.333333 0.133333
0.733333 0.333333 0.133333
0.800000 0.333333 0.133333
0.866667 0.333333 0.133333
0.933333 0.333333 0.133333
1.000000 0.333333 0.133333
0.000000 0.400000 0.133333
0.066667 0.400000 0.133333
0.133333 0.400000 0.133333
0.200000 0.400000 0.133333
0.266667 0.400000 0.133333
0.333333 0.400000 0.133333
0.400000 0.400000 0.133333
0.466667 0.400000 0.133333
0.533333 0.400000 0.133333
0.600000 0.400000 0.133333
0.666667 0.400000 0.133333
0.733333 0.400000 0.133333
0.800000 0.400000 0.133333
0.866667 0.400000 0.133333
0.933333 0.400000 0.133333
1.000000 0.400000 0.133333
0.000000 0.466667 0.133333
0.066667 0.466667 0.133333
0.133333 0.466667 0.133333
0.200000 0.466667 0.133333
0.266667 0.466667 0.133333
0.333333 0.466667 0.133333
0.400000 0.466667 0.133333
0.466667 0.466667 0.133333
0.533333 0.466667 0.133333
0.600000 0.466667 0.133333
0.666667 0.466667 0.133333
0.733333 0.466667 0.133333
0.800000 0.466667 0.133333
0.866667 0.466667 0.133333
0.933333 0.466667 0.133333
1.000000 0.466667 0.133333
0.000000 0.533333 0.133333
0.066667 0.533333 0.133333
0.133333 0.533333 0.133333
0.200000 0.533333 0.133333
0.266667 0.533333 0.133333
0.333333 0.533333 0.133333
0.400000 0.533333 0.133333
0.466667 0.533333 0.133333
0.533333 0.533333 0.133333
0.600000 0.533333 0.133333
0.666667 0.533333 0.133333
0.733333 0.533333 0.133333
0.800000 0.533333 0.133333
0.866667 0.533333 0.133333
0.933333 0.533333 0.133333
1.000000 0.533333 0.133333
0.000000 0.600000 0.133333
0.066667 0.600000 0.133333
0.133333 0.600000 0.133333
0.200000 0.600000 0.133333
0.266667 0.600000 0.133333
0.333333 0.600000 0.133333
0.400000 0.600000 0.133333
0.466667 0.600000 0.133333
0.533333 0.600000 0.133333
0.600000 0.600000 0.133333
0.666667 0.600000 0.133333
0.733333 0.600000 0.133333
0.800000 0.600000 0.133333
0.866667 0.600000 0.133333
0.933333 0.600000 0.133333
1.000000 0.600000 0.133333
0.000000 0.666667 0.133333
0.066667 0.666667 0.133333
0.133333 0.666667 0.133333
0.200000 0.666667 0.133333
0.266667 0.666667 0.133333
0.333333 0.666667 0.133333
0.400000 0.666667 0.133333
0.466667 0.666667 0.133333
0.533333 0.666667 0.133333
0.600000 0.666667 0.133333
0.666667 0.666667 0.133333
0.733333 0.666667 0.133333
0.800000 0.666667 0.133333
0.866667 0.666667 0.133333
0.933333 0.666667 0.133333
1.000000 0.666667 0.133333
0.000000 0.733333 0.133333
0.066667 0.733333 0.133333
0.133333 0.733333 0.133333
0.200000 0.733333 0.133333
0.266667 0.733333 0.133333
0.333333 0.733333 0.133333
0.400000 0.733333 0.133333
0.466667 0.733333 0.133333
0.533333 0.733333 0.133333
0.600000 0.733333 0.133333
0.666667 0.733333 0.133333
0.733333 0.733333 0.133333
0.800000 0.733333 0.133333
0.866667 0.733333 0.133333
0.933333 0.733333 0.133333
1.000000 0.733333 0.133333
0.000000 0.800000 0.133333
0.066667 0.800000 0.133333
0.133333 0.800000 0.133333
0.200000 0.800000 0.133333
0.266667 0.800000 0.133333
0.333333 0.800000 0.133333
0.400000 0.800000 0.133333
0.466667 0.800000 0.133333
0.533333 0.800000 0.133333
0.600000 0.800000 0.133333
0.666667 0.800000 0.133333
0.733333 0.800000 0.133333
0.800000 0.800000 0.133333
0.866667 0.800000 0.133333
0.933333 0.800000 0.133333
1.000000 0.800000 0.133333
0.000000 0.866667 0.133333
0.066667 0.866667 0.133333
0.133333 0.866667 0.133333
0.200000 0.866667 0.133333
0.266667 0.866667 0.133333
0.333333 0.866667 0.133333
0.400000 0.866667 0.133333
0.466667 0.866667 0.133333
0.533333 0.866667 0.133333
0.600000 0.866667 0.133333
0.666667 0.866667 0.133333
0.733333 0.866667 0.133333
0.800000 0.866667 0.133333
0.866667 0.866667 0.133333
0.933333 0.866667 0.133333
1.000000 0.866667 0.133333
0.000000 0.933333 0.133333
0.066667 0.933333 0.133333
0.133333 0.933333 0.133333
0.200000 0.933333 0.133333
0.266667 0.933333 0.133333
0.333333 0.933333 0.133333
0.400000 0.933333 0.133333
0.466667 0.933333 0.133333
0.533333 0.933333 0.133333
0.600000 0.933333 0.133333
0.666667 0.933333 0.133333
0.733333 0.933333 0.133333
0.800000 0.933333 0.133333
0.866667 0.933333 0.133333
0.933333 0.933333 0.133333
1.000000 0.933333 0.133333
0.000000 1.000000 0.133333
0.066667 1.000000 0.133333
0.133333 1.000000 0.133333
0.200000 1.000000 0.133333
0.266667 1.000000 0.133333
0.333333 1.000000 0.133333
0.400000 1.000000 0.133333
0.466667 1.000000 0.133333
0.533333 1.000000 0.133333
0.600000 1.000000 0.133333
0.666667 1.000000 0.133333
0.733333 1.000000 0.133333
0.800000 1.000000 0.133333
0.133333 0.000000 0.866667
0.066667 0.000000 0.866667
0.000000 0.000000 0.866667
1.000000 1.000000 0.800000
0.933333 1.000000 0.800000
0.866667 1.000000 0.800000
0.800000 1.000000 0.800000
0.733333 1.000000 0.800000
0.666667 1.000000 0.800000
0.600000 1.000000 0.800000
0.466667 0.000000 0.200000
0.533333 0.000000 0.200000
0.600000 0.000000 0.200000
0.666667 0.000000 0.200000
0.733333 0.000000 0.200000
0.800000 0.000000 0.200000
0.866667 0.000000 0.200000
0.933333 0.000000 0.200000
1.000000 0.000000 0.200000
1.000000 0.933333 0.800000
0.933333 0.933333 0.800000
0.866667 0.933333 0.800000
0.200000 0.066667 0.200000
0.266667 0.066667 0.200000
0.333333 0.066667 0.200000
0.400000 0.066667 0.200000
0.466667 0.066667 0.200000
0.533333 0.066667 0.200000
0.600000 0.066667 0.200000
0.666667 0.066667 0.200000
0.733333 0.066667 0.200000
0.800000 0.066667 0.200000
0.866667 0.066667 0.200000
0.933333 0.066667 0.200000
1.000000 0.066667 0.200000
0.000000 0.133333 0.200000
0.066667 0.133333 0.200000
0.133333 0.133333 0.200000
0.200000 0.133333 0.200000
0.266667 0.133333 0.200000
0.333333 0.133333 0.200000
0.400000 0.133333 0.200000
0.466667 0.133333 0.200000
0.533333 0.133333 0.200000
0.600000 0.133333 0.200000
0.666667 0.133333 0.200000
0.733333 0.133333 0.200000
0.800000 0.133333 0.200000
0.866667 0.133333 0.200000
0.933333 0.133333 0.200000
1.000000 0.133333 0.200000
0.000000 0.200000 0.200000
0.066667 0.200000 0.200000
0.133333 0.200000 0.200000
0.200000 0.200000 0.200000
0.266667 0.200000 0.200000
0.333333 0.200000 0.200000
0.400000 0.200000 0.200000
0.466667 0.200000 0.200000
0.533333 0.200000 0.200000
0.600000 0.200000 0.200000
0.666667 0.200000 0.200000
0.733333 0.200000 0.200000
0.800000 0.200000 0.200000
0.866667 0.200000 0.200000
0.933333 0.200000 0.200000
1.000000 0.200000 0.200000
0.000000 0.266667 0.200000
0.066667 0.266667 0.200000
0.133333 0.266667 0.200000
0.200000 0.266667 0.200000
0.266667 0.266667 0.200000
0.333333 0.266667 0.200000
0.400000 0.266667 0.200000
0.466667 0.266667 0.200000
0.533333 0.266667 0.200000
0.600000 0.266667 0.200000
0.666667 0.266667 0.200000
0.733333 0.266667 0.200000
0.800000 0.266667 0.200000
0.866667 0.266667 0.200000
0.933333 0.266667 0.200000
1.000000 0.266667 0.200000
0.000000 0.333333 0.200000
0.066667 0.333333 0.200000
0.133333 0.333333 0.200000
0.200000 0.333333 0.200000
0.266667 0.333333 0.200000
0.333333 0.333333 0.200000
0.400000 0.333333 0.200000
0.466667 0.333333 0.200000
0.533333 0.333333 0.200000
0.600000 0.333333 0.200000
0.666667 0.333333 0.200000
0.733333 0.333333 0.200000
0.800000 0.333333 0.200000
0.866667 0.333333 0.200000
0.933333 0.333333 0.200000
1.000000 0.333333 0.200000
0.000000 0.400000 0.200000
0.066667 0.400000 0.200000
0.133333 0.400000 0.200000
0.200000 0.400000 0.200000
0.266667 0.400000 0.200000
0.333333 0.400000 0.200000
0.400000 0.400000 0.200000
0.466667 0.400000 0.200000
0.533333 0.400000 0.200000
0.600000 0.400000 0.200000
0.666667 0.400000 0.200000
0.733333 0.400000 0.200000
0.800000 0.400000 0.200000
0.866667 0.400000 0.200000
0.933333 0.400000 0.200000
1.000000 0.400000 0.200000
0.000000 0.466667 0.200000
0.066667 0.466667 0.200000
0.133333 0.466667 0.200000
0.200000 0.466667 0.200000
0.266667 0.466667 0.200000
0.333333 0.466667 0.200000
