mpv/inverse.cube
TITLE "selective inverse"
LUT_3D_SIZE 6
DOMAIN_MIN 0 0 0
DOMAIN_MAX 1 1 1
1.000000 1.000000 1.000000
0.800000 1.000000 1.000000
0.600000 1.000000 1.000000
0.600000 0.000000 0.000000
0.800000 0.000000 0.000000
1.000000 0.000000 0.000000
0.000000 0.200000 0.000000
0.200000 0.200000 0.000000
0.400000 0.200000 0.000000
0.600000 0.200000 0.000000
0.800000 0.200000 0.000000
1.000000 0.200000 0.000000
0.000000 0.400000 0.000000
0.200000 0.400000 0.000000
0.400000 0.400000 0.000000
0.600000 0.400000 0.000000
0.800000 0.400000 0.000000
1.000000 0.400000 0.000000
0.000000 0.600000 0.000000
0.200000 0.600000 0.000000
0.400000 0.600000 0.000000
0.600000 0.600000 0.000000
0.800000 0.600000 0.000000
1.000000 0.600000 0.000000
0.000000 0.800000 0.000000
0.200000 0.800000 0.000000
0.400000 0.800000 0.000000
0.600000 0.800000 0.000000
0.800000 0.800000 0.000000
1.000000 0.800000 0.000000
0.000000 1.000000 0.000000
0.200000 1.000000 0.000000
0.400000 1.000000 0.000000
0.600000 1.000000 0.000000
0.800000 1.000000 0.000000
0.000000 0.000000 1.000000
1.000000 1.000000 0.800000
0.800000 1.000000 0.800000
0.600000 1.000000 0.800000
0.600000 0.000000 0.200000
0.800000 0.000000 0.200000
1.000000 0.000000 0.200000
0.000000 0.200000 0.200000
0.200000 0.200000 0.200000
0.400000 0.200000 0.200000
0.600000 0.200000 0.200000
0.800000 0.200000 0.200000
1.000000 0.200000 0.200000
0.000000 0.400000 0.200000
0.200000 0.400000 0.200000
0.400000 0.400000 0.200000
0.600000 0.400000 0.200000
0.800000 0.400000 0.200000
1.000000 0.400000 0.200000
0.000000 0.600000 0.200000
0.200000 0.600000 0.200000
0.400000 0.600000 0.200000
0.600000 0.600000 0.200000
0.800000 0.600000 0.200000
1.000000 0.600000 0.200000
0.000000 0.800000 0.200000
0.200000 0.800000 0.200000
0.400000 0.800000 0.200000
0.600000 0.800000 0.200000
0.800000 0.800000 0.200000
1.000000 0.800000 0.200000
0.000000 1.000000 0.200000
0.200000 1.000000 0.200000
0.400000 1.000000 0.200000
0.600000 1.000000 0.200000
0.800000 1.000000 0.200000
0.000000 0.000000 0.800000
1.000000 1.000000 0.600000
0.800000 1.000000 0.600000
0.400000 0.000000 0.400000
0.600000 0.000000 0.400000
0.800000 0.000000 0.400000
1.000000 0.000000 0.400000
0.000000 0.200000 0.400000
0.200000 0.200000 0.400000
0.400000 0.200000 0.400000
0.600000 0.200000 0.400000
0.800000 0.200000 0.400000
1.000000 0.200000 0.400000
0.000000 0.400000 0.400000
0.200000 0.400000 0.400000
0.400000 0.400000 0.400000
0.600000 0.400000 0.400000
0.800000 0.400000 0.400000
1.000000 0.400000 0.400000
0.000000 0.600000 0.400000
0.200000 0.600000 0.400000
0.400000 0.600000 0.400000
0.600000 0.600000 0.400000
0.800000 0.600000 0.400000
1.000000 0.600000 0.400000
0.000000 0.800000 0.400000
0.200000 0.800000 0.400000
0.400000 0.800000 0.400000
0.600000 0.800000 0.400000
0.800000 0.800000 0.400000
1.000000 0.800000 0.400000
0.000000 1.000000 0.400000
0.200000 1.000000 0.400000
0.400000 1.000000 0.400000
0.600000 1.000000 0.400000
0.200000 0.000000 0.600000
0.000000 0.000000 0.600000
1.000000 1.000000 0.400000
0.800000 1.000000 0.400000
0.400000 0.000000 0.600000
0.600000 0.000000 0.600000
0.800000 0.000000 0.600000
1.000000 0.000000 0.600000
0.000000 0.200000 0.600000
0.200000 0.200000 0.600000
0.400000 0.200000 0.600000
0.600000 0.200000 0.600000
0.800000 0.200000 0.600000
1.000000 0.200000 0.600000
0.000000 0.400000 0.600000
0.200000 0.400000 0.600000
0.400000 0.400000 0.600000
0.600000 0.400000 0.600000
0.800000 0.400000 0.600000
1.000000 0.400000 0.600000
0.000000 0.600000 0.600000
0.200000 0.600000 0.600000
0.400000 0.600000 0.600000
0.600000 0.600000 0.600000
0.800000 0.600000 0.600000
1.000000 0.600000 0.600000
0.000000 0.800000 0.600000
0.200000 0.800000 0.600000
0.400000 0.800000 0.600000
0.600000 0.800000 0.600000
0.800000 0.800000 0.600000
1.000000 0.800000 0.600000
0.000000 1.000000 0.600000
0.200000 1.000000 0.600000
0.400000 1.000000 0.600000
0.600000 1.000000 0.600000
0.200000 0.000000 0.400000
0.000000 0.000000 0.400000
1.000000 1.000000 0.200000
0.200000 0.000000 0.800000
0.400000 0.000000 0.800000
0.600000 0.000000 0.800000
0.800000 0.000000 0.800000
1.000000 0.000000 0.800000
0.000000 0.200000 0.800000
0.200000 0.200000 0.800000
0.400000 0.200000 0.800000
0.600000 0.200000 0.800000
0.800000 0.200000 0.800000
1.000000 0.200000 0.800000
0.000000 0.400000 0.800000
0.200000 0.400000 0.800000
0.400000 0.400000 0.800000
0.600000 0.400000 0.800000
0.800000 0.400000 0.800000
1.000000 0.400000 0.800000
0.000000 0.600000 0.800000
0.200000 0.600000 0.800000
0.400000 0.600000 0.800000
0.600000 0.600000 0.800000
0.800000 0.600000 0.800000
1.000000 0.600000 0.800000
0.000000 0.800000 0.800000
0.200000 0.800000 0.800000
0.400000 0.800000 0.800000
0.600000 0.800000 0.800000
0.800000 0.800000 0.800000
1.000000 0.800000 0.800000
0.000000 1.000000 0.800000
0.200000 1.000000 0.800000
0.400000 1.000000 0.800000
0.400000 0.000000 0.200000
0.200000 0.000000 0.200000
0.000000 0.000000 0.200000
1.000000 1.000000 0.000000
0.200000 0.000000 1.000000
0.400000 0.000000 1.000000
0.600000 0.000000 1.000000
0.800000 0.000000 1.000000
1.000000 0.000000 1.000000
0.000000 0.200000 1.000000
0.200000 0.200000 1.000000
0.400000 0.200000 1.000000
0.600000 0.200000 1.000000
0.800000 0.200000 1.000000
1.000000 0.200000 1.000000
0.000000 0.400000 1.000000
0.200000 0.400000 1.000000
0.400000 0.400000 1.000000
0.600000 0.400000 1.000000
0.800000 0.400000 1.000000
1.000000 0.400000 1.000000
0.000000 0.600000 1.000000
0.200000 0.600000 1.000000
0.400000 0.600000 1.000000
0.600000 0.600000 1.000000
0.800000 0.600000 1.000000
1.000000 0.600000 1.000000
0.000000 0.800000 1.000000
0.200000 0.800000 1.000000
0.400000 0.800000 1.000000
0.600000 0.800000 1.000000
0.800000 0.800000 1.000000
1.000000 0.800000 1.000000
0.000000 1.000000 1.000000
0.200000 1.000000 1.000000
0.400000 1.000000 1.000000
0.400000 0.000000 0.000000
0.200000 0.000000 0.000000
0.000000 0.000000 0.000000
