mpv/inverse-rainbow-000.cube
TITLE "selective rainbow 0° (100 cycles)"
LUT_3D_SIZE 16
DOMAIN_MIN 0 0 0
DOMAIN_MAX 1 1 1
1.000000 0.000000 0.000000
0.000000 1.000000 0.372093
0.883721 1.000000 0.000000
0.000000 1.000000 0.232558
1.000000 0.000000 0.697674
0.883721 1.000000 0.000000
0.000000 1.000000 0.093023
0.000000 1.000000 0.232558
0.533333 0.000000 0.000000
0.600000 0.000000 0.000000
0.666667 0.000000 0.000000
0.733333 0.000000 0.000000
0.800000 0.000000 0.000000
0.866667 0.000000 0.000000
0.933333 0.000000 0.000000
1.000000 0.000000 0.000000
1.000000 0.976744 0.000000
0.000000 0.372093 1.000000
1.000000 0.000000 0.976744
0.000000 1.000000 0.790698
0.266667 0.066667 0.000000
0.333333 0.066667 0.000000
0.400000 0.066667 0.000000
0.466667 0.066667 0.000000
0.533333 0.066667 0.000000
0.600000 0.066667 0.000000
0.666667 0.066667 0.000000
0.733333 0.066667 0.000000
0.800000 0.066667 0.000000
0.866667 0.066667 0.000000
0.933333 0.066667 0.000000
1.000000 0.066667 0.000000
1.000000 0.279070 0.000000
0.066667 0.133333 0.000000
0.133333 0.133333 0.000000
0.200000 0.133333 0.000000
0.266667 0.133333 0.000000
0.333333 0.133333 0.000000
0.400000 0.133333 0.000000
0.466667 0.133333 0.000000
0.533333 0.133333 0.000000
0.600000 0.133333 0.000000
0.666667 0.133333 0.000000
0.733333 0.133333 0.000000
0.800000 0.133333 0.000000
0.866667 0.133333 0.000000
0.933333 0.133333 0.000000
1.000000 0.133333 0.000000
0.000000 0.200000 0.000000
0.066667 0.200000 0.000000
0.133333 0.200000 0.000000
0.200000 0.200000 0.000000
0.266667 0.200000 0.000000
0.333333 0.200000 0.000000
0.400000 0.200000 0.000000
0.466667 0.200000 0.000000
0.533333 0.200000 0.000000
0.600000 0.200000 0.000000
0.666667 0.200000 0.000000
0.733333 0.200000 0.000000
0.800000 0.200000 0.000000
0.866667 0.200000 0.000000
0.933333 0.200000 0.000000
1.000000 0.200000 0.000000
0.000000 0.266667 0.000000
0.066667 0.266667 0.000000
0.133333 0.266667 0.000000
0.200000 0.266667 0.000000
0.266667 0.266667 0.000000
0.333333 0.266667 0.000000
0.400000 0.266667 0.000000
0.466667 0.266667 0.000000
0.533333 0.266667 0.000000
0.600000 0.266667 0.000000
0.666667 0.266667 0.000000
0.733333 0.266667 0.000000
0.800000 0.266667 0.000000
0.866667 0.266667 0.000000
0.933333 0.266667 0.000000
1.000000 0.266667 0.000000
0.000000 0.333333 0.000000
0.066667 0.333333 0.000000
0.133333 0.333333 0.000000
0.200000 0.333333 0.000000
0.266667 0.333333 0.000000
0.333333 0.333333 0.000000
0.400000 0.333333 0.000000
0.466667 0.333333 0.000000
0.533333 0.333333 0.000000
0.600000 0.333333 0.000000
0.666667 0.333333 0.000000
0.733333 0.333333 0.000000
0.800000 0.333333 0.000000
0.866667 0.333333 0.000000
0.933333 0.333333 0.000000
1.000000 0.333333 0.000000
0.000000 0.400000 0.000000
0.066667 0.400000 0.000000
0.133333 0.400000 0.000000
0.200000 0.400000 0.000000
0.266667 0.400000 0.000000
0.333333 0.400000 0.000000
0.400000 0.400000 0.000000
0.466667 0.400000 0.000000
0.533333 0.400000 0.000000
0.600000 0.400000 0.000000
0.666667 0.400000 0.000000
0.733333 0.400000 0.000000
0.800000 0.400000 0.000000
0.866667 0.400000 0.000000
0.933333 0.400000 0.000000
1.000000 0.400000 0.000000
0.000000 0.466667 0.000000
0.066667 0.466667 0.000000
0.133333 0.466667 0.000000
0.200000 0.466667 0.000000
0.266667 0.466667 0.000000
0.333333 0.466667 0.000000
0.400000 0.466667 0.000000
0.466667 0.466667 0.000000
0.533333 0.466667 0.000000
0.600000 0.466667 0.000000
0.666667 0.466667 0.000000
0.733333 0.466667 0.000000
0.800000 0.466667 0.000000
0.866667 0.466667 0.000000
0.933333 0.466667 0.000000
1.000000 0.466667 0.000000
0.000000 0.533333 0.000000
0.066667 0.533333 0.000000
0.133333 0.533333 0.000000
0.200000 0.533333 0.000000
0.266667 0.533333 0.000000
0.333333 0.533333 0.000000
0.400000 0.533333 0.000000
0.466667 0.533333 0.000000
0.533333 0.533333 0.000000
0.600000 0.533333 0.000000
0.666667 0.533333 0.000000
0.733333 0.533333 0.000000
0.800000 0.533333 0.000000
0.866667 0.533333 0.000000
0.933333 0.533333 0.000000
1.000000 0.533333 0.000000
0.000000 0.600000 0.000000
0.066667 0.600000 0.000000
0.133333 0.600000 0.000000
0.200000 0.600000 0.000000
0.266667 0.600000 0.000000
0.333333 0.600000 0.000000
0.400000 0.600000 0.000000
0.466667 0.600000 0.000000
0.533333 0.600000 0.000000
0.600000 0.600000 0.000000
0.666667 0.600000 0.000000
0.733333 0.600000 0.000000
0.800000 0.600000 0.000000
0.866667 0.600000 0.000000
0.933333 0.600000 0.000000
1.000000 0.600000 0.000000
0.000000 0.666667 0.000000
0.066667 0.666667 0.000000
0.133333 0.666667 0.000000
0.200000 0.666667 0.000000
0.266667 0.666667 0.000000
0.333333 0.666667 0.000000
0.400000 0.666667 0.000000
0.466667 0.666667 0.000000
0.533333 0.666667 0.000000
0.600000 0.666667 0.000000
0.666667 0.666667 0.000000
0.733333 0.666667 0.000000
0.800000 0.666667 0.000000
0.866667 0.666667 0.000000
0.933333 0.666667 0.000000
1.000000 0.666667 0.000000
0.000000 0.733333 0.000000
0.066667 0.733333 0.000000
0.133333 0.733333 0.000000
0.200000 0.733333 0.000000
0.266667 0.733333 0.000000
0.333333 0.733333 0.000000
0.400000 0.733333 0.000000
0.466667 0.733333 0.000000
0.533333 0.733333 0.000000
0.600000 0.733333 0.000000
0.666667 0.733333 0.000000
0.733333 0.733333 0.000000
0.800000 0.733333 0.000000
0.866667 0.733333 0.000000
0.933333 0.733333 0.000000
1.000000 0.733333 0.000000
0.000000 0.800000 0.000000
0.066667 0.800000 0.000000
0.133333 0.800000 0.000000
0.200000 0.800000 0.000000
0.266667 0.800000 0.000000
0.333333 0.800000 0.000000
0.400000 0.800000 0.000000
0.466667 0.800000 0.000000
0.533333 0.800000 0.000000
0.600000 0.800000 0.000000
0.666667 0.800000 0.000000
0.733333 0.800000 0.000000
0.800000 0.800000 0.000000
0.866667 0.800000 0.000000
0.933333 0.800000 0.000000
1.000000 0.800000 0.000000
0.000000 0.866667 0.000000
0.066667 0.866667 0.000000
0.133333 0.866667 0.000000
0.200000 0.866667 0.000000
0.266667 0.866667 0.000000
0.333333 0.866667 0.000000
0.400000 0.866667 0.000000
0.466667 0.866667 0.000000
0.533333 0.866667 0.000000
0.600000 0.866667 0.000000
0.666667 0.866667 0.000000
0.733333 0.866667 0.000000
0.800000 0.866667 0.000000
0.866667 0.866667 0.000000
0.933333 0.866667 0.000000
1.000000 0.866667 0.000000
0.000000 0.933333 0.000000
0.066667 0.933333 0.000000
0.133333 0.933333 0.000000
0.200000 0.933333 0.000000
0.266667 0.933333 0.000000
0.333333 0.933333 0.000000
0.400000 0.933333 0.000000
0.466667 0.933333 0.000000
0.533333 0.933333 0.000000
0.600000 0.933333 0.000000
0.666667 0.933333 0.000000
0.733333 0.933333 0.000000
0.800000 0.933333 0.000000
0.866667 0.933333 0.000000
0.933333 0.933333 0.000000
1.000000 0.933333 0.000000
0.000000 1.000000 0.000000
0.066667 1.000000 0.000000
0.133333 1.000000 0.000000
0.200000 1.000000 0.000000
0.266667 1.000000 0.000000
0.333333 1.000000 0.000000
0.400000 1.000000 0.000000
0.466667 1.000000 0.000000
0.533333 1.000000 0.000000
0.600000 1.000000 0.000000
0.666667 1.000000 0.000000
0.733333 1.000000 0.000000
0.800000 1.000000 0.000000
0.866667 1.000000 0.000000
1.000000 0.000000 0.418605
0.000000 0.651163 1.000000
0.000000 1.000000 0.790698
0.046512 1.000000 0.000000
0.000000 0.511628 1.000000
0.604651 1.000000 0.000000
0.046512 0.000000 1.000000
1.000000 0.000000 0.558140
0.000000 0.790698 1.000000
0.466667 0.000000 0.066667
0.533333 0.000000 0.066667
0.600000 0.000000 0.066667
0.666667 0.000000 0.066667
0.733333 0.000000 0.066667
0.800000 0.000000 0.066667
0.866667 0.000000 0.066667
0.933333 0.000000 0.066667
1.000000 0.000000 0.066667
0.000000 1.000000 0.930233
1.000000 0.000000 0.837209
0.000000 0.651163 1.000000
0.000000 0.093023 1.000000
0.266667 0.066667 0.066667
0.333333 0.066667 0.066667
0.400000 0.066667 0.066667
0.466667 0.066667 0.066667
0.533333 0.066667 0.066667
0.600000 0.066667 0.066667
0.666667 0.066667 0.066667
0.733333 0.066667 0.066667
0.800000 0.066667 0.066667
0.866667 0.066667 0.066667
0.933333 0.066667 0.066667
1.000000 0.066667 0.066667
0.000000 0.133333 0.066667
0.066667 0.133333 0.066667
0.133333 0.133333 0.066667
0.200000 0.133333 0.066667
0.266667 0.133333 0.066667
0.333333 0.133333 0.066667
0.400000 0.133333 0.066667
0.466667 0.133333 0.066667
0.533333 0.133333 0.066667
0.600000 0.133333 0.066667
0.666667 0.133333 0.066667
0.733333 0.133333 0.066667
0.800000 0.133333 0.066667
0.866667 0.133333 0.066667
0.933333 0.133333 0.066667
1.000000 0.133333 0.066667
0.000000 0.200000 0.066667
0.066667 0.200000 0.066667
0.133333 0.200000 0.066667
0.200000 0.200000 0.066667
0.266667 0.200000 0.066667
0.333333 0.200000 0.066667
0.400000 0.200000 0.066667
0.466667 0.200000 0.066667
0.533333 0.200000 0.066667
0.600000 0.200000 0.066667
0.666667 0.200000 0.066667
0.733333 0.200000 0.066667
0.800000 0.200000 0.066667
0.866667 0.200000 0.066667
0.933333 0.200000 0.066667
1.000000 0.200000 0.066667
0.000000 0.266667 0.066667
0.066667 0.266667 0.066667
0.133333 0.266667 0.066667
0.200000 0.266667 0.066667
0.266667 0.266667 0.066667
0.333333 0.266667 0.066667
0.400000 0.266667 0.066667
0.466667 0.266667 0.066667
0.533333 0.266667 0.066667
0.600000 0.266667 0.066667
0.666667 0.266667 0.066667
0.733333 0.266667 0.066667
0.800000 0.266667 0.066667
0.866667 0.266667 0.066667
0.933333 0.266667 0.066667
1.000000 0.266667 0.066667
0.000000 0.333333 0.066667
0.066667 0.333333 0.066667
0.133333 0.333333 0.066667
0.200000 0.333333 0.066667
0.266667 0.333333 0.066667
0.333333 0.333333 0.066667
0.400000 0.333333 0.066667
0.466667 0.333333 0.066667
0.533333 0.333333 0.066667
0.600000 0.333333 0.066667
0.666667 0.333333 0.066667
0.733333 0.333333 0.066667
0.800000 0.333333 0.066667
0.866667 0.333333 0.066667
0.933333 0.333333 0.066667
1.000000 0.333333 0.066667
0.000000 0.400000 0.066667
0.066667 0.400000 0.066667
0.133333 0.400000 0.066667
0.200000 0.400000 0.066667
0.266667 0.400000 0.066667
0.333333 0.400000 0.066667
0.400000 0.400000 0.066667
0.466667 0.400000 0.066667
0.533333 0.400000 0.066667
0.600000 0.400000 0.066667
0.666667 0.400000 0.066667
0.733333 0.400000 0.066667
0.800000 0.400000 0.066667
0.866667 0.400000 0.066667
0.933333 0.400000 0.066667
1.000000 0.400000 0.066667
0.000000 0.466667 0.066667
0.066667 0.466667 0.066667
0.133333 0.466667 0.066667
0.200000 0.466667 0.066667
0.266667 0.466667 0.066667
0.333333 0.466667 0.066667
0.400000 0.466667 0.066667
0.466667 0.466667 0.066667
0.533333 0.466667 0.066667
0.600000 0.466667 0.066667
0.666667 0.466667 0.066667
0.733333 0.466667 0.066667
0.800000 0.466667 0.066667
0.866667 0.466667 0.066667
0.933333 0.466667 0.066667
1.000000 0.466667 0.066667
0.000000 0.533333 0.066667
0.066667 0.533333 0.066667
0.133333 0.533333 0.066667
0.200000 0.533333 0.066667
0.266667 0.533333 0.066667
0.333333 0.533333 0.066667
0.400000 0.533333 0.066667
0.466667 0.533333 0.066667
0.533333 0.533333 0.066667
0.600000 0.533333 0.066667
0.666667 0.533333 0.066667
0.733333 0.533333 0.066667
0.800000 0.533333 0.066667
0.866667 0.533333 0.066667
0.933333 0.533333 0.066667
1.000000 0.533333 0.066667
0.000000 0.600000 0.066667
0.066667 0.600000 0.066667
0.133333 0.600000 0.066667
0.200000 0.600000 0.066667
0.266667 0.600000 0.066667
0.333333 0.600000 0.066667
0.400000 0.600000 0.066667
0.466667 0.600000 0.066667
0.533333 0.600000 0.066667
0.600000 0.600000 0.066667
0.666667 0.600000 0.066667
0.733333 0.600000 0.066667
0.800000 0.600000 0.066667
0.866667 0.600000 0.066667
0.933333 0.600000 0.066667
1.000000 0.600000 0.066667
0.000000 0.666667 0.066667
0.066667 0.666667 0.066667
0.133333 0.666667 0.066667
0.200000 0.666667 0.066667
0.266667 0.666667 0.066667
0.333333 0.666667 0.066667
0.400000 0.666667 0.066667
0.466667 0.666667 0.066667
0.533333 0.666667 0.066667
0.600000 0.666667 0.066667
0.666667 0.666667 0.066667
0.733333 0.666667 0.066667
0.800000 0.666667 0.066667
0.866667 0.666667 0.066667
0.933333 0.666667 0.066667
1.000000 0.666667 0.066667
0.000000 0.733333 0.066667
0.066667 0.733333 0.066667
0.133333 0.733333 0.066667
0.200000 0.733333 0.066667
0.266667 0.733333 0.066667
0.333333 0.733333 0.066667
0.400000 0.733333 0.066667
0.466667 0.733333 0.066667
0.533333 0.733333 0.066667
0.600000 0.733333 0.066667
0.666667 0.733333 0.066667
0.733333 0.733333 0.066667
0.800000 0.733333 0.066667
0.866667 0.733333 0.066667
0.933333 0.733333 0.066667
1.000000 0.733333 0.066667
0.000000 0.800000 0.066667
0.066667 0.800000 0.066667
0.133333 0.800000 0.066667
0.200000 0.800000 0.066667
0.266667 0.800000 0.066667
0.333333 0.800000 0.066667
0.400000 0.800000 0.066667
0.466667 0.800000 0.066667
0.533333 0.800000 0.066667
0.600000 0.800000 0.066667
0.666667 0.800000 0.066667
0.733333 0.800000 0.066667
0.800000 0.800000 0.066667
0.866667 0.800000 0.066667
0.933333 0.800000 0.066667
1.000000 0.800000 0.066667
0.000000 0.866667 0.066667
0.066667 0.866667 0.066667
0.133333 0.866667 0.066667
0.200000 0.866667 0.066667
0.266667 0.866667 0.066667
0.333333 0.866667 0.066667
0.400000 0.866667 0.066667
0.466667 0.866667 0.066667
0.533333 0.866667 0.066667
0.600000 0.866667 0.066667
0.666667 0.866667 0.066667
0.733333 0.866667 0.066667
0.800000 0.866667 0.066667
0.866667 0.866667 0.066667
0.933333 0.866667 0.066667
1.000000 0.866667 0.066667
0.000000 0.933333 0.066667
0.066667 0.933333 0.066667
0.133333 0.933333 0.066667
0.200000 0.933333 0.066667
0.266667 0.933333 0.066667
0.333333 0.933333 0.066667
0.400000 0.933333 0.066667
0.466667 0.933333 0.066667
0.533333 0.933333 0.066667
0.600000 0.933333 0.066667
0.666667 0.933333 0.066667
0.733333 0.933333 0.066667
0.800000 0.933333 0.066667
0.866667 0.933333 0.066667
0.933333 0.933333 0.066667
1.000000 0.933333 0.066667
0.000000 1.000000 0.066667
0.066667 1.000000 0.066667
0.133333 1.000000 0.066667
0.200000 1.000000 0.066667
0.266667 1.000000 0.066667
0.333333 1.000000 0.066667
0.400000 1.000000 0.066667
0.466667 1.000000 0.066667
0.533333 1.000000 0.066667
0.600000 1.000000 0.066667
0.666667 1.000000 0.066667
0.733333 1.000000 0.066667
0.800000 1.000000 0.066667
0.000000 0.651163 1.000000
1.000000 0.697674 0.000000
0.325581 1.000000 0.000000
1.000000 0.000000 0.418605
0.465116 1.000000 0.000000
1.000000 0.000000 0.139535
0.000000 0.651163 1.000000
1.000000 0.000000 0.418605
0.000000 0.232558 1.000000
0.325581 0.000000 1.000000
0.466667 0.000000 0.133333
0.533333 0.000000 0.133333
0.600000 0.000000 0.133333
0.666667 0.000000 0.133333
0.733333 0.000000 0.133333
0.800000 0.000000 0.133333
0.866667 0.000000 0.133333
0.933333 0.000000 0.133333
1.000000 0.000000 0.133333
0.325581 1.000000 0.000000
0.000000 0.511628 1.000000
0.465116 0.000000 1.000000
0.604651 0.000000 1.000000
0.266667 0.066667 0.133333
0.333333 0.066667 0.133333
0.400000 0.066667 0.133333
0.466667 0.066667 0.133333
0.533333 0.066667 0.133333
0.600000 0.066667 0.133333
0.666667 0.066667 0.133333
0.733333 0.066667 0.133333
0.800000 0.066667 0.133333
0.866667 0.066667 0.133333
0.933333 0.066667 0.133333
1.000000 0.066667 0.133333
0.000000 0.133333 0.133333
0.066667 0.133333 0.133333
0.133333 0.133333 0.133333
0.200000 0.133333 0.133333
0.266667 0.133333 0.133333
0.333333 0.133333 0.133333
0.400000 0.133333 0.133333
0.466667 0.133333 0.133333
0.533333 0.133333 0.133333
0.600000 0.133333 0.133333
0.666667 0.133333 0.133333
0.733333 0.133333 0.133333
0.800000 0.133333 0.133333
0.866667 0.133333 0.133333
0.933333 0.133333 0.133333
1.000000 0.133333 0.133333
0.000000 0.200000 0.133333
0.066667 0.200000 0.133333
0.133333 0.200000 0.133333
0.200000 0.200000 0.133333
0.266667 0.200000 0.133333
0.333333 0.200000 0.133333
0.400000 0.200000 0.133333
0.466667 0.200000 0.133333
0.533333 0.200000 0.133333
0.600000 0.200000 0.133333
0.666667 0.200000 0.133333
0.733333 0.200000 0.133333
0.800000 0.200000 0.133333
0.866667 0.200000 0.133333
0.933333 0.200000 0.133333
1.000000 0.200000 0.133333
0.000000 0.266667 0.133333
0.066667 0.266667 0.133333
0.133333 0.266667 0.133333
0.200000 0.266667 0.133333
0.266667 0.266667 0.133333
0.333333 0.266667 0.133333
0.400000 0.266667 0.133333
0.466667 0.266667 0.133333
0.533333 0.266667 0.133333
0.600000 0.266667 0.133333
0.666667 0.266667 0.133333
0.733333 0.266667 0.133333
0.800000 0.266667 0.133333
0.866667 0.266667 0.133333
0.933333 0.266667 0.133333
1.000000 0.266667 0.133333
0.000000 0.333333 0.133333
0.066667 0.333333 0.133333
0.133333 0.333333 0.133333
0.200000 0.333333 0.133333
0.266667 0.333333 0.133333
0.333333 0.333333 0.133333
0.400000 0.333333 0.133333
0.466667 0.333333 0.133333
0.533333 0.333333 0.133333
0.600000 0.333333 0.133333
0.666667 0.333333 0.133333
0.733333 0.333333 0.133333
0.800000 0.333333 0.133333
0.866667 0.333333 0.133333
0.933333 0.333333 0.133333
1.000000 0.333333 0.133333
0.000000 0.400000 0.133333
0.066667 0.400000 0.133333
0.133333 0.400000 0.133333
0.200000 0.400000 0.133333
0.266667 0.400000 0.133333
0.333333 0.400000 0.133333
0.400000 0.400000 0.133333
0.466667 0.400000 0.133333
0.533333 0.400000 0.133333
0.600000 0.400000 0.133333
0.666667 0.400000 0.133333
0.733333 0.400000 0.133333
0.800000 0.400000 0.133333
0.866667 0.400000 0.133333
0.933333 0.400000 0.133333
1.000000 0.400000 0.133333
0.000000 0.466667 0.133333
0.066667 0.466667 0.133333
0.133333 0.466667 0.133333
0.200000 0.466667 0.133333
0.266667 0.466667 0.133333
0.333333 0.466667 0.133333
0.400000 0.466667 0.133333
0.466667 0.466667 0.133333
0.533333 0.466667 0.133333
0.600000 0.466667 0.133333
0.666667 0.466667 0.133333
0.733333 0.466667 0.133333
0.800000 0.466667 0.133333
0.866667 0.466667 0.133333
0.933333 0.466667 0.133333
1.000000 0.466667 0.133333
0.000000 0.533333 0.133333
0.066667 0.533333 0.133333
0.133333 0.533333 0.133333
0.200000 0.533333 0.133333
0.266667 0.533333 0.133333
0.333333 0.533333 0.133333
0.400000 0.533333 0.133333
0.466667 0.533333 0.133333
0.533333 0.533333 0.133333
0.600000 0.533333 0.133333
0.666667 0.533333 0.133333
0.733333 0.533333 0.133333
0.800000 0.533333 0.133333
0.866667 0.533333 0.133333
0.933333 0.533333 0.133333
1.000000 0.533333 0.133333
0.000000 0.600000 0.133333
0.066667 0.600000 0.133333
0.133333 0.600000 0.133333
0.200000 0.600000 0.133333
0.266667 0.600000 0.133333
0.333333 0.600000 0.133333
0.400000 0.600000 0.133333
0.466667 0.600000 0.133333
0.533333 0.600000 0.133333
0.600000 0.600000 0.133333
0.666667 0.600000 0.133333
0.733333 0.600000 0.133333
0.800000 0.600000 0.133333
0.866667 0.600000 0.133333
0.933333 0.600000 0.133333
1.000000 0.600000 0.133333
0.000000 0.666667 0.133333
0.066667 0.666667 0.133333
0.133333 0.666667 0.133333
0.200000 0.666667 0.133333
0.266667 0.666667 0.133333
0.333333 0.666667 0.133333
0.400000 0.666667 0.133333
0.466667 0.666667 0.133333
0.533333 0.666667 0.133333
0.600000 0.666667 0.133333
0.666667 0.666667 0.133333
0.733333 0.666667 0.133333
0.800000 0.666667 0.133333
0.866667 0.666667 0.133333
0.933333 0.666667 0.133333
1.000000 0.666667 0.133333
0.000000 0.733333 0.133333
0.066667 0.733333 0.133333
0.133333 0.733333 0.133333
0.200000 0.733333 0.133333
0.266667 0.733333 0.133333
0.333333 0.733333 0.133333
0.400000 0.733333 0.133333
0.466667 0.733333 0.133333
0.533333 0.733333 0.133333
0.600000 0.733333 0.133333
0.666667 0.733333 0.133333
0.733333 0.733333 0.133333
0.800000 0.733333 0.133333
0.866667 0.733333 0.133333
0.933333 0.733333 0.133333
1.000000 0.733333 0.133333
0.000000 0.800000 0.133333
0.066667 0.800000 0.133333
0.133333 0.800000 0.133333
0.200000 0.800000 0.133333
0.266667 0.800000 0.133333
0.333333 0.800000 0.133333
0.400000 0.800000 0.133333
0.466667 0.800000 0.133333
0.533333 0.800000 0.133333
0.600000 0.800000 0.133333
0.666667 0.800000 0.133333
0.733333 0.800000 0.133333
0.800000 0.800000 0.133333
0.866667 0.800000 0.133333
0.933333 0.800000 0.133333
1.000000 0.800000 0.133333
0.000000 0.866667 0.133333
0.066667 0.866667 0.133333
0.133333 0.866667 0.133333
0.200000 0.866667 0.133333
0.266667 0.866667 0.133333
0.333333 0.866667 0.133333
0.400000 0.866667 0.133333
0.466667 0.866667 0.133333
0.533333 0.866667 0.133333
0.600000 0.866667 0.133333
0.666667 0.866667 0.133333
0.733333 0.866667 0.133333
0.800000 0.866667 0.133333
0.866667 0.866667 0.133333
0.933333 0.866667 0.133333
1.000000 0.866667 0.133333
0.000000 0.933333 0.133333
0.066667 0.933333 0.133333
0.133333 0.933333 0.133333
0.200000 0.933333 0.133333
0.266667 0.933333 0.133333
0.333333 0.933333 0.133333
0.400000 0.933333 0.133333
0.466667 0.933333 0.133333
0.533333 0.933333 0.133333
0.600000 0.933333 0.133333
0.666667 0.933333 0.133333
0.733333 0.933333 0.133333
0.800000 0.933333 0.133333
0.866667 0.933333 0.133333
0.933333 0.933333 0.133333
1.000000 0.933333 0.133333
0.000000 1.000000 0.133333
0.066667 1.000000 0.133333
0.133333 1.000000 0.133333
0.200000 1.000000 0.133333
0.266667 1.000000 0.133333
0.333333 1.000000 0.133333
0.400000 1.000000 0.133333
0.466667 1.000000 0.133333
0.533333 1.000000 0.133333
0.600000 1.000000 0.133333
0.666667 1.000000 0.133333
0.733333 1.000000 0.133333
0.800000 1.000000 0.133333
0.744186 1.000000 0.000000
1.000000 0.000000 0.976744
0.000000 0.790698 1.000000
1.000000 0.000000 0.837209
0.000000 0.093023 1.000000
1.000000 0.000000 0.976744
0.000000 1.000000 0.093023
0.000000 0.093023 1.000000
0.883721 0.000000 1.000000
1.000000 0.000000 0.976744
0.466667 0.000000 0.200000
0.533333 0.000000 0.200000
0.600000 0.000000 0.200000
0.666667 0.000000 0.200000
0.733333 0.000000 0.200000
0.800000 0.000000 0.200000
0.866667 0.000000 0.200000
0.933333 0.000000 0.200000
1.000000 0.000000 0.200000
0.000000 0.790698 1.000000
0.604651 0.000000 1.000000
0.000000 1.000000 0.372093
0.200000 0.066667 0.200000
0.266667 0.066667 0.200000
0.333333 0.066667 0.200000
0.400000 0.066667 0.200000
0.466667 0.066667 0.200000
0.533333 0.066667 0.200000
0.600000 0.066667 0.200000
0.666667 0.066667 0.200000
0.733333 0.066667 0.200000
0.800000 0.066667 0.200000
0.866667 0.066667 0.200000
0.933333 0.066667 0.200000
1.000000 0.066667 0.200000
0.000000 0.133333 0.200000
0.066667 0.133333 0.200000
0.133333 0.133333 0.200000
0.200000 0.133333 0.200000
0.266667 0.133333 0.200000
0.333333 0.133333 0.200000
0.400000 0.133333 0.200000
0.466667 0.133333 0.200000
0.533333 0.133333 0.200000
0.600000 0.133333 0.200000
0.666667 0.133333 0.200000
0.733333 0.133333 0.200000
0.800000 0.133333 0.200000
0.866667 0.133333 0.200000
0.933333 0.133333 0.200000
1.000000 0.133333 0.200000
0.000000 0.200000 0.200000
0.066667 0.200000 0.200000
0.133333 0.200000 0.200000
0.200000 0.200000 0.200000
0.266667 0.200000 0.200000
0.333333 0.200000 0.200000
0.400000 0.200000 0.200000
0.466667 0.200000 0.200000
0.533333 0.200000 0.200000
0.600000 0.200000 0.200000
0.666667 0.200000 0.200000
0.733333 0.200000 0.200000
0.800000 0.200000 0.200000
0.866667 0.200000 0.200000
0.933333 0.200000 0.200000
1.000000 0.200000 0.200000
0.000000 0.266667 0.200000
0.066667 0.266667 0.200000
0.133333 0.266667 0.200000
0.200000 0.266667 0.200000
0.266667 0.266667 0.200000
0.333333 0.266667 0.200000
0.400000 0.266667 0.200000
0.466667 0.266667 0.200000
0.533333 0.266667 0.200000
0.600000 0.266667 0.200000
0.666667 0.266667 0.200000
0.733333 0.266667 0.200000
0.800000 0.266667 0.200000
0.866667 0.266667 0.200000
0.933333 0.266667 0.200000
1.000000 0.266667 0.200000
0.000000 0.333333 0.200000
0.066667 0.333333 0.200000
0.133333 0.333333 0.200000
0.200000 0.333333 0.200000
0.266667 0.333333 0.200000
0.333333 0.333333 0.200000
0.400000 0.333333 0.200000
0.466667 0.333333 0.200000
0.533333 0.333333 0.200000
0.600000 0.333333 0.200000
0.666667 0.333333 0.200000
0.733333 0.333333 0.200000
0.800000 0.333333 0.200000
0.866667 0.333333 0.200000
0.933333 0.333333 0.200000
1.000000 0.333333 0.200000
0.000000 0.400000 0.200000
0.066667 0.400000 0.200000
0.133333 0.400000 0.200000
0.200000 0.400000 0.200000
0.266667 0.400000 0.200000
0.333333 0.400000 0.200000
0.400000 0.400000 0.200000
0.466667 0.400000 0.200000
0.533333 0.400000 0.200000
0.600000 0.400000 0.200000
0.666667 0.400000 0.200000
0.733333 0.400000 0.200000
0.800000 0.400000 0.200000
0.866667 0.400000 0.200000
0.933333 0.400000 0.200000
1.000000 0.400000 0.200000
0.000000 0.466667 0.200000
0.066667 0.466667 0.200000
0.133333 0.466667 0.200000
0.200000 0.466667 0.200000
0.266667 0.466667 0.200000
