mpv/inverse-rainbow-000.cube
TITLE "selective rainbow 0° (100 cycles)"
LUT_3D_SIZE 6
DOMAIN_MIN 0 0 0
DOMAIN_MAX 1 1 1
1.000000 0.000000 0.000000
0.000000 1.000000 0.232558
0.000000 1.000000 0.093023
0.600000 0.000000 0.000000
0.800000 0.000000 0.000000
1.000000 0.000000 0.000000
0.000000 0.200000 0.000000
0.200000 0.200000 0.000000
0.400000 0.200000 0.000000
0.600000 0.200000 0.000000
0.800000 0.200000 0.000000
1.000000 0.200000 0.000000
0.000000 0.400000 0.000000
0.200000 0.400000 0.000000
0.400000 0.400000 0.000000
0.600000 0.400000 0.000000
0.800000 0.400000 0.000000
1.000000 0.400000 0.000000
0.000000 0.600000 0.000000
0.200000 0.600000 0.000000
0.400000 0.600000 0.000000
0.600000 0.600000 0.000000
0.800000 0.600000 0.000000
1.000000 0.600000 0.000000
0.000000 0.800000 0.000000
0.200000 0.800000 0.000000
0.400000 0.800000 0.000000
0.600000 0.800000 0.000000
0.800000 0.800000 0.000000
1.000000 0.800000 0.000000
0.000000 1.000000 0.000000
0.200000 1.000000 0.000000
0.400000 1.000000 0.000000
0.600000 1.000000 0.000000
0.800000 1.000000 0.000000
0.000000 0.651163 1.000000
1.000000 0.000000 0.837209
0.000000 1.000000 0.093023
1.000000 0.000000 0.976744
0.600000 0.000000 0.200000
0.800000 0.000000 0.200000
1.000000 0.000000 0.200000
0.000000 0.200000 0.200000
0.200000 0.200000 0.200000
0.400000 0.200000 0.200000
0.600000 0.200000 0.200000
0.800000 0.200000 0.200000
1.000000 0.200000 0.200000
0.000000 0.400000 0.200000
0.200000 0.400000 0.200000
0.400000 0.400000 0.200000
0.600000 0.400000 0.200000
0.800000 0.400000 0.200000
1.000000 0.400000 0.200000
0.000000 0.600000 0.200000
0.200000 0.600000 0.200000
0.400000 0.600000 0.200000
0.600000 0.600000 0.200000
0.800000 0.600000 0.200000
1.000000 0.600000 0.200000
0.000000 0.800000 0.200000
0.200000 0.800000 0.200000
0.400000 0.800000 0.200000
0.600000 0.800000 0.200000
0.800000 0.800000 0.200000
1.000000 0.800000 0.200000
0.000000 1.000000 0.200000
0.200000 1.000000 0.200000
0.400000 1.000000 0.200000
0.600000 1.000000 0.200000
0.800000 1.000000 0.200000
0.744186 0.000000 1.000000
1.000000 0.697674 0.000000
1.000000 0.697674 0.000000
0.400000 0.000000 0.400000
0.600000 0.000000 0.400000
0.800000 0.000000 0.400000
1.000000 0.000000 0.400000
0.000000 0.200000 0.400000
0.200000 0.200000 0.400000
0.400000 0.200000 0.400000
0.600000 0.200000 0.400000
0.800000 0.200000 0.400000
1.000000 0.200000 0.400000
0.000000 0.400000 0.400000
0.200000 0.400000 0.400000
0.400000 0.400000 0.400000
0.600000 0.400000 0.400000
0.800000 0.400000 0.400000
1.000000 0.400000 0.400000
0.000000 0.600000 0.400000
0.200000 0.600000 0.400000
0.400000 0.600000 0.400000
0.600000 0.600000 0.400000
0.800000 0.600000 0.400000
1.000000 0.600000 0.400000
0.000000 0.800000 0.400000
0.200000 0.800000 0.400000
0.400000 0.800000 0.400000
0.600000 0.800000 0.400000
0.800000 0.800000 0.400000
1.000000 0.800000 0.400000
0.000000 1.000000 0.400000
0.200000 1.000000 0.400000
0.400000 1.000000 0.400000
0.600000 1.000000 0.400000
0.744186 0.000000 1.000000
0.604651 1.000000 0.000000
0.604651 0.000000 1.000000
0.744186 1.000000 0.000000
0.400000 0.000000 0.600000
0.600000 0.000000 0.600000
0.800000 0.000000 0.600000
1.000000 0.000000 0.600000
0.000000 0.200000 0.600000
0.200000 0.200000 0.600000
0.400000 0.200000 0.600000
0.600000 0.200000 0.600000
0.800000 0.200000 0.600000
1.000000 0.200000 0.600000
0.000000 0.400000 0.600000
0.200000 0.400000 0.600000
0.400000 0.400000 0.600000
0.600000 0.400000 0.600000
0.800000 0.400000 0.600000
1.000000 0.400000 0.600000
0.000000 0.600000 0.600000
0.200000 0.600000 0.600000
0.400000 0.600000 0.600000
0.600000 0.600000 0.600000
0.800000 0.600000 0.600000
1.000000 0.600000 0.600000
0.000000 0.800000 0.600000
0.200000 0.800000 0.600000
0.400000 0.800000 0.600000
0.600000 0.800000 0.600000
0.800000 0.800000 0.600000
1.000000 0.800000 0.600000
0.000000 1.000000 0.600000
0.200000 1.000000 0.600000
0.400000 1.000000 0.600000
0.600000 1.000000 0.600000
1.000000 0.000000 0.697674
1.000000 0.000000 0.697674
0.744186 1.000000 0.000000
0.200000 0.000000 0.800000
0.400000 0.000000 0.800000
0.600000 0.000000 0.800000
0.800000 0.000000 0.800000
1.000000 0.000000 0.800000
0.000000 0.200000 0.800000
0.200000 0.200000 0.800000
0.400000 0.200000 0.800000
0.600000 0.200000 0.800000
0.800000 0.200000 0.800000
1.000000 0.200000 0.800000
0.000000 0.400000 0.800000
0.200000 0.400000 0.800000
0.400000 0.400000 0.800000
0.600000 0.400000 0.800000
0.800000 0.400000 0.800000
1.000000 0.400000 0.800000
0.000000 0.600000 0.800000
0.200000 0.600000 0.800000
0.400000 0.600000 0.800000
0.600000 0.600000 0.800000
0.800000 0.600000 0.800000
1.000000 0.600000 0.800000
0.000000 0.800000 0.800000
0.200000 0.800000 0.800000
0.400000 0.800000 0.800000
0.600000 0.800000 0.800000
0.800000 0.800000 0.800000
1.000000 0.800000 0.800000
0.000000 1.000000 0.800000
0.200000 1.000000 0.800000
0.400000 1.000000 0.800000
1.000000 0.976744 0.000000
0.000000 0.093023 1.000000
1.000000 0.837209 0.000000
0.000000 1.000000 0.651163
0.200000 0.000000 1.000000
0.400000 0.000000 1.000000
0.600000 0.000000 1.000000
0.800000 0.000000 1.000000
1.000000 0.000000 1.000000
0.000000 0.200000 1.000000
0.200000 0.200000 1.000000
0.400000 0.200000 1.000000
0.600000 0.200000 1.000000
0.800000 0.200000 1.000000
1.000000 0.200000 1.000000
0.000000 0.400000 1.000000
0.200000 0.400000 1.000000
0.400000 0.400000 1.000000
0.600000 0.400000 1.000000
0.800000 0.400000 1.000000
1.000000 0.400000 1.000000
0.000000 0.600000 1.000000
0.200000 0.600000 1.000000
0.400000 0.600000 1.000000
0.600000 0.600000 1.000000
0.800000 0.600000 1.000000
1.000000 0.600000 1.000000
0.000000 0.800000 1.000000
0.200000 0.800000 1.000000
0.400000 0.800000 1.000000
0.600000 0.800000 1.000000
0.800000 0.800000 1.000000
1.000000 0.800000 1.000000
0.000000 1.000000 1.000000
0.200000 1.000000 1.000000
0.400000 1.000000 1.000000
0.000000 0.093023 1.000000
0.000000 0.232558 1.000000
1.000000 0.000000 0.000000
