mpv/mid_000deg.cube
TITLE "Rainbow LUT - Hue 0°"
LUT_3D_SIZE 6
DOMAIN_MIN 0 0 0
DOMAIN_MAX 1 1 1
# Generated with fixed rainbow gradient - hue offset: 0°
0.000 0.000 0.000
0.200 0.000 0.000
0.400 0.000 0.000
0.600 0.000 0.000
0.800 0.000 0.000
1.000 0.000 0.000
0.000 0.200 0.000
0.200 0.200 0.000
0.400 0.200 0.000
0.600 0.200 0.000
0.800 0.200 0.000
1.000 0.200 0.000
0.000 0.400 0.000
0.200 0.400 0.000
0.400 0.400 0.000
0.600 0.400 0.000
0.000 0.160 1.000
0.172 1.000 0.000
0.000 0.600 0.000
0.200 0.600 0.000
0.000 0.692 1.000
0.704 1.000 0.000
0.800 0.600 0.000
1.000 0.600 0.000
0.000 1.000 0.776
1.000 0.764 0.000
0.400 0.800 0.000
0.600 0.800 0.000
0.800 0.800 0.000
1.000 0.800 0.000
0.000 1.000 0.000
0.200 1.000 0.000
0.400 1.000 0.000
0.600 1.000 0.000
0.800 1.000 0.000
1.000 1.000 0.000
0.000 0.000 0.200
0.200 0.000 0.200
0.400 0.000 0.200
0.600 0.000 0.200
0.800 0.000 0.200
1.000 0.000 0.200
0.000 0.200 0.200
0.200 0.200 0.200
0.400 0.200 0.200
0.600 0.200 0.200
0.800 0.200 0.200
1.000 0.200 0.200
0.000 0.400 0.200
0.200 0.400 0.200
0.400 0.400 0.200
0.600 0.400 0.200
1.000 0.000 0.392
1.000 0.400 0.200
0.000 0.600 0.200
0.200 0.600 0.200
1.000 0.000 0.924
0.600 0.600 0.200
0.800 0.600 0.200
1.000 0.600 0.200
0.544 0.000 1.000
0.200 0.800 0.200
0.400 0.800 0.200
0.600 0.800 0.200
0.800 0.800 0.200
1.000 0.800 0.200
0.000 1.000 0.200
0.200 1.000 0.200
0.400 1.000 0.200
0.600 1.000 0.200
0.800 1.000 0.200
1.000 1.000 0.200
0.000 0.000 0.400
0.200 0.000 0.400
0.400 0.000 0.400
0.600 0.000 0.400
0.800 0.000 0.400
1.000 0.000 0.400
0.000 0.200 0.400
0.200 0.200 0.400
0.400 0.200 0.400
0.600 0.200 0.400
0.800 0.200 0.400
0.000 0.080 1.000
0.000 0.400 0.400
0.200 0.400 0.400
0.400 0.400 0.400
0.000 0.612 1.000
0.624 1.000 0.000
1.000 0.400 0.400
0.000 0.600 0.400
0.000 1.000 0.856
1.000 0.844 0.000
0.600 0.600 0.400
0.800 0.600 0.400
1.000 0.600 0.400
1.000 0.312 0.000
0.200 0.800 0.400
0.400 0.800 0.400
0.600 0.800 0.400
0.800 0.800 0.400
1.000 0.800 0.400
0.000 1.000 0.400
0.200 1.000 0.400
0.400 1.000 0.400
0.600 1.000 0.400
0.800 1.000 0.400
1.000 1.000 0.400
0.000 0.000 0.600
0.200 0.000 0.600
0.400 0.000 0.600
0.600 0.000 0.600
0.800 0.000 0.600
1.000 0.000 0.600
0.000 0.200 0.600
0.200 0.200 0.600
0.400 0.200 0.600
0.600 0.200 0.600
0.800 0.200 0.600
1.000 0.000 0.312
0.000 0.400 0.600
0.200 0.400 0.600
0.400 0.400 0.600
1.000 0.000 0.844
0.000 0.856 1.000
1.000 0.400 0.600
0.000 0.600 0.600
0.624 0.000 1.000
0.000 1.000 0.612
0.600 0.600 0.600
0.800 0.600 0.600
1.000 0.600 0.600
0.000 1.000 0.080
0.200 0.800 0.600
0.400 0.800 0.600
0.600 0.800 0.600
0.800 0.800 0.600
1.000 0.800 0.600
0.000 1.000 0.600
0.200 1.000 0.600
0.400 1.000 0.600
0.600 1.000 0.600
0.800 1.000 0.600
1.000 1.000 0.600
0.000 0.000 0.800
0.200 0.000 0.800
0.400 0.000 0.800
0.600 0.000 0.800
0.800 0.000 0.800
1.000 0.000 0.800
0.000 0.200 0.800
0.200 0.200 0.800
0.400 0.200 0.800
0.600 0.200 0.800
0.800 0.200 0.800
0.544 1.000 0.000
0.000 0.400 0.800
0.200 0.400 0.800
0.400 0.400 0.800
1.000 0.924 0.000
0.800 0.400 0.800
1.000 0.400 0.800
0.000 0.600 0.800
1.000 0.392 0.000
0.400 0.600 0.800
0.600 0.600 0.800
0.800 0.600 0.800
1.000 0.600 0.800
0.000 0.800 0.800
0.200 0.800 0.800
0.400 0.800 0.800
0.600 0.800 0.800
0.800 0.800 0.800
1.000 0.800 0.800
0.000 1.000 0.800
0.200 1.000 0.800
0.400 1.000 0.800
0.600 1.000 0.800
0.800 1.000 0.800
1.000 1.000 0.800
0.000 0.000 1.000
0.200 0.000 1.000
0.400 0.000 1.000
0.600 0.000 1.000
0.800 0.000 1.000
1.000 0.000 1.000
0.000 0.200 1.000
0.200 0.200 1.000
0.400 0.200 1.000
0.600 0.200 1.000
1.000 0.000 0.764
0.000 0.776 1.000
0.000 0.400 1.000
0.200 0.400 1.000
0.704 0.000 1.000
0.000 1.000 0.692
0.800 0.400 1.000
1.000 0.400 1.000
0.172 0.000 1.000
0.000 1.000 0.160
0.400 0.600 1.000
0.600 0.600 1.000
0.800 0.600 1.000
1.000 0.600 1.000
0.000 0.800 1.000
0.200 0.800 1.000
0.400 0.800 1.000
0.600 0.800 1.000
0.800 0.800 1.000
1.000 0.800 1.000
0.000 1.000 1.000
0.200 1.000 1.000
0.400 1.000 1.000
0.600 1.000 1.000
0.800 1.000 1.000
1.000 1.000 1.000
