mpv/mid_180deg.cube
TITLE "Rainbow LUT - Hue 180°"
LUT_3D_SIZE 16
DOMAIN_MIN 0 0 0
DOMAIN_MAX 1 1 1
# Generated with fixed rainbow gradient - hue offset: 180°
0.000 0.000 0.000
0.067 0.000 0.000
0.133 0.000 0.000
0.200 0.000 0.000
0.267 0.000 0.000
0.333 0.000 0.000
0.400 0.000 0.000
0.467 0.000 0.000
0.533 0.000 0.000
0.600 0.000 0.000
0.667 0.000 0.000
0.733 0.000 0.000
0.800 0.000 0.000
0.867 0.000 0.000
0.933 0.000 0.000
1.000 0.000 0.000
0.000 0.067 0.000
0.067 0.067 0.000
0.133 0.067 0.000
0.200 0.067 0.000
0.267 0.067 0.000
0.333 0.067 0.000
0.400 0.067 0.000
0.467 0.067 0.000
0.533 0.067 0.000
0.600 0.067 0.000
0.667 0.067 0.000
0.733 0.067 0.000
0.800 0.067 0.000
0.867 0.067 0.000
0.933 0.067 0.000
1.000 0.067 0.000
0.000 0.133 0.000
0.067 0.133 0.000
0.133 0.133 0.000
0.200 0.133 0.000
0.267 0.133 0.000
0.333 0.133 0.000
0.400 0.133 0.000
0.467 0.133 0.000
0.533 0.133 0.000
0.600 0.133 0.000
0.667 0.133 0.000
0.733 0.133 0.000
0.800 0.133 0.000
0.867 0.133 0.000
0.933 0.133 0.000
1.000 0.133 0.000
0.000 0.200 0.000
0.067 0.200 0.000
0.133 0.200 0.000
0.200 0.200 0.000
0.267 0.200 0.000
0.333 0.200 0.000
0.400 0.200 0.000
0.467 0.200 0.000
0.533 0.200 0.000
0.600 0.200 0.000
0.667 0.200 0.000
0.733 0.200 0.000
0.800 0.200 0.000
0.867 0.200 0.000
0.933 0.200 0.000
1.000 0.200 0.000
0.000 0.267 0.000
0.067 0.267 0.000
0.133 0.267 0.000
0.200 0.267 0.000
0.267 0.267 0.000
0.333 0.267 0.000
0.400 0.267 0.000
0.467 0.267 0.000
0.533 0.267 0.000
0.600 0.267 0.000
0.667 0.267 0.000
0.733 0.267 0.000
0.800 0.267 0.000
0.867 0.267 0.000
0.933 0.267 0.000
1.000 0.000 0.135
0.000 0.333 0.000
0.067 0.333 0.000
0.133 0.333 0.000
0.200 0.333 0.000
0.267 0.333 0.000
0.333 0.333 0.000
0.400 0.333 0.000
0.467 0.333 0.000
0.533 0.333 0.000
0.600 0.333 0.000
0.667 0.333 0.000
0.733 0.333 0.000
0.800 0.333 0.000
1.000 0.000 0.312
0.983 1.000 0.000
0.000 1.000 0.347
0.000 0.400 0.000
0.067 0.400 0.000
0.133 0.400 0.000
0.200 0.400 0.000
0.267 0.400 0.000
0.333 0.400 0.000
0.400 0.400 0.000
0.467 0.400 0.000
0.533 0.400 0.000
0.600 0.400 0.000
0.667 0.400 0.000
1.000 0.000 0.489
1.000 0.840 0.000
0.000 1.000 0.169
0.000 0.501 1.000
0.828 0.000 1.000
0.000 0.467 0.000
0.067 0.467 0.000
0.133 0.467 0.000
0.200 0.467 0.000
0.267 0.467 0.000
0.333 0.467 0.000
0.400 0.467 0.000
0.467 0.467 0.000
0.533 0.467 0.000
1.000 0.000 0.667
1.000 0.663 0.000
0.008 1.000 0.000
0.000 0.679 1.000
0.651 0.000 1.000
0.933 0.467 0.000
1.000 0.467 0.000
0.000 0.533 0.000
0.067 0.533 0.000
0.133 0.533 0.000
0.200 0.533 0.000
0.267 0.533 0.000
0.333 0.533 0.000
0.400 0.533 0.000
1.000 0.000 0.844
1.000 0.485 0.000
0.185 1.000 0.000
0.000 0.856 1.000
0.473 0.000 1.000
0.800 0.533 0.000
0.867 0.533 0.000
0.933 0.533 0.000
1.000 0.533 0.000
0.000 0.600 0.000
0.067 0.600 0.000
0.133 0.600 0.000
0.200 0.600 0.000
0.267 0.600 0.000
0.979 0.000 1.000
1.000 0.308 0.000
0.363 1.000 0.000
0.000 1.000 0.967
0.296 0.000 1.000
0.667 0.600 0.000
0.733 0.600 0.000
0.800 0.600 0.000
0.867 0.600 0.000
0.933 0.600 0.000
1.000 0.600 0.000
0.000 0.667 0.000
0.067 0.667 0.000
0.133 0.667 0.000
0.801 0.000 1.000
1.000 0.131 0.000
0.540 1.000 0.000
0.000 1.000 0.789
0.119 0.000 1.000
0.533 0.667 0.000
0.600 0.667 0.000
0.667 0.667 0.000
0.733 0.667 0.000
0.800 0.667 0.000
0.867 0.667 0.000
0.933 0.667 0.000
1.000 0.667 0.000
0.000 0.733 0.000
0.624 0.000 1.000
1.000 0.000 0.047
0.717 1.000 0.000
0.000 1.000 0.612
0.000 0.059 1.000
0.400 0.733 0.000
0.467 0.733 0.000
0.533 0.733 0.000
0.600 0.733 0.000
0.667 0.733 0.000
0.733 0.733 0.000
0.800 0.733 0.000
0.867 0.733 0.000
0.933 0.733 0.000
1.000 0.733 0.000
1.000 0.000 0.224
0.895 1.000 0.000
0.000 1.000 0.435
0.000 0.236 1.000
1.000 0.000 0.907
0.333 0.800 0.000
0.400 0.800 0.000
0.467 0.800 0.000
0.533 0.800 0.000
0.600 0.800 0.000
0.667 0.800 0.000
0.733 0.800 0.000
0.800 0.800 0.000
0.867 0.800 0.000
0.933 0.800 0.000
1.000 0.800 0.000
0.000 1.000 0.257
0.000 0.413 1.000
0.916 0.000 1.000
0.200 0.867 0.000
0.267 0.867 0.000
0.333 0.867 0.000
0.400 0.867 0.000
0.467 0.867 0.000
0.533 0.867 0.000
0.600 0.867 0.000
0.667 0.867 0.000
0.733 0.867 0.000
0.800 0.867 0.000
0.867 0.867 0.000
0.933 0.867 0.000
1.000 0.867 0.000
0.739 0.000 1.000
0.067 0.933 0.000
0.133 0.933 0.000
0.200 0.933 0.000
0.267 0.933 0.000
0.333 0.933 0.000
0.400 0.933 0.000
0.467 0.933 0.000
0.533 0.933 0.000
0.600 0.933 0.000
0.667 0.933 0.000
0.733 0.933 0.000
0.800 0.933 0.000
0.867 0.933 0.000
0.933 0.933 0.000
1.000 0.933 0.000
0.000 1.000 0.000
0.067 1.000 0.000
0.133 1.000 0.000
0.200 1.000 0.000
0.267 1.000 0.000
0.333 1.000 0.000
0.400 1.000 0.000
0.467 1.000 0.000
0.533 1.000 0.000
0.600 1.000 0.000
0.667 1.000 0.000
0.733 1.000 0.000
0.800 1.000 0.000
0.867 1.000 0.000
0.933 1.000 0.000
1.000 1.000 0.000
0.000 0.000 0.067
0.067 0.000 0.067
0.133 0.000 0.067
0.200 0.000 0.067
0.267 0.000 0.067
0.333 0.000 0.067
0.400 0.000 0.067
0.467 0.000 0.067
0.533 0.000 0.067
0.600 0.000 0.067
0.667 0.000 0.067
0.733 0.000 0.067
0.800 0.000 0.067
0.867 0.000 0.067
0.933 0.000 0.067
1.000 0.000 0.067
0.000 0.067 0.067
0.067 0.067 0.067
0.133 0.067 0.067
0.200 0.067 0.067
0.267 0.067 0.067
0.333 0.067 0.067
0.400 0.067 0.067
0.467 0.067 0.067
0.533 0.067 0.067
0.600 0.067 0.067
0.667 0.067 0.067
0.733 0.067 0.067
0.800 0.067 0.067
0.867 0.067 0.067
0.933 0.067 0.067
1.000 0.067 0.067
0.000 0.133 0.067
0.067 0.133 0.067
0.133 0.133 0.067
0.200 0.133 0.067
0.267 0.133 0.067
0.333 0.133 0.067
0.400 0.133 0.067
0.467 0.133 0.067
0.533 0.133 0.067
0.600 0.133 0.067
0.667 0.133 0.067
0.733 0.133 0.067
0.800 0.133 0.067
0.867 0.133 0.067
0.933 0.133 0.067
1.000 0.133 0.067
0.000 0.200 0.067
0.067 0.200 0.067
0.133 0.200 0.067
0.200 0.200 0.067
0.267 0.200 0.067
0.333 0.200 0.067
0.400 0.200 0.067
0.467 0.200 0.067
0.533 0.200 0.067
0.600 0.200 0.067
0.667 0.200 0.067
0.733 0.200 0.067
0.800 0.200 0.067
0.867 0.200 0.067
0.933 0.200 0.067
1.000 0.200 0.067
0.000 0.267 0.067
0.067 0.267 0.067
0.133 0.267 0.067
0.200 0.267 0.067
0.267 0.267 0.067
0.333 0.267 0.067
0.400 0.267 0.067
0.467 0.267 0.067
0.533 0.267 0.067
0.600 0.267 0.067
0.667 0.267 0.067
0.733 0.267 0.067
0.800 0.267 0.067
0.867 0.267 0.067
0.933 0.267 0.067
1.000 0.455 0.000
0.000 0.333 0.067
0.067 0.333 0.067
0.133 0.333 0.067
0.200 0.333 0.067
0.267 0.333 0.067
0.333 0.333 0.067
0.400 0.333 0.067
0.467 0.333 0.067
0.533 0.333 0.067
0.600 0.333 0.067
0.667 0.333 0.067
0.733 0.333 0.067
0.800 0.333 0.067
1.000 0.277 0.000
0.393 1.000 0.000
0.000 1.000 0.936
0.000 0.400 0.067
0.067 0.400 0.067
0.133 0.400 0.067
0.200 0.400 0.067
0.267 0.400 0.067
0.333 0.400 0.067
0.400 0.400 0.067
0.467 0.400 0.067
0.533 0.400 0.067
0.600 0.400 0.067
0.667 0.400 0.067
1.000 0.100 0.000
0.571 1.000 0.000
0.000 1.000 0.759
0.088 0.000 1.000
1.000 0.000 0.583
0.000 0.467 0.067
0.067 0.467 0.067
0.133 0.467 0.067
0.200 0.467 0.067
0.267 0.467 0.067
0.333 0.467 0.067
0.400 0.467 0.067
0.467 0.467 0.067
0.533 0.467 0.067
1.000 0.000 0.077
0.748 1.000 0.000
0.000 1.000 0.581
0.000 0.089 1.000
1.000 0.000 0.760
0.933 0.467 0.067
1.000 0.467 0.067
0.000 0.533 0.067
0.067 0.533 0.067
0.133 0.533 0.067
0.200 0.533 0.067
0.267 0.533 0.067
0.333 0.533 0.067
0.400 0.533 0.067
1.000 0.000 0.255
0.925 1.000 0.000
0.000 1.000 0.404
0.000 0.267 1.000
1.000 0.000 0.937
0.800 0.533 0.067
0.867 0.533 0.067
0.933 0.533 0.067
1.000 0.533 0.067
0.000 0.600 0.067
0.067 0.600 0.067
0.133 0.600 0.067
0.200 0.600 0.067
0.267 0.600 0.067
1.000 0.000 0.432
1.000 0.897 0.000
0.000 1.000 0.227
0.000 0.444 1.000
0.885 0.000 1.000
0.667 0.600 0.067
0.733 0.600 0.067
0.800 0.600 0.067
0.867 0.600 0.067
0.933 0.600 0.067
1.000 0.600 0.067
0.000 0.667 0.067
0.067 0.667 0.067
0.133 0.667 0.067
1.000 0.000 0.609
1.000 0.720 0.000
0.000 1.000 0.049
0.000 0.621 1.000
0.708 0.000 1.000
0.533 0.667 0.067
0.600 0.667 0.067
0.667 0.667 0.067
0.733 0.667 0.067
0.800 0.667 0.067
0.867 0.667 0.067
0.933 0.667 0.067
1.000 0.667 0.067
0.000 0.733 0.067
1.000 0.000 0.787
1.000 0.543 0.000
0.128 1.000 0.000
0.000 0.799 1.000
0.531 0.000 1.000
0.400 0.733 0.067
0.467 0.733 0.067
0.533 0.733 0.067
0.600 0.733 0.067
0.667 0.733 0.067
0.733 0.733 0.067
0.800 0.733 0.067
0.867 0.733 0.067
0.933 0.733 0.067
1.000 0.733 0.067
1.000 0.365 0.000
0.305 1.000 0.000
0.000 0.976 1.000
0.353 0.000 1.000
0.267 0.800 0.067
0.333 0.800 0.067
0.400 0.800 0.067
0.467 0.800 0.067
0.533 0.800 0.067
0.600 0.800 0.067
0.667 0.800 0.067
0.733 0.800 0.067
0.800 0.800 0.067
0.867 0.800 0.067
0.933 0.800 0.067
1.000 0.800 0.067
0.000 1.000 0.847
0.176 0.000 1.000
0.133 0.867 0.067
0.200 0.867 0.067
0.267 0.867 0.067
0.333 0.867 0.067
0.400 0.867 0.067
0.467 0.867 0.067
0.533 0.867 0.067
0.600 0.867 0.067
0.667 0.867 0.067
0.733 0.867 0.067
0.800 0.867 0.067
0.867 0.867 0.067
0.933 0.867 0.067
1.000 0.867 0.067
0.000 0.933 0.067
0.067 0.933 0.067
0.133 0.933 0.067
0.200 0.933 0.067
0.267 0.933 0.067
0.333 0.933 0.067
0.400 0.933 0.067
0.467 0.933 0.067
0.533 0.933 0.067
0.600 0.933 0.067
0.667 0.933 0.067
0.733 0.933 0.067
0.800 0.933 0.067
0.867 0.933 0.067
0.933 0.933 0.067
1.000 0.933 0.067
0.000 1.000 0.067
0.067 1.000 0.067
0.133 1.000 0.067
0.200 1.000 0.067
0.267 1.000 0.067
0.333 1.000 0.067
0.400 1.000 0.067
0.467 1.000 0.067
0.533 1.000 0.067
0.600 1.000 0.067
0.667 1.000 0.067
0.733 1.000 0.067
0.800 1.000 0.067
0.867 1.000 0.067
0.933 1.000 0.067
1.000 1.000 0.067
0.000 0.000 0.133
0.067 0.000 0.133
0.133 0.000 0.133
0.200 0.000 0.133
0.267 0.000 0.133
0.333 0.000 0.133
0.400 0.000 0.133
0.467 0.000 0.133
0.533 0.000 0.133
0.600 0.000 0.133
0.667 0.000 0.133
0.733 0.000 0.133
0.800 0.000 0.133
0.867 0.000 0.133
0.933 0.000 0.133
1.000 0.000 0.133
0.000 0.067 0.133
0.067 0.067 0.133
0.133 0.067 0.133
0.200 0.067 0.133
0.267 0.067 0.133
0.333 0.067 0.133
0.400 0.067 0.133
0.467 0.067 0.133
0.533 0.067 0.133
0.600 0.067 0.133
0.667 0.067 0.133
0.733 0.067 0.133
0.800 0.067 0.133
0.867 0.067 0.133
0.933 0.067 0.133
1.000 0.067 0.133
0.000 0.133 0.133
0.067 0.133 0.133
0.133 0.133 0.133
0.200 0.133 0.133
0.267 0.133 0.133
0.333 0.133 0.133
0.400 0.133 0.133
0.467 0.133 0.133
0.533 0.133 0.133
0.600 0.133 0.133
0.667 0.133 0.133
0.733 0.133 0.133
0.800 0.133 0.133
0.867 0.133 0.133
0.933 0.133 0.133
1.000 0.133 0.133
0.000 0.200 0.133
0.067 0.200 0.133
0.133 0.200 0.133
0.200 0.200 0.133
0.267 0.200 0.133
0.333 0.200 0.133
0.400 0.200 0.133
0.467 0.200 0.133
0.533 0.200 0.133
0.600 0.200 0.133
0.667 0.200 0.133
0.733 0.200 0.133
0.800 0.200 0.133
0.867 0.200 0.133
0.933 0.200 0.133
1.000 0.200 0.133
0.000 0.267 0.133
0.067 0.267 0.133
0.133 0.267 0.133
0.200 0.267 0.133
0.267 0.267 0.133
0.333 0.267 0.133
0.400 0.267 0.133
0.467 0.267 0.133
0.533 0.267 0.133
0.600 0.267 0.133
0.667 0.267 0.133
0.733 0.267 0.133
0.800 0.267 0.133
0.867 0.267 0.133
1.000 0.000 0.285
0.956 1.000 0.000
0.000 0.333 0.133
0.067 0.333 0.133
0.133 0.333 0.133
0.200 0.333 0.133
0.267 0.333 0.133
0.333 0.333 0.133
0.400 0.333 0.133
0.467 0.333 0.133
0.533 0.333 0.133
0.600 0.333 0.133
0.667 0.333 0.133
0.733 0.333 0.133
1.000 0.000 0.463
1.000 0.867 0.000
0.000 1.000 0.196
0.000 0.475 1.000
0.000 0.400 0.133
0.067 0.400 0.133
0.133 0.400 0.133
0.200 0.400 0.133
0.267 0.400 0.133
0.333 0.400 0.133
0.400 0.400 0.133
0.467 0.400 0.133
0.533 0.400 0.133
0.600 0.400 0.133
0.667 0.400 0.133
1.000 0.689 0.000
0.000 1.000 0.019
0.000 0.652 1.000
0.677 0.000 1.000
1.000 0.007 0.000
0.000 0.467 0.133
0.067 0.467 0.133
0.133 0.467 0.133
0.200 0.467 0.133
0.267 0.467 0.133
0.333 0.467 0.133
0.400 0.467 0.133
0.467 0.467 0.133
0.533 0.467 0.133
1.000 0.512 0.000
0.159 1.000 0.000
0.000 0.829 1.000
0.500 0.000 1.000
1.000 0.000 0.171
0.933 0.467 0.133
1.000 0.467 0.133
0.000 0.533 0.133
0.067 0.533 0.133
0.133 0.533 0.133
0.200 0.533 0.133
0.267 0.533 0.133
0.333 0.533 0.133
0.400 0.533 0.133
1.000 0.335 0.000
0.336 1.000 0.000
0.000 1.000 0.993
0.323 0.000 1.000
1.000 0.000 0.348
0.800 0.533 0.133
0.867 0.533 0.133
0.933 0.533 0.133
1.000 0.533 0.133
0.000 0.600 0.133
0.067 0.600 0.133
0.133 0.600 0.133
0.200 0.600 0.133
0.267 0.600 0.133
1.000 0.157 0.000
0.513 1.000 0.000
0.000 1.000 0.816
0.145 0.000 1.000
1.000 0.000 0.525
0.667 0.600 0.133
0.733 0.600 0.133
0.800 0.600 0.133
0.867 0.600 0.133
0.933 0.600 0.133
1.000 0.600 0.133
0.000 0.667 0.133
0.067 0.667 0.133
0.133 0.667 0.133
1.000 0.000 0.020
0.691 1.000 0.000
0.000 1.000 0.639
0.000 0.032 1.000
1.000 0.000 0.703
0.533 0.667 0.133
0.600 0.667 0.133
0.667 0.667 0.133
0.733 0.667 0.133
0.800 0.667 0.133
0.867 0.667 0.133
0.933 0.667 0.133
1.000 0.667 0.133
0.000 0.733 0.133
1.000 0.000 0.197
0.868 1.000 0.000
0.000 1.000 0.461
0.000 0.209 1.000
1.000 0.000 0.880
0.400 0.733 0.133
0.467 0.733 0.133
0.533 0.733 0.133
0.600 0.733 0.133
0.667 0.733 0.133
0.733 0.733 0.133
0.800 0.733 0.133
0.867 0.733 0.133
0.933 0.733 0.133
1.000 0.733 0.133
1.000 0.955 0.000
0.000 1.000 0.284
0.000 0.387 1.000
0.943 0.000 1.000
0.267 0.800 0.133
0.333 0.800 0.133
0.400 0.800 0.133
0.467 0.800 0.133
0.533 0.800 0.133
0.600 0.800 0.133
0.667 0.800 0.133
0.733 0.800 0.133
0.800 0.800 0.133
0.867 0.800 0.133
0.933 0.800 0.133
1.000 0.800 0.133
0.000 0.564 1.000
0.765 0.000 1.000
0.133 0.867 0.133
0.200 0.867 0.133
0.267 0.867 0.133
0.333 0.867 0.133
0.400 0.867 0.133
0.467 0.867 0.133
0.533 0.867 0.133
0.600 0.867 0.133
0.667 0.867 0.133
0.733 0.867 0.133
0.800 0.867 0.133
0.867 0.867 0.133
0.933 0.867 0.133
1.000 0.867 0.133
0.000 0.933 0.133
0.067 0.933 0.133
0.133 0.933 0.133
0.200 0.933 0.133
0.267 0.933 0.133
0.333 0.933 0.133
0.400 0.933 0.133
0.467 0.933 0.133
0.533 0.933 0.133
0.600 0.933 0.133
0.667 0.933 0.133
0.733 0.933 0.133
0.800 0.933 0.133
0.867 0.933 0.133
0.933 0.933 0.133
1.000 0.933 0.133
0.000 1.000 0.133
0.067 1.000 0.133
0.133 1.000 0.133
0.200 1.000 0.133
0.267 1.000 0.133
0.333 1.000 0.133
0.400 1.000 0.133
0.467 1.000 0.133
0.533 1.000 0.133
0.600 1.000 0.133
0.667 1.000 0.133
0.733 1.000 0.133
0.800 1.000 0.133
0.867 1.000 0.133
0.933 1.000 0.133
1.000 1.000 0.133
0.000 0.000 0.200
0.067 0.000 0.200
0.133 0.000 0.200
0.200 0.000 0.200
0.267 0.000 0.200
0.333 0.000 0.200
0.400 0.000 0.200
0.467 0.000 0.200
0.533 0.000 0.200
0.600 0.000 0.200
0.667 0.000 0.200
0.733 0.000 0.200
0.800 0.000 0.200
0.867 0.000 0.200
0.933 0.000 0.200
1.000 0.000 0.200
0.000 0.067 0.200
0.067 0.067 0.200
0.133 0.067 0.200
0.200 0.067 0.200
0.267 0.067 0.200
0.333 0.067 0.200
0.400 0.067 0.200
0.467 0.067 0.200
0.533 0.067 0.200
0.600 0.067 0.200
0.667 0.067 0.200
0.733 0.067 0.200
0.800 0.067 0.200
0.867 0.067 0.200
0.933 0.067 0.200
1.000 0.067 0.200
0.000 0.133 0.200
0.067 0.133 0.200
0.133 0.133 0.200
0.200 0.133 0.200
0.267 0.133 0.200
0.333 0.133 0.200
0.400 0.133 0.200
0.467 0.133 0.200
0.533 0.133 0.200
0.600 0.133 0.200
0.667 0.133 0.200
0.733 0.133 0.200
0.800 0.133 0.200
0.867 0.133 0.200
0.933 0.133 0.200
1.000 0.133 0.200
0.000 0.200 0.200
0.067 0.200 0.200
0.133 0.200 0.200
0.200 0.200 0.200
0.267 0.200 0.200
0.333 0.200 0.200
0.400 0.200 0.200
0.467 0.200 0.200
0.533 0.200 0.200
0.600 0.200 0.200
0.667 0.200 0.200
0.733 0.200 0.200
0.800 0.200 0.200
0.867 0.200 0.200
0.933 0.200 0.200
1.000 0.200 0.200
0.000 0.267 0.200
0.067 0.267 0.200
0.133 0.267 0.200
0.200 0.267 0.200
0.267 0.267 0.200
0.333 0.267 0.200
0.400 0.267 0.200
0.467 0.267 0.200
0.533 0.267 0.200
0.600 0.267 0.200
0.667 0.267 0.200
0.733 0.267 0.200
0.800 0.267 0.200
0.867 0.267 0.200
1.000 0.304 0.000
0.367 1.000 0.000
0.000 0.333 0.200
0.067 0.333 0.200
0.133 0.333 0.200
0.200 0.333 0.200
0.267 0.333 0.200
0.333 0.333 0.200
0.400 0.333 0.200
0.467 0.333 0.200
0.533 0.333 0.200
0.600 0.333 0.200
0.667 0.333 0.200
0.733 0.333 0.200
1.000 0.127 0.000
0.544 1.000 0.000
0.000 1.000 0.785
0.115 0.000 1.000
0.000 0.400 0.200
0.067 0.400 0.200
0.133 0.400 0.200
0.200 0.400 0.200
0.267 0.400 0.200
0.333 0.400 0.200
0.400 0.400 0.200
0.467 0.400 0.200
0.533 0.400 0.200
0.600 0.400 0.200
1.000 0.000 0.051
0.721 1.000 0.000
0.000 1.000 0.608
0.000 0.063 1.000
1.000 0.000 0.733
1.000 0.400 0.200
0.000 0.467 0.200
0.067 0.467 0.200
0.133 0.467 0.200
0.200 0.467 0.200
0.267 0.467 0.200
0.333 0.467 0.200
0.400 0.467 0.200
0.467 0.467 0.200
1.000 0.000 0.228
0.899 1.000 0.000
0.000 1.000 0.431
0.000 0.240 1.000
1.000 0.000 0.911
0.867 0.467 0.200
0.933 0.467 0.200
1.000 0.467 0.200
0.000 0.533 0.200
0.067 0.533 0.200
0.133 0.533 0.200
0.200 0.533 0.200
