mpv/mid_270deg.cube
TITLE "Rainbow LUT - Hue 270°"
LUT_3D_SIZE 6
DOMAIN_MIN 0 0 0
DOMAIN_MAX 1 1 1
# Generated with fixed rainbow gradient - hue offset: 270°
0.000 0.000 0.000
0.200 0.000 0.000
0.400 0.000 0.000
0.600 0.000 0.000
0.800 0.000 0.000
1.000 0.000 0.000
0.000 0.200 0.000
0.200 0.200 0.000
0.400 0.200 0.000
0.600 0.200 0.000
0.800 0.200 0.000
1.000 0.200 0.000
0.000 0.400 0.000
0.200 0.400 0.000
0.400 0.400 0.000
0.600 0.400 0.000
0.000 1.000 0.340
1.000 0.328 0.000
0.000 0.600 0.000
0.200 0.600 0.000
0.192 1.000 0.000
1.000 0.000 0.204
0.800 0.600 0.000
1.000 0.600 0.000
0.724 1.000 0.000
1.000 0.000 0.736
0.400 0.800 0.000
0.600 0.800 0.000
0.800 0.800 0.000
1.000 0.800 0.000
0.000 1.000 0.000
0.200 1.000 0.000
0.400 1.000 0.000
0.600 1.000 0.000
0.800 1.000 0.000
1.000 1.000 0.000
0.000 0.000 0.200
0.200 0.000 0.200
0.400 0.000 0.200
0.600 0.000 0.200
0.800 0.000 0.200
1.000 0.000 0.200
0.000 0.200 0.200
0.200 0.200 0.200
0.400 0.200 0.200
0.600 0.200 0.200
0.800 0.200 0.200
1.000 0.200 0.200
0.000 0.400 0.200
0.200 0.400 0.200
0.400 0.400 0.200
0.600 0.400 0.200
0.108 0.000 1.000
1.000 0.400 0.200
0.000 0.600 0.200
0.200 0.600 0.200
0.000 0.424 1.000
0.600 0.600 0.200
0.800 0.600 0.200
1.000 0.600 0.200
0.000 0.956 1.000
0.200 0.800 0.200
0.400 0.800 0.200
0.600 0.800 0.200
0.800 0.800 0.200
1.000 0.800 0.200
0.000 1.000 0.200
0.200 1.000 0.200
0.400 1.000 0.200
0.600 1.000 0.200
0.800 1.000 0.200
1.000 1.000 0.200
0.000 0.000 0.400
0.200 0.000 0.400
0.400 0.000 0.400
0.600 0.000 0.400
0.800 0.000 0.400
1.000 0.000 0.400
0.000 0.200 0.400
0.200 0.200 0.400
0.400 0.200 0.400
0.600 0.200 0.400
0.800 0.200 0.400
0.000 1.000 0.420
0.000 0.400 0.400
0.200 0.400 0.400
0.400 0.400 0.400
0.112 1.000 0.000
1.000 0.000 0.124
1.000 0.400 0.400
0.000 0.600 0.400
0.644 1.000 0.000
1.000 0.000 0.656
0.600 0.600 0.400
0.800 0.600 0.400
1.000 0.600 0.400
0.812 0.000 1.000
0.200 0.800 0.400
0.400 0.800 0.400
0.600 0.800 0.400
0.800 0.800 0.400
1.000 0.800 0.400
0.000 1.000 0.400
0.200 1.000 0.400
0.400 1.000 0.400
0.600 1.000 0.400
0.800 1.000 0.400
1.000 1.000 0.400
0.000 0.000 0.600
0.200 0.000 0.600
0.400 0.000 0.600
0.600 0.000 0.600
0.800 0.000 0.600
1.000 0.000 0.600
0.000 0.200 0.600
0.200 0.200 0.600
0.400 0.200 0.600
0.600 0.200 0.600
0.800 0.200 0.600
0.188 0.000 1.000
0.000 0.400 0.600
0.200 0.400 0.600
0.400 0.400 0.600
0.000 0.344 1.000
0.356 1.000 0.000
1.000 0.400 0.600
0.000 0.600 0.600
0.000 0.876 1.000
0.888 1.000 0.000
0.600 0.600 0.600
0.800 0.600 0.600
1.000 0.600 0.600
1.000 0.580 0.000
0.200 0.800 0.600
0.400 0.800 0.600
0.600 0.800 0.600
0.800 0.800 0.600
1.000 0.800 0.600
0.000 1.000 0.600
0.200 1.000 0.600
0.400 1.000 0.600
0.600 1.000 0.600
0.800 1.000 0.600
1.000 1.000 0.600
0.000 0.000 0.800
0.200 0.000 0.800
0.400 0.000 0.800
0.600 0.000 0.800
0.800 0.000 0.800
1.000 0.000 0.800
0.000 0.200 0.800
0.200 0.200 0.800
0.400 0.200 0.800
0.600 0.200 0.800
0.800 0.200 0.800
1.000 0.000 0.044
0.000 0.400 0.800
0.200 0.400 0.800
0.400 0.400 0.800
1.000 0.000 0.576
0.800 0.400 0.800
1.000 0.400 0.800
0.000 0.600 0.800
0.892 0.000 1.000
0.400 0.600 0.800
0.600 0.600 0.800
0.800 0.600 0.800
1.000 0.600 0.800
0.000 0.800 0.800
0.200 0.800 0.800
0.400 0.800 0.800
0.600 0.800 0.800
0.800 0.800 0.800
1.000 0.800 0.800
0.000 1.000 0.800
0.200 1.000 0.800
0.400 1.000 0.800
0.600 1.000 0.800
0.800 1.000 0.800
1.000 1.000 0.800
0.000 0.000 1.000
0.200 0.000 1.000
0.400 0.000 1.000
0.600 0.000 1.000
0.800 0.000 1.000
1.000 0.000 1.000
0.000 0.200 1.000
0.200 0.200 1.000
0.400 0.200 1.000
0.600 0.200 1.000
0.000 0.264 1.000
0.276 1.000 0.000
0.000 0.400 1.000
0.200 0.400 1.000
0.000 0.796 1.000
0.808 1.000 0.000
0.800 0.400 1.000
1.000 0.400 1.000
0.000 1.000 0.672
1.000 0.660 0.000
0.400 0.600 1.000
0.600 0.600 1.000
0.800 0.600 1.000
1.000 0.600 1.000
0.000 0.800 1.000
0.200 0.800 1.000
0.400 0.800 1.000
0.600 0.800 1.000
0.800 0.800 1.000
1.000 0.800 1.000
0.000 1.000 1.000
0.200 1.000 1.000
0.400 1.000 1.000
0.600 1.000 1.000
0.800 1.000 1.000
1.000 1.000 1.000
