mpv/mid_180deg.cube
TITLE "Rainbow LUT - Hue 180°"
LUT_3D_SIZE 6
DOMAIN_MIN 0 0 0
DOMAIN_MAX 1 1 1
# Generated with fixed rainbow gradient - hue offset: 180°
0.000 0.000 0.000
0.200 0.000 0.000
0.400 0.000 0.000
0.600 0.000 0.000
0.800 0.000 0.000
1.000 0.000 0.000
0.000 0.200 0.000
0.200 0.200 0.000
0.400 0.200 0.000
0.600 0.200 0.000
0.800 0.200 0.000
1.000 0.200 0.000
0.000 0.400 0.000
0.200 0.400 0.000
0.400 0.400 0.000
0.600 0.400 0.000
1.000 0.840 0.000
0.828 0.000 1.000
0.000 0.600 0.000
0.200 0.600 0.000
1.000 0.308 0.000
0.296 0.000 1.000
0.800 0.600 0.000
1.000 0.600 0.000
1.000 0.000 0.224
0.000 0.236 1.000
0.400 0.800 0.000
0.600 0.800 0.000
0.800 0.800 0.000
1.000 0.800 0.000
0.000 1.000 0.000
0.200 1.000 0.000
0.400 1.000 0.000
0.600 1.000 0.000
0.800 1.000 0.000
1.000 1.000 0.000
0.000 0.000 0.200
0.200 0.000 0.200
0.400 0.000 0.200
0.600 0.000 0.200
0.800 0.000 0.200
1.000 0.000 0.200
0.000 0.200 0.200
0.200 0.200 0.200
0.400 0.200 0.200
0.600 0.200 0.200
0.800 0.200 0.200
1.000 0.200 0.200
0.000 0.400 0.200
0.200 0.400 0.200
0.400 0.400 0.200
0.600 0.400 0.200
0.000 1.000 0.608
1.000 0.400 0.200
0.000 0.600 0.200
0.200 0.600 0.200
0.000 1.000 0.076
0.600 0.600 0.200
0.800 0.600 0.200
1.000 0.600 0.200
0.456 1.000 0.000
0.200 0.800 0.200
0.400 0.800 0.200
0.600 0.800 0.200
0.800 0.800 0.200
1.000 0.800 0.200
0.000 1.000 0.200
0.200 1.000 0.200
0.400 1.000 0.200
0.600 1.000 0.200
0.800 1.000 0.200
1.000 1.000 0.200
0.000 0.000 0.400
0.200 0.000 0.400
0.400 0.000 0.400
0.600 0.000 0.400
0.800 0.000 0.400
1.000 0.000 0.400
0.000 0.200 0.400
0.200 0.200 0.400
0.400 0.200 0.400
0.600 0.200 0.400
0.800 0.200 0.400
1.000 0.920 0.000
0.000 0.400 0.400
0.200 0.400 0.400
0.400 0.400 0.400
1.000 0.388 0.000
0.376 0.000 1.000
1.000 0.400 0.400
0.000 0.600 0.400
1.000 0.000 0.144
0.000 0.156 1.000
0.600 0.600 0.400
0.800 0.600 0.400
1.000 0.600 0.400
0.000 0.688 1.000
0.200 0.800 0.400
0.400 0.800 0.400
0.600 0.800 0.400
0.800 0.800 0.400
1.000 0.800 0.400
0.000 1.000 0.400
0.200 1.000 0.400
0.400 1.000 0.400
0.600 1.000 0.400
0.800 1.000 0.400
1.000 1.000 0.400
0.000 0.000 0.600
0.200 0.000 0.600
0.400 0.000 0.600
0.600 0.000 0.600
0.800 0.000 0.600
1.000 0.000 0.600
0.000 0.200 0.600
0.200 0.200 0.600
0.400 0.200 0.600
0.600 0.200 0.600
0.800 0.200 0.600
0.000 1.000 0.688
0.000 0.400 0.600
0.200 0.400 0.600
0.400 0.400 0.600
0.000 1.000 0.156
1.000 0.144 0.000
1.000 0.400 0.600
0.000 0.600 0.600
0.376 1.000 0.000
1.000 0.000 0.388
0.600 0.600 0.600
0.800 0.600 0.600
1.000 0.600 0.600
1.000 0.000 0.920
0.200 0.800 0.600
0.400 0.800 0.600
0.600 0.800 0.600
0.800 0.800 0.600
1.000 0.800 0.600
0.000 1.000 0.600
0.200 1.000 0.600
0.400 1.000 0.600
0.600 1.000 0.600
0.800 1.000 0.600
1.000 1.000 0.600
0.000 0.000 0.800
0.200 0.000 0.800
0.400 0.000 0.800
0.600 0.000 0.800
0.800 0.000 0.800
1.000 0.000 0.800
0.000 0.200 0.800
0.200 0.200 0.800
0.400 0.200 0.800
0.600 0.200 0.800
0.800 0.200 0.800
0.456 0.000 1.000
0.000 0.400 0.800
0.200 0.400 0.800
0.400 0.400 0.800
0.000 0.076 1.000
0.800 0.400 0.800
1.000 0.400 0.800
0.000 0.600 0.800
0.000 0.608 1.000
0.400 0.600 0.800
0.600 0.600 0.800
0.800 0.600 0.800
1.000 0.600 0.800
0.000 0.800 0.800
0.200 0.800 0.800
0.400 0.800 0.800
0.600 0.800 0.800
0.800 0.800 0.800
1.000 0.800 0.800
0.000 1.000 0.800
0.200 1.000 0.800
0.400 1.000 0.800
0.600 1.000 0.800
0.800 1.000 0.800
1.000 1.000 0.800
0.000 0.000 1.000
0.200 0.000 1.000
0.400 0.000 1.000
0.600 0.000 1.000
0.800 0.000 1.000
1.000 0.000 1.000
0.000 0.200 1.000
0.200 0.200 1.000
0.400 0.200 1.000
0.600 0.200 1.000
0.000 1.000 0.236
1.000 0.224 0.000
0.000 0.400 1.000
0.200 0.400 1.000
0.296 1.000 0.000
1.000 0.000 0.308
0.800 0.400 1.000
1.000 0.400 1.000
0.828 1.000 0.000
1.000 0.000 0.840
0.400 0.600 1.000
0.600 0.600 1.000
0.800 0.600 1.000
1.000 0.600 1.000
0.000 0.800 1.000
0.200 0.800 1.000
0.400 0.800 1.000
0.600 0.800 1.000
0.800 0.800 1.000
1.000 0.800 1.000
0.000 1.000 1.000
0.200 1.000 1.000
0.400 1.000 1.000
0.600 1.000 1.000
0.800 1.000 1.000
1.000 1.000 1.000
