mpv/mid_090deg.cube
TITLE "Rainbow LUT - Hue 90°"
LUT_3D_SIZE 6
DOMAIN_MIN 0 0 0
DOMAIN_MAX 1 1 1
# Generated with fixed rainbow gradient - hue offset: 90°
0.000 0.000 0.000
0.200 0.000 0.000
0.400 0.000 0.000
0.600 0.000 0.000
0.800 0.000 0.000
1.000 0.000 0.000
0.000 0.200 0.000
0.200 0.200 0.000
0.400 0.200 0.000
0.600 0.200 0.000
0.800 0.200 0.000
1.000 0.200 0.000
0.000 0.400 0.000
0.200 0.400 0.000
0.400 0.400 0.000
0.600 0.400 0.000
1.000 0.000 0.660
0.000 0.672 1.000
0.000 0.600 0.000
0.200 0.600 0.000
0.808 0.000 1.000
0.000 1.000 0.796
0.800 0.600 0.000
1.000 0.600 0.000
0.276 0.000 1.000
0.000 1.000 0.264
0.400 0.800 0.000
0.600 0.800 0.000
0.800 0.800 0.000
1.000 0.800 0.000
0.000 1.000 0.000
0.200 1.000 0.000
0.400 1.000 0.000
0.600 1.000 0.000
0.800 1.000 0.000
1.000 1.000 0.000
0.000 0.000 0.200
0.200 0.000 0.200
0.400 0.000 0.200
0.600 0.000 0.200
0.800 0.000 0.200
1.000 0.000 0.200
0.000 0.200 0.200
0.200 0.200 0.200
0.400 0.200 0.200
0.600 0.200 0.200
0.800 0.200 0.200
1.000 0.200 0.200
0.000 0.400 0.200
0.200 0.400 0.200
0.400 0.400 0.200
0.600 0.400 0.200
0.892 1.000 0.000
1.000 0.400 0.200
0.000 0.600 0.200
0.200 0.600 0.200
1.000 0.576 0.000
0.600 0.600 0.200
0.800 0.600 0.200
1.000 0.600 0.200
1.000 0.044 0.000
0.200 0.800 0.200
0.400 0.800 0.200
0.600 0.800 0.200
0.800 0.800 0.200
1.000 0.800 0.200
0.000 1.000 0.200
0.200 1.000 0.200
0.400 1.000 0.200
0.600 1.000 0.200
0.800 1.000 0.200
1.000 1.000 0.200
0.000 0.000 0.400
0.200 0.000 0.400
0.400 0.000 0.400
0.600 0.000 0.400
0.800 0.000 0.400
1.000 0.000 0.400
0.000 0.200 0.400
0.200 0.200 0.400
0.400 0.200 0.400
0.600 0.200 0.400
0.800 0.200 0.400
1.000 0.000 0.580
0.000 0.400 0.400
0.200 0.400 0.400
0.400 0.400 0.400
0.888 0.000 1.000
0.000 1.000 0.876
1.000 0.400 0.400
0.000 0.600 0.400
0.356 0.000 1.000
0.000 1.000 0.344
0.600 0.600 0.400
0.800 0.600 0.400
1.000 0.600 0.400
0.188 1.000 0.000
0.200 0.800 0.400
0.400 0.800 0.400
0.600 0.800 0.400
0.800 0.800 0.400
1.000 0.800 0.400
0.000 1.000 0.400
0.200 1.000 0.400
0.400 1.000 0.400
0.600 1.000 0.400
0.800 1.000 0.400
1.000 1.000 0.400
0.000 0.000 0.600
0.200 0.000 0.600
0.400 0.000 0.600
0.600 0.000 0.600
0.800 0.000 0.600
1.000 0.000 0.600
0.000 0.200 0.600
0.200 0.200 0.600
0.400 0.200 0.600
0.600 0.200 0.600
0.800 0.200 0.600
0.812 1.000 0.000
0.000 0.400 0.600
0.200 0.400 0.600
0.400 0.400 0.600
1.000 0.656 0.000
0.644 0.000 1.000
1.000 0.400 0.600
0.000 0.600 0.600
1.000 0.124 0.000
0.112 0.000 1.000
0.600 0.600 0.600
0.800 0.600 0.600
1.000 0.600 0.600
0.000 0.420 1.000
0.200 0.800 0.600
0.400 0.800 0.600
0.600 0.800 0.600
0.800 0.800 0.600
1.000 0.800 0.600
0.000 1.000 0.600
0.200 1.000 0.600
0.400 1.000 0.600
0.600 1.000 0.600
0.800 1.000 0.600
1.000 1.000 0.600
0.000 0.000 0.800
0.200 0.000 0.800
0.400 0.000 0.800
0.600 0.000 0.800
0.800 0.000 0.800
1.000 0.000 0.800
0.000 0.200 0.800
0.200 0.200 0.800
0.400 0.200 0.800
0.600 0.200 0.800
0.800 0.200 0.800
0.000 1.000 0.956
0.000 0.400 0.800
0.200 0.400 0.800
0.400 0.400 0.800
0.000 1.000 0.424
0.800 0.400 0.800
1.000 0.400 0.800
0.000 0.600 0.800
0.108 1.000 0.000
0.400 0.600 0.800
0.600 0.600 0.800
0.800 0.600 0.800
1.000 0.600 0.800
0.000 0.800 0.800
0.200 0.800 0.800
0.400 0.800 0.800
0.600 0.800 0.800
0.800 0.800 0.800
1.000 0.800 0.800
0.000 1.000 0.800
0.200 1.000 0.800
0.400 1.000 0.800
0.600 1.000 0.800
0.800 1.000 0.800
1.000 1.000 0.800
0.000 0.000 1.000
0.200 0.000 1.000
0.400 0.000 1.000
0.600 0.000 1.000
0.800 0.000 1.000
1.000 0.000 1.000
0.000 0.200 1.000
0.200 0.200 1.000
0.400 0.200 1.000
0.600 0.200 1.000
1.000 0.736 0.000
0.724 0.000 1.000
0.000 0.400 1.000
0.200 0.400 1.000
1.000 0.204 0.000
0.192 0.000 1.000
0.800 0.400 1.000
1.000 0.400 1.000
1.000 0.000 0.328
0.000 0.340 1.000
0.400 0.600 1.000
0.600 0.600 1.000
0.800 0.600 1.000
1.000 0.600 1.000
0.000 0.800 1.000
0.200 0.800 1.000
0.400 0.800 1.000
0.600 0.800 1.000
0.800 0.800 1.000
1.000 0.800 1.000
0.000 1.000 1.000
0.200 1.000 1.000
0.400 1.000 1.000
0.600 1.000 1.000
0.800 1.000 1.000
1.000 1.000 1.000
