mpv/mid_090deg.cube
TITLE "Rainbow LUT - Hue 90°"
LUT_3D_SIZE 16
DOMAIN_MIN 0 0 0
DOMAIN_MAX 1 1 1
# Generated with fixed rainbow gradient - hue offset: 90°
0.000 0.000 0.000
0.067 0.000 0.000
0.133 0.000 0.000
0.200 0.000 0.000
0.267 0.000 0.000
0.333 0.000 0.000
0.400 0.000 0.000
0.467 0.000 0.000
0.533 0.000 0.000
0.600 0.000 0.000
0.667 0.000 0.000
0.733 0.000 0.000
0.800 0.000 0.000
0.867 0.000 0.000
0.933 0.000 0.000
1.000 0.000 0.000
0.000 0.067 0.000
0.067 0.067 0.000
0.133 0.067 0.000
0.200 0.067 0.000
0.267 0.067 0.000
0.333 0.067 0.000
0.400 0.067 0.000
0.467 0.067 0.000
0.533 0.067 0.000
0.600 0.067 0.000
0.667 0.067 0.000
0.733 0.067 0.000
0.800 0.067 0.000
0.867 0.067 0.000
0.933 0.067 0.000
1.000 0.067 0.000
0.000 0.133 0.000
0.067 0.133 0.000
0.133 0.133 0.000
0.200 0.133 0.000
0.267 0.133 0.000
0.333 0.133 0.000
0.400 0.133 0.000
0.467 0.133 0.000
0.533 0.133 0.000
0.600 0.133 0.000
0.667 0.133 0.000
0.733 0.133 0.000
0.800 0.133 0.000
0.867 0.133 0.000
0.933 0.133 0.000
1.000 0.133 0.000
0.000 0.200 0.000
0.067 0.200 0.000
0.133 0.200 0.000
0.200 0.200 0.000
0.267 0.200 0.000
0.333 0.200 0.000
0.400 0.200 0.000
0.467 0.200 0.000
0.533 0.200 0.000
0.600 0.200 0.000
0.667 0.200 0.000
0.733 0.200 0.000
0.800 0.200 0.000
0.867 0.200 0.000
0.933 0.200 0.000
1.000 0.200 0.000
0.000 0.267 0.000
0.067 0.267 0.000
0.133 0.267 0.000
0.200 0.267 0.000
0.267 0.267 0.000
0.333 0.267 0.000
0.400 0.267 0.000
0.467 0.267 0.000
0.533 0.267 0.000
0.600 0.267 0.000
0.667 0.267 0.000
0.733 0.267 0.000
0.800 0.267 0.000
0.867 0.267 0.000
0.933 0.267 0.000
0.365 0.000 1.000
0.000 0.333 0.000
0.067 0.333 0.000
0.133 0.333 0.000
0.200 0.333 0.000
0.267 0.333 0.000
0.333 0.333 0.000
0.400 0.333 0.000
0.467 0.333 0.000
0.533 0.333 0.000
0.600 0.333 0.000
0.667 0.333 0.000
0.733 0.333 0.000
0.800 0.333 0.000
0.188 0.000 1.000
1.000 0.000 0.483
1.000 0.847 0.000
0.000 0.400 0.000
0.067 0.400 0.000
0.133 0.400 0.000
0.200 0.400 0.000
0.267 0.400 0.000
0.333 0.400 0.000
0.400 0.400 0.000
0.467 0.400 0.000
0.533 0.400 0.000
0.600 0.400 0.000
0.667 0.400 0.000
0.011 0.000 1.000
1.000 0.000 0.660
1.000 0.669 0.000
0.001 1.000 0.000
0.000 0.672 1.000
0.000 0.467 0.000
0.067 0.467 0.000
0.133 0.467 0.000
0.200 0.467 0.000
0.267 0.467 0.000
0.333 0.467 0.000
0.400 0.467 0.000
0.467 0.467 0.000
0.533 0.467 0.000
0.000 0.167 1.000
1.000 0.000 0.837
1.000 0.492 0.000
0.179 1.000 0.000
0.000 0.849 1.000
0.933 0.467 0.000
1.000 0.467 0.000
0.000 0.533 0.000
0.067 0.533 0.000
0.133 0.533 0.000
0.200 0.533 0.000
0.267 0.533 0.000
0.333 0.533 0.000
0.400 0.533 0.000
0.000 0.344 1.000
0.985 0.000 1.000
1.000 0.315 0.000
0.356 1.000 0.000
0.000 1.000 0.973
0.800 0.533 0.000
0.867 0.533 0.000
0.933 0.533 0.000
1.000 0.533 0.000
0.000 0.600 0.000
0.067 0.600 0.000
0.133 0.600 0.000
0.200 0.600 0.000
0.267 0.600 0.000
0.000 0.521 1.000
0.808 0.000 1.000
1.000 0.137 0.000
0.533 1.000 0.000
0.000 1.000 0.796
0.667 0.600 0.000
0.733 0.600 0.000
0.800 0.600 0.000
0.867 0.600 0.000
0.933 0.600 0.000
1.000 0.600 0.000
0.000 0.667 0.000
0.067 0.667 0.000
0.133 0.667 0.000
0.000 0.699 1.000
0.631 0.000 1.000
1.000 0.000 0.040
0.711 1.000 0.000
0.000 1.000 0.619
0.533 0.667 0.000
0.600 0.667 0.000
0.667 0.667 0.000
0.733 0.667 0.000
0.800 0.667 0.000
0.867 0.667 0.000
0.933 0.667 0.000
1.000 0.667 0.000
0.000 0.733 0.000
0.000 0.876 1.000
0.453 0.000 1.000
1.000 0.000 0.217
0.888 1.000 0.000
0.000 1.000 0.441
0.400 0.733 0.000
0.467 0.733 0.000
0.533 0.733 0.000
0.600 0.733 0.000
0.667 0.733 0.000
0.733 0.733 0.000
0.800 0.733 0.000
0.867 0.733 0.000
0.933 0.733 0.000
1.000 0.733 0.000
0.276 0.000 1.000
1.000 0.000 0.395
1.000 0.935 0.000
0.000 1.000 0.264
0.000 0.407 1.000
0.333 0.800 0.000
0.400 0.800 0.000
0.467 0.800 0.000
0.533 0.800 0.000
0.600 0.800 0.000
0.667 0.800 0.000
0.733 0.800 0.000
0.800 0.800 0.000
0.867 0.800 0.000
0.933 0.800 0.000
1.000 0.800 0.000
1.000 0.757 0.000
0.000 1.000 0.087
0.000 0.584 1.000
0.200 0.867 0.000
0.267 0.867 0.000
0.333 0.867 0.000
0.400 0.867 0.000
0.467 0.867 0.000
0.533 0.867 0.000
0.600 0.867 0.000
0.667 0.867 0.000
0.733 0.867 0.000
0.800 0.867 0.000
0.867 0.867 0.000
0.933 0.867 0.000
1.000 0.867 0.000
0.000 0.761 1.000
0.067 0.933 0.000
0.133 0.933 0.000
0.200 0.933 0.000
0.267 0.933 0.000
0.333 0.933 0.000
0.400 0.933 0.000
0.467 0.933 0.000
0.533 0.933 0.000
0.600 0.933 0.000
0.667 0.933 0.000
0.733 0.933 0.000
0.800 0.933 0.000
0.867 0.933 0.000
0.933 0.933 0.000
1.000 0.933 0.000
0.000 1.000 0.000
0.067 1.000 0.000
0.133 1.000 0.000
0.200 1.000 0.000
0.267 1.000 0.000
0.333 1.000 0.000
0.400 1.000 0.000
0.467 1.000 0.000
0.533 1.000 0.000
0.600 1.000 0.000
0.667 1.000 0.000
0.733 1.000 0.000
0.800 1.000 0.000
0.867 1.000 0.000
0.933 1.000 0.000
1.000 1.000 0.000
0.000 0.000 0.067
0.067 0.000 0.067
0.133 0.000 0.067
0.200 0.000 0.067
0.267 0.000 0.067
0.333 0.000 0.067
0.400 0.000 0.067
0.467 0.000 0.067
0.533 0.000 0.067
0.600 0.000 0.067
0.667 0.000 0.067
0.733 0.000 0.067
0.800 0.000 0.067
0.867 0.000 0.067
0.933 0.000 0.067
1.000 0.000 0.067
0.000 0.067 0.067
0.067 0.067 0.067
0.133 0.067 0.067
0.200 0.067 0.067
0.267 0.067 0.067
0.333 0.067 0.067
0.400 0.067 0.067
0.467 0.067 0.067
0.533 0.067 0.067
0.600 0.067 0.067
0.667 0.067 0.067
0.733 0.067 0.067
0.800 0.067 0.067
0.867 0.067 0.067
0.933 0.067 0.067
1.000 0.067 0.067
0.000 0.133 0.067
0.067 0.133 0.067
0.133 0.133 0.067
0.200 0.133 0.067
0.267 0.133 0.067
0.333 0.133 0.067
0.400 0.133 0.067
0.467 0.133 0.067
0.533 0.133 0.067
0.600 0.133 0.067
0.667 0.133 0.067
0.733 0.133 0.067
0.800 0.133 0.067
0.867 0.133 0.067
0.933 0.133 0.067
1.000 0.133 0.067
0.000 0.200 0.067
0.067 0.200 0.067
0.133 0.200 0.067
0.200 0.200 0.067
0.267 0.200 0.067
0.333 0.200 0.067
0.400 0.200 0.067
0.467 0.200 0.067
0.533 0.200 0.067
0.600 0.200 0.067
0.667 0.200 0.067
0.733 0.200 0.067
0.800 0.200 0.067
0.867 0.200 0.067
0.933 0.200 0.067
1.000 0.200 0.067
0.000 0.267 0.067
0.067 0.267 0.067
0.133 0.267 0.067
0.200 0.267 0.067
0.267 0.267 0.067
0.333 0.267 0.067
0.400 0.267 0.067
0.467 0.267 0.067
0.533 0.267 0.067
0.600 0.267 0.067
0.667 0.267 0.067
0.733 0.267 0.067
0.800 0.267 0.067
0.867 0.267 0.067
0.933 0.267 0.067
0.955 0.000 1.000
0.000 0.333 0.067
0.067 0.333 0.067
0.133 0.333 0.067
0.200 0.333 0.067
0.267 0.333 0.067
0.333 0.333 0.067
0.400 0.333 0.067
0.467 0.333 0.067
0.533 0.333 0.067
0.600 0.333 0.067
0.667 0.333 0.067
0.733 0.333 0.067
0.800 0.333 0.067
0.777 0.000 1.000
1.000 0.107 0.000
0.564 1.000 0.000
0.000 0.400 0.067
0.067 0.400 0.067
0.133 0.400 0.067
0.200 0.400 0.067
0.267 0.400 0.067
0.333 0.400 0.067
0.400 0.400 0.067
0.467 0.400 0.067
0.533 0.400 0.067
0.600 0.400 0.067
0.667 0.400 0.067
0.600 0.000 1.000
1.000 0.000 0.071
0.741 1.000 0.000
0.000 1.000 0.588
0.000 0.083 1.000
0.000 0.467 0.067
0.067 0.467 0.067
0.133 0.467 0.067
0.200 0.467 0.067
0.267 0.467 0.067
0.333 0.467 0.067
0.400 0.467 0.067
0.467 0.467 0.067
0.533 0.467 0.067
0.423 0.000 1.000
1.000 0.000 0.248
0.919 1.000 0.000
0.000 1.000 0.411
0.000 0.260 1.000
0.933 0.467 0.067
1.000 0.467 0.067
0.000 0.533 0.067
0.067 0.533 0.067
0.133 0.533 0.067
0.200 0.533 0.067
0.267 0.533 0.067
0.333 0.533 0.067
0.400 0.533 0.067
0.245 0.000 1.000
1.000 0.000 0.425
1.000 0.904 0.000
0.000 1.000 0.233
0.000 0.437 1.000
0.800 0.533 0.067
0.867 0.533 0.067
0.933 0.533 0.067
1.000 0.533 0.067
0.000 0.600 0.067
0.067 0.600 0.067
0.133 0.600 0.067
0.200 0.600 0.067
0.267 0.600 0.067
0.068 0.000 1.000
1.000 0.000 0.603
1.000 0.727 0.000
0.000 1.000 0.056
0.000 0.615 1.000
0.667 0.600 0.067
0.733 0.600 0.067
0.800 0.600 0.067
0.867 0.600 0.067
0.933 0.600 0.067
1.000 0.600 0.067
0.000 0.667 0.067
0.067 0.667 0.067
0.133 0.667 0.067
0.000 0.109 1.000
1.000 0.000 0.780
1.000 0.549 0.000
0.121 1.000 0.000
0.000 0.792 1.000
0.533 0.667 0.067
0.600 0.667 0.067
0.667 0.667 0.067
0.733 0.667 0.067
0.800 0.667 0.067
0.867 0.667 0.067
0.933 0.667 0.067
1.000 0.667 0.067
0.000 0.733 0.067
0.000 0.287 1.000
1.000 0.000 0.957
1.000 0.372 0.000
0.299 1.000 0.000
0.000 0.969 1.000
0.400 0.733 0.067
0.467 0.733 0.067
0.533 0.733 0.067
0.600 0.733 0.067
0.667 0.733 0.067
0.733 0.733 0.067
0.800 0.733 0.067
0.867 0.733 0.067
0.933 0.733 0.067
1.000 0.733 0.067
0.865 0.000 1.000
1.000 0.195 0.000
0.476 1.000 0.000
0.000 1.000 0.853
0.267 0.800 0.067
0.333 0.800 0.067
0.400 0.800 0.067
0.467 0.800 0.067
0.533 0.800 0.067
0.600 0.800 0.067
0.667 0.800 0.067
0.733 0.800 0.067
0.800 0.800 0.067
0.867 0.800 0.067
0.933 0.800 0.067
1.000 0.800 0.067
0.653 1.000 0.000
0.000 1.000 0.676
0.133 0.867 0.067
0.200 0.867 0.067
0.267 0.867 0.067
0.333 0.867 0.067
0.400 0.867 0.067
0.467 0.867 0.067
0.533 0.867 0.067
0.600 0.867 0.067
0.667 0.867 0.067
0.733 0.867 0.067
0.800 0.867 0.067
0.867 0.867 0.067
0.933 0.867 0.067
1.000 0.867 0.067
0.000 0.933 0.067
0.067 0.933 0.067
0.133 0.933 0.067
0.200 0.933 0.067
0.267 0.933 0.067
0.333 0.933 0.067
0.400 0.933 0.067
0.467 0.933 0.067
0.533 0.933 0.067
0.600 0.933 0.067
0.667 0.933 0.067
0.733 0.933 0.067
0.800 0.933 0.067
0.867 0.933 0.067
0.933 0.933 0.067
1.000 0.933 0.067
0.000 1.000 0.067
0.067 1.000 0.067
0.133 1.000 0.067
0.200 1.000 0.067
0.267 1.000 0.067
0.333 1.000 0.067
0.400 1.000 0.067
0.467 1.000 0.067
0.533 1.000 0.067
0.600 1.000 0.067
0.667 1.000 0.067
0.733 1.000 0.067
0.800 1.000 0.067
0.867 1.000 0.067
0.933 1.000 0.067
1.000 1.000 0.067
0.000 0.000 0.133
0.067 0.000 0.133
0.133 0.000 0.133
0.200 0.000 0.133
0.267 0.000 0.133
0.333 0.000 0.133
0.400 0.000 0.133
0.467 0.000 0.133
0.533 0.000 0.133
0.600 0.000 0.133
0.667 0.000 0.133
0.733 0.000 0.133
0.800 0.000 0.133
0.867 0.000 0.133
0.933 0.000 0.133
1.000 0.000 0.133
0.000 0.067 0.133
0.067 0.067 0.133
0.133 0.067 0.133
0.200 0.067 0.133
0.267 0.067 0.133
0.333 0.067 0.133
0.400 0.067 0.133
0.467 0.067 0.133
0.533 0.067 0.133
0.600 0.067 0.133
0.667 0.067 0.133
0.733 0.067 0.133
0.800 0.067 0.133
0.867 0.067 0.133
0.933 0.067 0.133
1.000 0.067 0.133
0.000 0.133 0.133
0.067 0.133 0.133
0.133 0.133 0.133
0.200 0.133 0.133
0.267 0.133 0.133
0.333 0.133 0.133
0.400 0.133 0.133
0.467 0.133 0.133
0.533 0.133 0.133
0.600 0.133 0.133
0.667 0.133 0.133
0.733 0.133 0.133
0.800 0.133 0.133
0.867 0.133 0.133
0.933 0.133 0.133
1.000 0.133 0.133
0.000 0.200 0.133
0.067 0.200 0.133
0.133 0.200 0.133
0.200 0.200 0.133
0.267 0.200 0.133
0.333 0.200 0.133
0.400 0.200 0.133
0.467 0.200 0.133
0.533 0.200 0.133
0.600 0.200 0.133
0.667 0.200 0.133
0.733 0.200 0.133
0.800 0.200 0.133
0.867 0.200 0.133
0.933 0.200 0.133
1.000 0.200 0.133
0.000 0.267 0.133
0.067 0.267 0.133
0.133 0.267 0.133
0.200 0.267 0.133
0.267 0.267 0.133
0.333 0.267 0.133
0.400 0.267 0.133
0.467 0.267 0.133
0.533 0.267 0.133
0.600 0.267 0.133
0.667 0.267 0.133
0.733 0.267 0.133
0.800 0.267 0.133
0.867 0.267 0.133
0.215 0.000 1.000
1.000 0.000 0.456
0.000 0.333 0.133
0.067 0.333 0.133
0.133 0.333 0.133
0.200 0.333 0.133
0.267 0.333 0.133
0.333 0.333 0.133
0.400 0.333 0.133
0.467 0.333 0.133
0.533 0.333 0.133
0.600 0.333 0.133
0.667 0.333 0.133
0.733 0.333 0.133
0.037 0.000 1.000
1.000 0.000 0.633
1.000 0.696 0.000
0.000 1.000 0.025
0.000 0.400 0.133
0.067 0.400 0.133
0.133 0.400 0.133
0.200 0.400 0.133
0.267 0.400 0.133
0.333 0.400 0.133
0.400 0.400 0.133
0.467 0.400 0.133
0.533 0.400 0.133
0.600 0.400 0.133
0.667 0.400 0.133
1.000 0.000 0.811
1.000 0.519 0.000
0.152 1.000 0.000
0.000 0.823 1.000
0.507 0.000 1.000
0.000 0.467 0.133
0.067 0.467 0.133
0.133 0.467 0.133
0.200 0.467 0.133
0.267 0.467 0.133
0.333 0.467 0.133
0.400 0.467 0.133
0.467 0.467 0.133
0.533 0.467 0.133
1.000 0.000 0.988
1.000 0.341 0.000
0.329 1.000 0.000
0.000 1.000 1.000
0.329 0.000 1.000
0.933 0.467 0.133
1.000 0.467 0.133
0.000 0.533 0.133
0.067 0.533 0.133
0.133 0.533 0.133
0.200 0.533 0.133
0.267 0.533 0.133
0.333 0.533 0.133
0.400 0.533 0.133
0.835 0.000 1.000
1.000 0.164 0.000
0.507 1.000 0.000
0.000 1.000 0.823
0.152 0.000 1.000
0.800 0.533 0.133
0.867 0.533 0.133
0.933 0.533 0.133
1.000 0.533 0.133
0.000 0.600 0.133
0.067 0.600 0.133
0.133 0.600 0.133
0.200 0.600 0.133
0.267 0.600 0.133
0.657 0.000 1.000
1.000 0.000 0.013
0.684 1.000 0.000
0.000 1.000 0.645
0.000 0.025 1.000
0.667 0.600 0.133
0.733 0.600 0.133
0.800 0.600 0.133
0.867 0.600 0.133
0.933 0.600 0.133
1.000 0.600 0.133
0.000 0.667 0.133
0.067 0.667 0.133
0.133 0.667 0.133
0.480 0.000 1.000
1.000 0.000 0.191
0.861 1.000 0.000
0.000 1.000 0.468
0.000 0.203 1.000
0.533 0.667 0.133
0.600 0.667 0.133
0.667 0.667 0.133
0.733 0.667 0.133
0.800 0.667 0.133
0.867 0.667 0.133
0.933 0.667 0.133
1.000 0.667 0.133
0.000 0.733 0.133
0.303 0.000 1.000
1.000 0.000 0.368
1.000 0.961 0.000
0.000 1.000 0.291
0.000 0.380 1.000
0.400 0.733 0.133
0.467 0.733 0.133
0.533 0.733 0.133
0.600 0.733 0.133
0.667 0.733 0.133
0.733 0.733 0.133
0.800 0.733 0.133
0.867 0.733 0.133
0.933 0.733 0.133
1.000 0.733 0.133
1.000 0.000 0.545
1.000 0.784 0.000
0.000 1.000 0.113
0.000 0.557 1.000
0.267 0.800 0.133
0.333 0.800 0.133
0.400 0.800 0.133
0.467 0.800 0.133
0.533 0.800 0.133
0.600 0.800 0.133
0.667 0.800 0.133
0.733 0.800 0.133
0.800 0.800 0.133
0.867 0.800 0.133
0.933 0.800 0.133
1.000 0.800 0.133
0.064 1.000 0.000
0.000 0.735 1.000
0.133 0.867 0.133
0.200 0.867 0.133
0.267 0.867 0.133
0.333 0.867 0.133
0.400 0.867 0.133
0.467 0.867 0.133
0.533 0.867 0.133
0.600 0.867 0.133
0.667 0.867 0.133
0.733 0.867 0.133
0.800 0.867 0.133
0.867 0.867 0.133
0.933 0.867 0.133
1.000 0.867 0.133
0.000 0.933 0.133
0.067 0.933 0.133
0.133 0.933 0.133
0.200 0.933 0.133
0.267 0.933 0.133
0.333 0.933 0.133
0.400 0.933 0.133
0.467 0.933 0.133
0.533 0.933 0.133
0.600 0.933 0.133
0.667 0.933 0.133
0.733 0.933 0.133
0.800 0.933 0.133
0.867 0.933 0.133
0.933 0.933 0.133
1.000 0.933 0.133
0.000 1.000 0.133
0.067 1.000 0.133
0.133 1.000 0.133
0.200 1.000 0.133
0.267 1.000 0.133
0.333 1.000 0.133
0.400 1.000 0.133
0.467 1.000 0.133
0.533 1.000 0.133
0.600 1.000 0.133
0.667 1.000 0.133
0.733 1.000 0.133
0.800 1.000 0.133
0.867 1.000 0.133
0.933 1.000 0.133
1.000 1.000 0.133
0.000 0.000 0.200
0.067 0.000 0.200
0.133 0.000 0.200
0.200 0.000 0.200
0.267 0.000 0.200
0.333 0.000 0.200
0.400 0.000 0.200
0.467 0.000 0.200
0.533 0.000 0.200
0.600 0.000 0.200
0.667 0.000 0.200
0.733 0.000 0.200
0.800 0.000 0.200
0.867 0.000 0.200
0.933 0.000 0.200
1.000 0.000 0.200
0.000 0.067 0.200
0.067 0.067 0.200
0.133 0.067 0.200
0.200 0.067 0.200
0.267 0.067 0.200
0.333 0.067 0.200
0.400 0.067 0.200
0.467 0.067 0.200
0.533 0.067 0.200
0.600 0.067 0.200
0.667 0.067 0.200
0.733 0.067 0.200
0.800 0.067 0.200
0.867 0.067 0.200
0.933 0.067 0.200
1.000 0.067 0.200
0.000 0.133 0.200
0.067 0.133 0.200
0.133 0.133 0.200
0.200 0.133 0.200
0.267 0.133 0.200
0.333 0.133 0.200
0.400 0.133 0.200
0.467 0.133 0.200
0.533 0.133 0.200
0.600 0.133 0.200
0.667 0.133 0.200
0.733 0.133 0.200
0.800 0.133 0.200
0.867 0.133 0.200
0.933 0.133 0.200
1.000 0.133 0.200
0.000 0.200 0.200
0.067 0.200 0.200
0.133 0.200 0.200
0.200 0.200 0.200
0.267 0.200 0.200
0.333 0.200 0.200
0.400 0.200 0.200
0.467 0.200 0.200
0.533 0.200 0.200
0.600 0.200 0.200
0.667 0.200 0.200
0.733 0.200 0.200
0.800 0.200 0.200
0.867 0.200 0.200
0.933 0.200 0.200
1.000 0.200 0.200
0.000 0.267 0.200
0.067 0.267 0.200
0.133 0.267 0.200
0.200 0.267 0.200
0.267 0.267 0.200
0.333 0.267 0.200
0.400 0.267 0.200
0.467 0.267 0.200
0.533 0.267 0.200
0.600 0.267 0.200
0.667 0.267 0.200
0.733 0.267 0.200
0.800 0.267 0.200
0.867 0.267 0.200
0.804 0.000 1.000
1.000 0.133 0.000
0.000 0.333 0.200
0.067 0.333 0.200
0.133 0.333 0.200
0.200 0.333 0.200
0.267 0.333 0.200
0.333 0.333 0.200
0.400 0.333 0.200
0.467 0.333 0.200
0.533 0.333 0.200
0.600 0.333 0.200
0.667 0.333 0.200
0.733 0.333 0.200
0.627 0.000 1.000
1.000 0.000 0.044
0.715 1.000 0.000
0.000 1.000 0.615
0.000 0.400 0.200
0.067 0.400 0.200
0.133 0.400 0.200
0.200 0.400 0.200
0.267 0.400 0.200
0.333 0.400 0.200
0.400 0.400 0.200
0.467 0.400 0.200
0.533 0.400 0.200
0.600 0.400 0.200
0.449 0.000 1.000
1.000 0.000 0.221
0.892 1.000 0.000
0.000 1.000 0.437
0.000 0.233 1.000
1.000 0.400 0.200
0.000 0.467 0.200
0.067 0.467 0.200
0.133 0.467 0.200
0.200 0.467 0.200
0.267 0.467 0.200
0.333 0.467 0.200
0.400 0.467 0.200
0.467 0.467 0.200
0.272 0.000 1.000
1.000 0.000 0.399
1.000 0.931 0.000
0.000 1.000 0.260
0.000 0.411 1.000
0.867 0.467 0.200
0.933 0.467 0.200
1.000 0.467 0.200
0.000 0.533 0.200
0.067 0.533 0.200
0.133 0.533 0.200
0.200 0.533 0.200
