mpv/mid_270deg.cube
TITLE "Rainbow LUT - Hue 270°"
LUT_3D_SIZE 16
DOMAIN_MIN 0 0 0
DOMAIN_MAX 1 1 1
# Generated with fixed rainbow gradient - hue offset: 270°
0.000 0.000 0.000
0.067 0.000 0.000
0.133 0.000 0.000
0.200 0.000 0.000
0.267 0.000 0.000
0.333 0.000 0.000
0.400 0.000 0.000
0.467 0.000 0.000
0.533 0.000 0.000
0.600 0.000 0.000
0.667 0.000 0.000
0.733 0.000 0.000
0.800 0.000 0.000
0.867 0.000 0.000
0.933 0.000 0.000
1.000 0.000 0.000
0.000 0.067 0.000
0.067 0.067 0.000
0.133 0.067 0.000
0.200 0.067 0.000
0.267 0.067 0.000
0.333 0.067 0.000
0.400 0.067 0.000
0.467 0.067 0.000
0.533 0.067 0.000
0.600 0.067 0.000
0.667 0.067 0.000
0.733 0.067 0.000
0.800 0.067 0.000
0.867 0.067 0.000
0.933 0.067 0.000
1.000 0.067 0.000
0.000 0.133 0.000
0.067 0.133 0.000
0.133 0.133 0.000
0.200 0.133 0.000
0.267 0.133 0.000
0.333 0.133 0.000
0.400 0.133 0.000
0.467 0.133 0.000
0.533 0.133 0.000
0.600 0.133 0.000
0.667 0.133 0.000
0.733 0.133 0.000
0.800 0.133 0.000
0.867 0.133 0.000
0.933 0.133 0.000
1.000 0.133 0.000
0.000 0.200 0.000
0.067 0.200 0.000
0.133 0.200 0.000
0.200 0.200 0.000
0.267 0.200 0.000
0.333 0.200 0.000
0.400 0.200 0.000
0.467 0.200 0.000
0.533 0.200 0.000
0.600 0.200 0.000
0.667 0.200 0.000
0.733 0.200 0.000
0.800 0.200 0.000
0.867 0.200 0.000
0.933 0.200 0.000
1.000 0.200 0.000
0.000 0.267 0.000
0.067 0.267 0.000
0.133 0.267 0.000
0.200 0.267 0.000
0.267 0.267 0.000
0.333 0.267 0.000
0.400 0.267 0.000
0.467 0.267 0.000
0.533 0.267 0.000
0.600 0.267 0.000
0.667 0.267 0.000
0.733 0.267 0.000
0.800 0.267 0.000
0.867 0.267 0.000
0.933 0.267 0.000
0.635 1.000 0.000
0.000 0.333 0.000
0.067 0.333 0.000
0.133 0.333 0.000
0.200 0.333 0.000
0.267 0.333 0.000
0.333 0.333 0.000
0.400 0.333 0.000
0.467 0.333 0.000
0.533 0.333 0.000
0.600 0.333 0.000
0.667 0.333 0.000
0.733 0.333 0.000
0.800 0.333 0.000
0.812 1.000 0.000
0.000 1.000 0.517
0.000 0.153 1.000
0.000 0.400 0.000
0.067 0.400 0.000
0.133 0.400 0.000
0.200 0.400 0.000
0.267 0.400 0.000
0.333 0.400 0.000
0.400 0.400 0.000
0.467 0.400 0.000
0.533 0.400 0.000
0.600 0.400 0.000
0.667 0.400 0.000
0.989 1.000 0.000
0.000 1.000 0.340
0.000 0.331 1.000
0.999 0.000 1.000
1.000 0.328 0.000
0.000 0.467 0.000
0.067 0.467 0.000
0.133 0.467 0.000
0.200 0.467 0.000
0.267 0.467 0.000
0.333 0.467 0.000
0.400 0.467 0.000
0.467 0.467 0.000
0.533 0.467 0.000
1.000 0.833 0.000
0.000 1.000 0.163
0.000 0.508 1.000
0.821 0.000 1.000
1.000 0.151 0.000
0.933 0.467 0.000
1.000 0.467 0.000
0.000 0.533 0.000
0.067 0.533 0.000
0.133 0.533 0.000
0.200 0.533 0.000
0.267 0.533 0.000
0.333 0.533 0.000
0.400 0.533 0.000
1.000 0.656 0.000
0.015 1.000 0.000
0.000 0.685 1.000
0.644 0.000 1.000
1.000 0.000 0.027
0.800 0.533 0.000
0.867 0.533 0.000
0.933 0.533 0.000
1.000 0.533 0.000
0.000 0.600 0.000
0.067 0.600 0.000
0.133 0.600 0.000
0.200 0.600 0.000
0.267 0.600 0.000
1.000 0.479 0.000
0.192 1.000 0.000
0.000 0.863 1.000
0.467 0.000 1.000
1.000 0.000 0.204
0.667 0.600 0.000
0.733 0.600 0.000
0.800 0.600 0.000
0.867 0.600 0.000
0.933 0.600 0.000
1.000 0.600 0.000
0.000 0.667 0.000
0.067 0.667 0.000
0.133 0.667 0.000
1.000 0.301 0.000
0.369 1.000 0.000
0.000 1.000 0.960
0.289 0.000 1.000
1.000 0.000 0.381
0.533 0.667 0.000
0.600 0.667 0.000
0.667 0.667 0.000
0.733 0.667 0.000
0.800 0.667 0.000
0.867 0.667 0.000
0.933 0.667 0.000
1.000 0.667 0.000
0.000 0.733 0.000
1.000 0.124 0.000
0.547 1.000 0.000
0.000 1.000 0.783
0.112 0.000 1.000
1.000 0.000 0.559
0.400 0.733 0.000
0.467 0.733 0.000
0.533 0.733 0.000
0.600 0.733 0.000
0.667 0.733 0.000
0.733 0.733 0.000
0.800 0.733 0.000
0.867 0.733 0.000
0.933 0.733 0.000
1.000 0.733 0.000
0.724 1.000 0.000
0.000 1.000 0.605
0.000 0.065 1.000
1.000 0.000 0.736
1.000 0.593 0.000
0.333 0.800 0.000
0.400 0.800 0.000
0.467 0.800 0.000
0.533 0.800 0.000
0.600 0.800 0.000
0.667 0.800 0.000
0.733 0.800 0.000
0.800 0.800 0.000
0.867 0.800 0.000
0.933 0.800 0.000
1.000 0.800 0.000
0.000 0.243 1.000
1.000 0.000 0.913
1.000 0.416 0.000
0.200 0.867 0.000
0.267 0.867 0.000
0.333 0.867 0.000
0.400 0.867 0.000
0.467 0.867 0.000
0.533 0.867 0.000
0.600 0.867 0.000
0.667 0.867 0.000
0.733 0.867 0.000
0.800 0.867 0.000
0.867 0.867 0.000
0.933 0.867 0.000
1.000 0.867 0.000
1.000 0.239 0.000
0.067 0.933 0.000
0.133 0.933 0.000
0.200 0.933 0.000
0.267 0.933 0.000
0.333 0.933 0.000
0.400 0.933 0.000
0.467 0.933 0.000
0.533 0.933 0.000
0.600 0.933 0.000
0.667 0.933 0.000
0.733 0.933 0.000
0.800 0.933 0.000
0.867 0.933 0.000
0.933 0.933 0.000
1.000 0.933 0.000
0.000 1.000 0.000
0.067 1.000 0.000
0.133 1.000 0.000
0.200 1.000 0.000
0.267 1.000 0.000
0.333 1.000 0.000
0.400 1.000 0.000
0.467 1.000 0.000
0.533 1.000 0.000
0.600 1.000 0.000
0.667 1.000 0.000
0.733 1.000 0.000
0.800 1.000 0.000
0.867 1.000 0.000
0.933 1.000 0.000
1.000 1.000 0.000
0.000 0.000 0.067
0.067 0.000 0.067
0.133 0.000 0.067
0.200 0.000 0.067
0.267 0.000 0.067
0.333 0.000 0.067
0.400 0.000 0.067
0.467 0.000 0.067
0.533 0.000 0.067
0.600 0.000 0.067
0.667 0.000 0.067
0.733 0.000 0.067
0.800 0.000 0.067
0.867 0.000 0.067
0.933 0.000 0.067
1.000 0.000 0.067
0.000 0.067 0.067
0.067 0.067 0.067
0.133 0.067 0.067
0.200 0.067 0.067
0.267 0.067 0.067
0.333 0.067 0.067
0.400 0.067 0.067
0.467 0.067 0.067
0.533 0.067 0.067
0.600 0.067 0.067
0.667 0.067 0.067
0.733 0.067 0.067
0.800 0.067 0.067
0.867 0.067 0.067
0.933 0.067 0.067
1.000 0.067 0.067
0.000 0.133 0.067
0.067 0.133 0.067
0.133 0.133 0.067
0.200 0.133 0.067
0.267 0.133 0.067
0.333 0.133 0.067
0.400 0.133 0.067
0.467 0.133 0.067
0.533 0.133 0.067
0.600 0.133 0.067
0.667 0.133 0.067
0.733 0.133 0.067
0.800 0.133 0.067
0.867 0.133 0.067
0.933 0.133 0.067
1.000 0.133 0.067
0.000 0.200 0.067
0.067 0.200 0.067
0.133 0.200 0.067
0.200 0.200 0.067
0.267 0.200 0.067
0.333 0.200 0.067
0.400 0.200 0.067
0.467 0.200 0.067
0.533 0.200 0.067
0.600 0.200 0.067
0.667 0.200 0.067
0.733 0.200 0.067
0.800 0.200 0.067
0.867 0.200 0.067
0.933 0.200 0.067
1.000 0.200 0.067
0.000 0.267 0.067
0.067 0.267 0.067
0.133 0.267 0.067
0.200 0.267 0.067
0.267 0.267 0.067
0.333 0.267 0.067
0.400 0.267 0.067
0.467 0.267 0.067
0.533 0.267 0.067
0.600 0.267 0.067
0.667 0.267 0.067
0.733 0.267 0.067
0.800 0.267 0.067
0.867 0.267 0.067
0.933 0.267 0.067
0.045 1.000 0.000
0.000 0.333 0.067
0.067 0.333 0.067
0.133 0.333 0.067
0.200 0.333 0.067
0.267 0.333 0.067
0.333 0.333 0.067
0.400 0.333 0.067
0.467 0.333 0.067
0.533 0.333 0.067
0.600 0.333 0.067
0.667 0.333 0.067
0.733 0.333 0.067
0.800 0.333 0.067
0.223 1.000 0.000
0.000 0.893 1.000
0.436 0.000 1.000
0.000 0.400 0.067
0.067 0.400 0.067
0.133 0.400 0.067
0.200 0.400 0.067
0.267 0.400 0.067
0.333 0.400 0.067
0.400 0.400 0.067
0.467 0.400 0.067
0.533 0.400 0.067
0.600 0.400 0.067
0.667 0.400 0.067
0.400 1.000 0.000
0.000 1.000 0.929
0.259 0.000 1.000
1.000 0.000 0.412
1.000 0.917 0.000
0.000 0.467 0.067
0.067 0.467 0.067
0.133 0.467 0.067
0.200 0.467 0.067
0.267 0.467 0.067
0.333 0.467 0.067
0.400 0.467 0.067
0.467 0.467 0.067
0.533 0.467 0.067
0.577 1.000 0.000
0.000 1.000 0.752
0.081 0.000 1.000
1.000 0.000 0.589
1.000 0.740 0.000
0.933 0.467 0.067
1.000 0.467 0.067
0.000 0.533 0.067
0.067 0.533 0.067
0.133 0.533 0.067
0.200 0.533 0.067
0.267 0.533 0.067
0.333 0.533 0.067
0.400 0.533 0.067
0.755 1.000 0.000
0.000 1.000 0.575
0.000 0.096 1.000
1.000 0.000 0.767
1.000 0.563 0.000
0.800 0.533 0.067
0.867 0.533 0.067
0.933 0.533 0.067
1.000 0.533 0.067
0.000 0.600 0.067
0.067 0.600 0.067
0.133 0.600 0.067
0.200 0.600 0.067
0.267 0.600 0.067
0.932 1.000 0.000
0.000 1.000 0.397
0.000 0.273 1.000
1.000 0.000 0.944
1.000 0.385 0.000
0.667 0.600 0.067
0.733 0.600 0.067
0.800 0.600 0.067
0.867 0.600 0.067
0.933 0.600 0.067
1.000 0.600 0.067
0.000 0.667 0.067
0.067 0.667 0.067
0.133 0.667 0.067
1.000 0.891 0.000
0.000 1.000 0.220
0.000 0.451 1.000
0.879 0.000 1.000
1.000 0.208 0.000
0.533 0.667 0.067
0.600 0.667 0.067
0.667 0.667 0.067
0.733 0.667 0.067
0.800 0.667 0.067
0.867 0.667 0.067
0.933 0.667 0.067
1.000 0.667 0.067
0.000 0.733 0.067
1.000 0.713 0.000
0.000 1.000 0.043
0.000 0.628 1.000
0.701 0.000 1.000
1.000 0.031 0.000
0.400 0.733 0.067
0.467 0.733 0.067
0.533 0.733 0.067
0.600 0.733 0.067
0.667 0.733 0.067
0.733 0.733 0.067
0.800 0.733 0.067
0.867 0.733 0.067
0.933 0.733 0.067
1.000 0.733 0.067
0.135 1.000 0.000
0.000 0.805 1.000
0.524 0.000 1.000
1.000 0.000 0.147
0.267 0.800 0.067
0.333 0.800 0.067
0.400 0.800 0.067
0.467 0.800 0.067
0.533 0.800 0.067
0.600 0.800 0.067
0.667 0.800 0.067
0.733 0.800 0.067
0.800 0.800 0.067
0.867 0.800 0.067
0.933 0.800 0.067
1.000 0.800 0.067
0.347 0.000 1.000
1.000 0.000 0.324
0.133 0.867 0.067
0.200 0.867 0.067
0.267 0.867 0.067
0.333 0.867 0.067
0.400 0.867 0.067
0.467 0.867 0.067
0.533 0.867 0.067
0.600 0.867 0.067
0.667 0.867 0.067
0.733 0.867 0.067
0.800 0.867 0.067
0.867 0.867 0.067
0.933 0.867 0.067
1.000 0.867 0.067
0.000 0.933 0.067
0.067 0.933 0.067
0.133 0.933 0.067
0.200 0.933 0.067
0.267 0.933 0.067
0.333 0.933 0.067
0.400 0.933 0.067
0.467 0.933 0.067
0.533 0.933 0.067
0.600 0.933 0.067
0.667 0.933 0.067
0.733 0.933 0.067
0.800 0.933 0.067
0.867 0.933 0.067
0.933 0.933 0.067
1.000 0.933 0.067
0.000 1.000 0.067
0.067 1.000 0.067
0.133 1.000 0.067
0.200 1.000 0.067
0.267 1.000 0.067
0.333 1.000 0.067
0.400 1.000 0.067
0.467 1.000 0.067
0.533 1.000 0.067
0.600 1.000 0.067
0.667 1.000 0.067
0.733 1.000 0.067
0.800 1.000 0.067
0.867 1.000 0.067
0.933 1.000 0.067
1.000 1.000 0.067
0.000 0.000 0.133
0.067 0.000 0.133
0.133 0.000 0.133
0.200 0.000 0.133
0.267 0.000 0.133
0.333 0.000 0.133
0.400 0.000 0.133
0.467 0.000 0.133
0.533 0.000 0.133
0.600 0.000 0.133
0.667 0.000 0.133
0.733 0.000 0.133
0.800 0.000 0.133
0.867 0.000 0.133
0.933 0.000 0.133
1.000 0.000 0.133
0.000 0.067 0.133
0.067 0.067 0.133
0.133 0.067 0.133
0.200 0.067 0.133
0.267 0.067 0.133
0.333 0.067 0.133
0.400 0.067 0.133
0.467 0.067 0.133
0.533 0.067 0.133
0.600 0.067 0.133
0.667 0.067 0.133
0.733 0.067 0.133
0.800 0.067 0.133
0.867 0.067 0.133
0.933 0.067 0.133
1.000 0.067 0.133
0.000 0.133 0.133
0.067 0.133 0.133
0.133 0.133 0.133
0.200 0.133 0.133
0.267 0.133 0.133
0.333 0.133 0.133
0.400 0.133 0.133
0.467 0.133 0.133
0.533 0.133 0.133
0.600 0.133 0.133
0.667 0.133 0.133
0.733 0.133 0.133
0.800 0.133 0.133
0.867 0.133 0.133
0.933 0.133 0.133
1.000 0.133 0.133
0.000 0.200 0.133
0.067 0.200 0.133
0.133 0.200 0.133
0.200 0.200 0.133
0.267 0.200 0.133
0.333 0.200 0.133
0.400 0.200 0.133
0.467 0.200 0.133
0.533 0.200 0.133
0.600 0.200 0.133
0.667 0.200 0.133
0.733 0.200 0.133
0.800 0.200 0.133
0.867 0.200 0.133
0.933 0.200 0.133
1.000 0.200 0.133
0.000 0.267 0.133
0.067 0.267 0.133
0.133 0.267 0.133
0.200 0.267 0.133
0.267 0.267 0.133
0.333 0.267 0.133
0.400 0.267 0.133
0.467 0.267 0.133
0.533 0.267 0.133
0.600 0.267 0.133
0.667 0.267 0.133
0.733 0.267 0.133
0.800 0.267 0.133
0.867 0.267 0.133
0.785 1.000 0.000
0.000 1.000 0.544
0.000 0.333 0.133
0.067 0.333 0.133
0.133 0.333 0.133
0.200 0.333 0.133
0.267 0.333 0.133
0.333 0.333 0.133
0.400 0.333 0.133
0.467 0.333 0.133
0.533 0.333 0.133
0.600 0.333 0.133
0.667 0.333 0.133
0.733 0.333 0.133
0.963 1.000 0.000
0.000 1.000 0.367
0.000 0.304 1.000
1.000 0.000 0.975
0.000 0.400 0.133
0.067 0.400 0.133
0.133 0.400 0.133
0.200 0.400 0.133
0.267 0.400 0.133
0.333 0.400 0.133
0.400 0.400 0.133
0.467 0.400 0.133
0.533 0.400 0.133
0.600 0.400 0.133
0.667 0.400 0.133
0.000 1.000 0.189
0.000 0.481 1.000
0.848 0.000 1.000
1.000 0.177 0.000
0.493 1.000 0.000
0.000 0.467 0.133
0.067 0.467 0.133
0.133 0.467 0.133
0.200 0.467 0.133
0.267 0.467 0.133
0.333 0.467 0.133
0.400 0.467 0.133
0.467 0.467 0.133
0.533 0.467 0.133
0.000 1.000 0.012
0.000 0.659 1.000
0.671 0.000 1.000
1.000 0.000 0.000
0.671 1.000 0.000
0.933 0.467 0.133
1.000 0.467 0.133
0.000 0.533 0.133
0.067 0.533 0.133
0.133 0.533 0.133
0.200 0.533 0.133
0.267 0.533 0.133
0.333 0.533 0.133
0.400 0.533 0.133
0.165 1.000 0.000
0.000 0.836 1.000
0.493 0.000 1.000
1.000 0.000 0.177
0.848 1.000 0.000
0.800 0.533 0.133
0.867 0.533 0.133
0.933 0.533 0.133
1.000 0.533 0.133
0.000 0.600 0.133
0.067 0.600 0.133
0.133 0.600 0.133
0.200 0.600 0.133
0.267 0.600 0.133
0.343 1.000 0.000
0.000 1.000 0.987
0.316 0.000 1.000
1.000 0.000 0.355
1.000 0.975 0.000
0.667 0.600 0.133
0.733 0.600 0.133
0.800 0.600 0.133
0.867 0.600 0.133
0.933 0.600 0.133
1.000 0.600 0.133
0.000 0.667 0.133
0.067 0.667 0.133
0.133 0.667 0.133
0.520 1.000 0.000
0.000 1.000 0.809
0.139 0.000 1.000
1.000 0.000 0.532
1.000 0.797 0.000
0.533 0.667 0.133
0.600 0.667 0.133
0.667 0.667 0.133
0.733 0.667 0.133
0.800 0.667 0.133
0.867 0.667 0.133
0.933 0.667 0.133
1.000 0.667 0.133
0.000 0.733 0.133
0.697 1.000 0.000
0.000 1.000 0.632
0.000 0.039 1.000
1.000 0.000 0.709
1.000 0.620 0.000
0.400 0.733 0.133
0.467 0.733 0.133
0.533 0.733 0.133
0.600 0.733 0.133
0.667 0.733 0.133
0.733 0.733 0.133
0.800 0.733 0.133
0.867 0.733 0.133
0.933 0.733 0.133
1.000 0.733 0.133
0.000 1.000 0.455
0.000 0.216 1.000
1.000 0.000 0.887
1.000 0.443 0.000
0.267 0.800 0.133
0.333 0.800 0.133
0.400 0.800 0.133
0.467 0.800 0.133
0.533 0.800 0.133
0.600 0.800 0.133
0.667 0.800 0.133
0.733 0.800 0.133
0.800 0.800 0.133
0.867 0.800 0.133
0.933 0.800 0.133
1.000 0.800 0.133
0.936 0.000 1.000
1.000 0.265 0.000
0.133 0.867 0.133
0.200 0.867 0.133
0.267 0.867 0.133
0.333 0.867 0.133
0.400 0.867 0.133
0.467 0.867 0.133
0.533 0.867 0.133
0.600 0.867 0.133
0.667 0.867 0.133
0.733 0.867 0.133
0.800 0.867 0.133
0.867 0.867 0.133
0.933 0.867 0.133
1.000 0.867 0.133
0.000 0.933 0.133
0.067 0.933 0.133
0.133 0.933 0.133
0.200 0.933 0.133
0.267 0.933 0.133
0.333 0.933 0.133
0.400 0.933 0.133
0.467 0.933 0.133
0.533 0.933 0.133
0.600 0.933 0.133
0.667 0.933 0.133
0.733 0.933 0.133
0.800 0.933 0.133
0.867 0.933 0.133
0.933 0.933 0.133
1.000 0.933 0.133
0.000 1.000 0.133
0.067 1.000 0.133
0.133 1.000 0.133
0.200 1.000 0.133
0.267 1.000 0.133
0.333 1.000 0.133
0.400 1.000 0.133
0.467 1.000 0.133
0.533 1.000 0.133
0.600 1.000 0.133
0.667 1.000 0.133
0.733 1.000 0.133
0.800 1.000 0.133
0.867 1.000 0.133
0.933 1.000 0.133
1.000 1.000 0.133
0.000 0.000 0.200
0.067 0.000 0.200
0.133 0.000 0.200
0.200 0.000 0.200
0.267 0.000 0.200
0.333 0.000 0.200
0.400 0.000 0.200
0.467 0.000 0.200
0.533 0.000 0.200
0.600 0.000 0.200
0.667 0.000 0.200
0.733 0.000 0.200
0.800 0.000 0.200
0.867 0.000 0.200
0.933 0.000 0.200
1.000 0.000 0.200
0.000 0.067 0.200
0.067 0.067 0.200
0.133 0.067 0.200
0.200 0.067 0.200
0.267 0.067 0.200
0.333 0.067 0.200
0.400 0.067 0.200
0.467 0.067 0.200
0.533 0.067 0.200
0.600 0.067 0.200
0.667 0.067 0.200
0.733 0.067 0.200
0.800 0.067 0.200
0.867 0.067 0.200
0.933 0.067 0.200
1.000 0.067 0.200
0.000 0.133 0.200
0.067 0.133 0.200
0.133 0.133 0.200
0.200 0.133 0.200
0.267 0.133 0.200
0.333 0.133 0.200
0.400 0.133 0.200
0.467 0.133 0.200
0.533 0.133 0.200
0.600 0.133 0.200
0.667 0.133 0.200
0.733 0.133 0.200
0.800 0.133 0.200
0.867 0.133 0.200
0.933 0.133 0.200
1.000 0.133 0.200
0.000 0.200 0.200
0.067 0.200 0.200
0.133 0.200 0.200
0.200 0.200 0.200
0.267 0.200 0.200
0.333 0.200 0.200
0.400 0.200 0.200
0.467 0.200 0.200
0.533 0.200 0.200
0.600 0.200 0.200
0.667 0.200 0.200
0.733 0.200 0.200
0.800 0.200 0.200
0.867 0.200 0.200
0.933 0.200 0.200
1.000 0.200 0.200
0.000 0.267 0.200
0.067 0.267 0.200
0.133 0.267 0.200
0.200 0.267 0.200
0.267 0.267 0.200
0.333 0.267 0.200
0.400 0.267 0.200
0.467 0.267 0.200
0.533 0.267 0.200
0.600 0.267 0.200
0.667 0.267 0.200
0.733 0.267 0.200
0.800 0.267 0.200
0.867 0.267 0.200
0.196 1.000 0.000
0.000 0.867 1.000
0.000 0.333 0.200
0.067 0.333 0.200
0.133 0.333 0.200
0.200 0.333 0.200
0.267 0.333 0.200
0.333 0.333 0.200
0.400 0.333 0.200
0.467 0.333 0.200
0.533 0.333 0.200
0.600 0.333 0.200
0.667 0.333 0.200
0.733 0.333 0.200
0.373 1.000 0.000
0.000 1.000 0.956
0.285 0.000 1.000
1.000 0.000 0.385
0.000 0.400 0.200
0.067 0.400 0.200
0.133 0.400 0.200
0.200 0.400 0.200
0.267 0.400 0.200
0.333 0.400 0.200
0.400 0.400 0.200
0.467 0.400 0.200
0.533 0.400 0.200
0.600 0.400 0.200
0.551 1.000 0.000
0.000 1.000 0.779
0.108 0.000 1.000
1.000 0.000 0.563
1.000 0.767 0.000
1.000 0.400 0.200
0.000 0.467 0.200
0.067 0.467 0.200
0.133 0.467 0.200
0.200 0.467 0.200
0.267 0.467 0.200
0.333 0.467 0.200
0.400 0.467 0.200
0.467 0.467 0.200
0.728 1.000 0.000
0.000 1.000 0.601
0.000 0.069 1.000
1.000 0.000 0.740
1.000 0.589 0.000
0.867 0.467 0.200
0.933 0.467 0.200
1.000 0.467 0.200
0.000 0.533 0.200
0.067 0.533 0.200
0.133 0.533 0.200
0.200 0.533 0.200
