mpv/mid_000deg.cube
TITLE "Rainbow LUT - Hue 0°"
LUT_3D_SIZE 16
DOMAIN_MIN 0 0 0
DOMAIN_MAX 1 1 1
# Generated with fixed rainbow gradient - hue offset: 0°
0.000 0.000 0.000
0.067 0.000 0.000
0.133 0.000 0.000
0.200 0.000 0.000
0.267 0.000 0.000
0.333 0.000 0.000
0.400 0.000 0.000
0.467 0.000 0.000
0.533 0.000 0.000
0.600 0.000 0.000
0.667 0.000 0.000
0.733 0.000 0.000
0.800 0.000 0.000
0.867 0.000 0.000
0.933 0.000 0.000
1.000 0.000 0.000
0.000 0.067 0.000
0.067 0.067 0.000
0.133 0.067 0.000
0.200 0.067 0.000
0.267 0.067 0.000
0.333 0.067 0.000
0.400 0.067 0.000
0.467 0.067 0.000
0.533 0.067 0.000
0.600 0.067 0.000
0.667 0.067 0.000
0.733 0.067 0.000
0.800 0.067 0.000
0.867 0.067 0.000
0.933 0.067 0.000
1.000 0.067 0.000
0.000 0.133 0.000
0.067 0.133 0.000
0.133 0.133 0.000
0.200 0.133 0.000
0.267 0.133 0.000
0.333 0.133 0.000
0.400 0.133 0.000
0.467 0.133 0.000
0.533 0.133 0.000
0.600 0.133 0.000
0.667 0.133 0.000
0.733 0.133 0.000
0.800 0.133 0.000
0.867 0.133 0.000
0.933 0.133 0.000
1.000 0.133 0.000
0.000 0.200 0.000
0.067 0.200 0.000
0.133 0.200 0.000
0.200 0.200 0.000
0.267 0.200 0.000
0.333 0.200 0.000
0.400 0.200 0.000
0.467 0.200 0.000
0.533 0.200 0.000
0.600 0.200 0.000
0.667 0.200 0.000
0.733 0.200 0.000
0.800 0.200 0.000
0.867 0.200 0.000
0.933 0.200 0.000
1.000 0.200 0.000
0.000 0.267 0.000
0.067 0.267 0.000
0.133 0.267 0.000
0.200 0.267 0.000
0.267 0.267 0.000
0.333 0.267 0.000
0.400 0.267 0.000
0.467 0.267 0.000
0.533 0.267 0.000
0.600 0.267 0.000
0.667 0.267 0.000
0.733 0.267 0.000
0.800 0.267 0.000
0.867 0.267 0.000
0.933 0.267 0.000
0.000 1.000 0.865
0.000 0.333 0.000
0.067 0.333 0.000
0.133 0.333 0.000
0.200 0.333 0.000
0.267 0.333 0.000
0.333 0.333 0.000
0.400 0.333 0.000
0.467 0.333 0.000
0.533 0.333 0.000
0.600 0.333 0.000
0.667 0.333 0.000
0.733 0.333 0.000
0.800 0.333 0.000
0.000 1.000 0.688
0.017 0.000 1.000
1.000 0.000 0.653
0.000 0.400 0.000
0.067 0.400 0.000
0.133 0.400 0.000
0.200 0.400 0.000
0.267 0.400 0.000
0.333 0.400 0.000
0.400 0.400 0.000
0.467 0.400 0.000
0.533 0.400 0.000
0.600 0.400 0.000
0.667 0.400 0.000
0.000 1.000 0.511
0.000 0.160 1.000
1.000 0.000 0.831
1.000 0.499 0.000
0.172 1.000 0.000
0.000 0.467 0.000
0.067 0.467 0.000
0.133 0.467 0.000
0.200 0.467 0.000
0.267 0.467 0.000
0.333 0.467 0.000
0.400 0.467 0.000
0.467 0.467 0.000
0.533 0.467 0.000
0.000 1.000 0.333
0.000 0.337 1.000
0.992 0.000 1.000
1.000 0.321 0.000
0.349 1.000 0.000
0.933 0.467 0.000
1.000 0.467 0.000
0.000 0.533 0.000
0.067 0.533 0.000
0.133 0.533 0.000
0.200 0.533 0.000
0.267 0.533 0.000
0.333 0.533 0.000
0.400 0.533 0.000
0.000 1.000 0.156
0.000 0.515 1.000
0.815 0.000 1.000
1.000 0.144 0.000
0.527 1.000 0.000
0.800 0.533 0.000
0.867 0.533 0.000
0.933 0.533 0.000
1.000 0.533 0.000
0.000 0.600 0.000
0.067 0.600 0.000
0.133 0.600 0.000
0.200 0.600 0.000
0.267 0.600 0.000
0.021 1.000 0.000
0.000 0.692 1.000
0.637 0.000 1.000
1.000 0.000 0.033
0.704 1.000 0.000
0.667 0.600 0.000
0.733 0.600 0.000
0.800 0.600 0.000
0.867 0.600 0.000
0.933 0.600 0.000
1.000 0.600 0.000
0.000 0.667 0.000
0.067 0.667 0.000
0.133 0.667 0.000
0.199 1.000 0.000
0.000 0.869 1.000
0.460 0.000 1.000
1.000 0.000 0.211
0.881 1.000 0.000
0.533 0.667 0.000
0.600 0.667 0.000
0.667 0.667 0.000
0.733 0.667 0.000
0.800 0.667 0.000
0.867 0.667 0.000
0.933 0.667 0.000
1.000 0.667 0.000
0.000 0.733 0.000
0.376 1.000 0.000
0.000 1.000 0.953
0.283 0.000 1.000
1.000 0.000 0.388
1.000 0.941 0.000
0.400 0.733 0.000
0.467 0.733 0.000
0.533 0.733 0.000
0.600 0.733 0.000
0.667 0.733 0.000
0.733 0.733 0.000
0.800 0.733 0.000
0.867 0.733 0.000
0.933 0.733 0.000
1.000 0.733 0.000
0.000 1.000 0.776
0.105 0.000 1.000
1.000 0.000 0.565
1.000 0.764 0.000
0.000 1.000 0.093
0.333 0.800 0.000
0.400 0.800 0.000
0.467 0.800 0.000
0.533 0.800 0.000
0.600 0.800 0.000
0.667 0.800 0.000
0.733 0.800 0.000
0.800 0.800 0.000
0.867 0.800 0.000
0.933 0.800 0.000
1.000 0.800 0.000
1.000 0.000 0.743
1.000 0.587 0.000
0.084 1.000 0.000
0.200 0.867 0.000
0.267 0.867 0.000
0.333 0.867 0.000
0.400 0.867 0.000
0.467 0.867 0.000
0.533 0.867 0.000
0.600 0.867 0.000
0.667 0.867 0.000
0.733 0.867 0.000
0.800 0.867 0.000
0.867 0.867 0.000
0.933 0.867 0.000
1.000 0.867 0.000
0.261 1.000 0.000
0.067 0.933 0.000
0.133 0.933 0.000
0.200 0.933 0.000
0.267 0.933 0.000
0.333 0.933 0.000
0.400 0.933 0.000
0.467 0.933 0.000
0.533 0.933 0.000
0.600 0.933 0.000
0.667 0.933 0.000
0.733 0.933 0.000
0.800 0.933 0.000
0.867 0.933 0.000
0.933 0.933 0.000
1.000 0.933 0.000
0.000 1.000 0.000
0.067 1.000 0.000
0.133 1.000 0.000
0.200 1.000 0.000
0.267 1.000 0.000
0.333 1.000 0.000
0.400 1.000 0.000
0.467 1.000 0.000
0.533 1.000 0.000
0.600 1.000 0.000
0.667 1.000 0.000
0.733 1.000 0.000
0.800 1.000 0.000
0.867 1.000 0.000
0.933 1.000 0.000
1.000 1.000 0.000
0.000 0.000 0.067
0.067 0.000 0.067
0.133 0.000 0.067
0.200 0.000 0.067
0.267 0.000 0.067
0.333 0.000 0.067
0.400 0.000 0.067
0.467 0.000 0.067
0.533 0.000 0.067
0.600 0.000 0.067
0.667 0.000 0.067
0.733 0.000 0.067
0.800 0.000 0.067
0.867 0.000 0.067
0.933 0.000 0.067
1.000 0.000 0.067
0.000 0.067 0.067
0.067 0.067 0.067
0.133 0.067 0.067
0.200 0.067 0.067
0.267 0.067 0.067
0.333 0.067 0.067
0.400 0.067 0.067
0.467 0.067 0.067
0.533 0.067 0.067
0.600 0.067 0.067
0.667 0.067 0.067
0.733 0.067 0.067
0.800 0.067 0.067
0.867 0.067 0.067
0.933 0.067 0.067
1.000 0.067 0.067
0.000 0.133 0.067
0.067 0.133 0.067
0.133 0.133 0.067
0.200 0.133 0.067
0.267 0.133 0.067
0.333 0.133 0.067
0.400 0.133 0.067
0.467 0.133 0.067
0.533 0.133 0.067
0.600 0.133 0.067
0.667 0.133 0.067
0.733 0.133 0.067
0.800 0.133 0.067
0.867 0.133 0.067
0.933 0.133 0.067
1.000 0.133 0.067
0.000 0.200 0.067
0.067 0.200 0.067
0.133 0.200 0.067
0.200 0.200 0.067
0.267 0.200 0.067
0.333 0.200 0.067
0.400 0.200 0.067
0.467 0.200 0.067
0.533 0.200 0.067
0.600 0.200 0.067
0.667 0.200 0.067
0.733 0.200 0.067
0.800 0.200 0.067
0.867 0.200 0.067
0.933 0.200 0.067
1.000 0.200 0.067
0.000 0.267 0.067
0.067 0.267 0.067
0.133 0.267 0.067
0.200 0.267 0.067
0.267 0.267 0.067
0.333 0.267 0.067
0.400 0.267 0.067
0.467 0.267 0.067
0.533 0.267 0.067
0.600 0.267 0.067
0.667 0.267 0.067
0.733 0.267 0.067
0.800 0.267 0.067
0.867 0.267 0.067
0.933 0.267 0.067
0.000 0.545 1.000
0.000 0.333 0.067
0.067 0.333 0.067
0.133 0.333 0.067
0.200 0.333 0.067
0.267 0.333 0.067
0.333 0.333 0.067
0.400 0.333 0.067
0.467 0.333 0.067
0.533 0.333 0.067
0.600 0.333 0.067
0.667 0.333 0.067
0.733 0.333 0.067
0.800 0.333 0.067
0.000 0.723 1.000
0.607 0.000 1.000
1.000 0.000 0.064
0.000 0.400 0.067
0.067 0.400 0.067
0.133 0.400 0.067
0.200 0.400 0.067
0.267 0.400 0.067
0.333 0.400 0.067
0.400 0.400 0.067
0.467 0.400 0.067
0.533 0.400 0.067
0.600 0.400 0.067
0.667 0.400 0.067
0.000 0.900 1.000
0.429 0.000 1.000
1.000 0.000 0.241
0.912 1.000 0.000
0.000 1.000 0.417
0.000 0.467 0.067
0.067 0.467 0.067
0.133 0.467 0.067
0.200 0.467 0.067
0.267 0.467 0.067
0.333 0.467 0.067
0.400 0.467 0.067
0.467 0.467 0.067
0.533 0.467 0.067
0.000 1.000 0.923
0.252 0.000 1.000
1.000 0.000 0.419
1.000 0.911 0.000
0.000 1.000 0.240
0.933 0.467 0.067
1.000 0.467 0.067
0.000 0.533 0.067
0.067 0.533 0.067
0.133 0.533 0.067
0.200 0.533 0.067
0.267 0.533 0.067
0.333 0.533 0.067
0.400 0.533 0.067
0.000 1.000 0.745
0.075 0.000 1.000
1.000 0.000 0.596
1.000 0.733 0.000
0.000 1.000 0.063
0.800 0.533 0.067
0.867 0.533 0.067
0.933 0.533 0.067
1.000 0.533 0.067
0.000 0.600 0.067
0.067 0.600 0.067
0.133 0.600 0.067
0.200 0.600 0.067
0.267 0.600 0.067
0.000 1.000 0.568
0.000 0.103 1.000
1.000 0.000 0.773
1.000 0.556 0.000
0.115 1.000 0.000
0.667 0.600 0.067
0.733 0.600 0.067
0.800 0.600 0.067
0.867 0.600 0.067
0.933 0.600 0.067
1.000 0.600 0.067
0.000 0.667 0.067
0.067 0.667 0.067
0.133 0.667 0.067
0.000 1.000 0.391
0.000 0.280 1.000
1.000 0.000 0.951
1.000 0.379 0.000
0.292 1.000 0.000
0.533 0.667 0.067
0.600 0.667 0.067
0.667 0.667 0.067
0.733 0.667 0.067
0.800 0.667 0.067
0.867 0.667 0.067
0.933 0.667 0.067
1.000 0.667 0.067
0.000 0.733 0.067
0.000 1.000 0.213
0.000 0.457 1.000
0.872 0.000 1.000
1.000 0.201 0.000
0.469 1.000 0.000
0.400 0.733 0.067
0.467 0.733 0.067
0.533 0.733 0.067
0.600 0.733 0.067
0.667 0.733 0.067
0.733 0.733 0.067
0.800 0.733 0.067
0.867 0.733 0.067
0.933 0.733 0.067
1.000 0.733 0.067
0.000 0.635 1.000
0.695 0.000 1.000
1.000 0.024 0.000
0.647 1.000 0.000
0.267 0.800 0.067
0.333 0.800 0.067
0.400 0.800 0.067
0.467 0.800 0.067
0.533 0.800 0.067
0.600 0.800 0.067
0.667 0.800 0.067
0.733 0.800 0.067
0.800 0.800 0.067
0.867 0.800 0.067
0.933 0.800 0.067
1.000 0.800 0.067
1.000 0.000 0.153
0.824 1.000 0.000
0.133 0.867 0.067
0.200 0.867 0.067
0.267 0.867 0.067
0.333 0.867 0.067
0.400 0.867 0.067
0.467 0.867 0.067
0.533 0.867 0.067
0.600 0.867 0.067
0.667 0.867 0.067
0.733 0.867 0.067
0.800 0.867 0.067
0.867 0.867 0.067
0.933 0.867 0.067
1.000 0.867 0.067
0.000 0.933 0.067
0.067 0.933 0.067
0.133 0.933 0.067
0.200 0.933 0.067
0.267 0.933 0.067
0.333 0.933 0.067
0.400 0.933 0.067
0.467 0.933 0.067
0.533 0.933 0.067
0.600 0.933 0.067
0.667 0.933 0.067
0.733 0.933 0.067
0.800 0.933 0.067
0.867 0.933 0.067
0.933 0.933 0.067
1.000 0.933 0.067
0.000 1.000 0.067
0.067 1.000 0.067
0.133 1.000 0.067
0.200 1.000 0.067
0.267 1.000 0.067
0.333 1.000 0.067
0.400 1.000 0.067
0.467 1.000 0.067
0.533 1.000 0.067
0.600 1.000 0.067
0.667 1.000 0.067
0.733 1.000 0.067
0.800 1.000 0.067
0.867 1.000 0.067
0.933 1.000 0.067
1.000 1.000 0.067
0.000 0.000 0.133
0.067 0.000 0.133
0.133 0.000 0.133
0.200 0.000 0.133
0.267 0.000 0.133
0.333 0.000 0.133
0.400 0.000 0.133
0.467 0.000 0.133
0.533 0.000 0.133
0.600 0.000 0.133
0.667 0.000 0.133
0.733 0.000 0.133
0.800 0.000 0.133
0.867 0.000 0.133
0.933 0.000 0.133
1.000 0.000 0.133
0.000 0.067 0.133
0.067 0.067 0.133
0.133 0.067 0.133
0.200 0.067 0.133
0.267 0.067 0.133
0.333 0.067 0.133
0.400 0.067 0.133
0.467 0.067 0.133
0.533 0.067 0.133
0.600 0.067 0.133
0.667 0.067 0.133
0.733 0.067 0.133
0.800 0.067 0.133
0.867 0.067 0.133
0.933 0.067 0.133
1.000 0.067 0.133
0.000 0.133 0.133
0.067 0.133 0.133
0.133 0.133 0.133
0.200 0.133 0.133
0.267 0.133 0.133
0.333 0.133 0.133
0.400 0.133 0.133
0.467 0.133 0.133
0.533 0.133 0.133
0.600 0.133 0.133
0.667 0.133 0.133
0.733 0.133 0.133
0.800 0.133 0.133
0.867 0.133 0.133
0.933 0.133 0.133
1.000 0.133 0.133
0.000 0.200 0.133
0.067 0.200 0.133
0.133 0.200 0.133
0.200 0.200 0.133
0.267 0.200 0.133
0.333 0.200 0.133
0.400 0.200 0.133
0.467 0.200 0.133
0.533 0.200 0.133
0.600 0.200 0.133
0.667 0.200 0.133
0.733 0.200 0.133
0.800 0.200 0.133
0.867 0.200 0.133
0.933 0.200 0.133
1.000 0.200 0.133
0.000 0.267 0.133
0.067 0.267 0.133
0.133 0.267 0.133
0.200 0.267 0.133
0.267 0.267 0.133
0.333 0.267 0.133
0.400 0.267 0.133
0.467 0.267 0.133
0.533 0.267 0.133
0.600 0.267 0.133
0.667 0.267 0.133
0.733 0.267 0.133
0.800 0.267 0.133
0.867 0.267 0.133
0.000 1.000 0.715
0.044 0.000 1.000
0.000 0.333 0.133
0.067 0.333 0.133
0.133 0.333 0.133
0.200 0.333 0.133
0.267 0.333 0.133
0.333 0.333 0.133
0.400 0.333 0.133
0.467 0.333 0.133
0.533 0.333 0.133
0.600 0.333 0.133
0.667 0.333 0.133
0.733 0.333 0.133
0.000 1.000 0.537
0.000 0.133 1.000
1.000 0.000 0.804
1.000 0.525 0.000
0.000 0.400 0.133
0.067 0.400 0.133
0.133 0.400 0.133
0.200 0.400 0.133
0.267 0.400 0.133
0.333 0.400 0.133
0.400 0.400 0.133
0.467 0.400 0.133
0.533 0.400 0.133
0.600 0.400 0.133
0.667 0.400 0.133
0.000 0.311 1.000
1.000 0.000 0.981
1.000 0.348 0.000
0.323 1.000 0.000
0.000 0.993 1.000
0.000 0.467 0.133
0.067 0.467 0.133
0.133 0.467 0.133
0.200 0.467 0.133
0.267 0.467 0.133
0.333 0.467 0.133
0.400 0.467 0.133
0.467 0.467 0.133
0.533 0.467 0.133
0.000 0.488 1.000
0.841 0.000 1.000
1.000 0.171 0.000
0.500 1.000 0.000
0.000 1.000 0.829
0.933 0.467 0.133
1.000 0.467 0.133
0.000 0.533 0.133
0.067 0.533 0.133
0.133 0.533 0.133
0.200 0.533 0.133
0.267 0.533 0.133
0.333 0.533 0.133
0.400 0.533 0.133
0.000 0.665 1.000
0.664 0.000 1.000
1.000 0.000 0.007
0.677 1.000 0.000
0.000 1.000 0.652
0.800 0.533 0.133
0.867 0.533 0.133
0.933 0.533 0.133
1.000 0.533 0.133
0.000 0.600 0.133
0.067 0.600 0.133
0.133 0.600 0.133
0.200 0.600 0.133
0.267 0.600 0.133
0.000 0.843 1.000
0.487 0.000 1.000
1.000 0.000 0.184
0.855 1.000 0.000
0.000 1.000 0.475
0.667 0.600 0.133
0.733 0.600 0.133
0.800 0.600 0.133
0.867 0.600 0.133
0.933 0.600 0.133
1.000 0.600 0.133
0.000 0.667 0.133
0.067 0.667 0.133
0.133 0.667 0.133
0.000 1.000 0.980
0.309 0.000 1.000
1.000 0.000 0.361
1.000 0.968 0.000
0.000 1.000 0.297
0.533 0.667 0.133
0.600 0.667 0.133
0.667 0.667 0.133
0.733 0.667 0.133
0.800 0.667 0.133
0.867 0.667 0.133
0.933 0.667 0.133
1.000 0.667 0.133
0.000 0.733 0.133
0.000 1.000 0.803
0.132 0.000 1.000
1.000 0.000 0.539
1.000 0.791 0.000
0.000 1.000 0.120
0.400 0.733 0.133
0.467 0.733 0.133
0.533 0.733 0.133
0.600 0.733 0.133
0.667 0.733 0.133
0.733 0.733 0.133
0.800 0.733 0.133
0.867 0.733 0.133
0.933 0.733 0.133
1.000 0.733 0.133
0.000 0.045 1.000
1.000 0.000 0.716
1.000 0.613 0.000
0.057 1.000 0.000
0.267 0.800 0.133
0.333 0.800 0.133
0.400 0.800 0.133
0.467 0.800 0.133
0.533 0.800 0.133
0.600 0.800 0.133
0.667 0.800 0.133
0.733 0.800 0.133
0.800 0.800 0.133
0.867 0.800 0.133
0.933 0.800 0.133
1.000 0.800 0.133
1.000 0.436 0.000
0.235 1.000 0.000
0.133 0.867 0.133
0.200 0.867 0.133
0.267 0.867 0.133
0.333 0.867 0.133
0.400 0.867 0.133
0.467 0.867 0.133
0.533 0.867 0.133
0.600 0.867 0.133
0.667 0.867 0.133
0.733 0.867 0.133
0.800 0.867 0.133
0.867 0.867 0.133
0.933 0.867 0.133
1.000 0.867 0.133
0.000 0.933 0.133
0.067 0.933 0.133
0.133 0.933 0.133
0.200 0.933 0.133
0.267 0.933 0.133
0.333 0.933 0.133
0.400 0.933 0.133
0.467 0.933 0.133
0.533 0.933 0.133
0.600 0.933 0.133
0.667 0.933 0.133
0.733 0.933 0.133
0.800 0.933 0.133
0.867 0.933 0.133
0.933 0.933 0.133
1.000 0.933 0.133
0.000 1.000 0.133
0.067 1.000 0.133
0.133 1.000 0.133
0.200 1.000 0.133
0.267 1.000 0.133
0.333 1.000 0.133
0.400 1.000 0.133
0.467 1.000 0.133
0.533 1.000 0.133
0.600 1.000 0.133
0.667 1.000 0.133
0.733 1.000 0.133
0.800 1.000 0.133
0.867 1.000 0.133
0.933 1.000 0.133
1.000 1.000 0.133
0.000 0.000 0.200
0.067 0.000 0.200
0.133 0.000 0.200
0.200 0.000 0.200
0.267 0.000 0.200
0.333 0.000 0.200
0.400 0.000 0.200
0.467 0.000 0.200
0.533 0.000 0.200
0.600 0.000 0.200
0.667 0.000 0.200
0.733 0.000 0.200
0.800 0.000 0.200
0.867 0.000 0.200
0.933 0.000 0.200
1.000 0.000 0.200
0.000 0.067 0.200
0.067 0.067 0.200
0.133 0.067 0.200
0.200 0.067 0.200
0.267 0.067 0.200
0.333 0.067 0.200
0.400 0.067 0.200
0.467 0.067 0.200
0.533 0.067 0.200
0.600 0.067 0.200
0.667 0.067 0.200
0.733 0.067 0.200
0.800 0.067 0.200
0.867 0.067 0.200
0.933 0.067 0.200
1.000 0.067 0.200
0.000 0.133 0.200
0.067 0.133 0.200
0.133 0.133 0.200
0.200 0.133 0.200
0.267 0.133 0.200
0.333 0.133 0.200
0.400 0.133 0.200
0.467 0.133 0.200
0.533 0.133 0.200
0.600 0.133 0.200
0.667 0.133 0.200
0.733 0.133 0.200
0.800 0.133 0.200
0.867 0.133 0.200
0.933 0.133 0.200
1.000 0.133 0.200
0.000 0.200 0.200
0.067 0.200 0.200
0.133 0.200 0.200
0.200 0.200 0.200
0.267 0.200 0.200
0.333 0.200 0.200
0.400 0.200 0.200
0.467 0.200 0.200
0.533 0.200 0.200
0.600 0.200 0.200
0.667 0.200 0.200
0.733 0.200 0.200
0.800 0.200 0.200
0.867 0.200 0.200
0.933 0.200 0.200
1.000 0.200 0.200
0.000 0.267 0.200
0.067 0.267 0.200
0.133 0.267 0.200
0.200 0.267 0.200
0.267 0.267 0.200
0.333 0.267 0.200
0.400 0.267 0.200
0.467 0.267 0.200
0.533 0.267 0.200
0.600 0.267 0.200
0.667 0.267 0.200
0.733 0.267 0.200
0.800 0.267 0.200
0.867 0.267 0.200
0.000 0.696 1.000
0.633 0.000 1.000
0.000 0.333 0.200
0.067 0.333 0.200
0.133 0.333 0.200
0.200 0.333 0.200
0.267 0.333 0.200
0.333 0.333 0.200
0.400 0.333 0.200
0.467 0.333 0.200
0.533 0.333 0.200
0.600 0.333 0.200
0.667 0.333 0.200
0.733 0.333 0.200
0.000 0.873 1.000
0.456 0.000 1.000
1.000 0.000 0.215
0.885 1.000 0.000
0.000 0.400 0.200
0.067 0.400 0.200
0.133 0.400 0.200
0.200 0.400 0.200
0.267 0.400 0.200
0.333 0.400 0.200
0.400 0.400 0.200
0.467 0.400 0.200
0.533 0.400 0.200
0.600 0.400 0.200
0.000 1.000 0.949
0.279 0.000 1.000
1.000 0.000 0.392
1.000 0.937 0.000
0.000 1.000 0.267
1.000 0.400 0.200
0.000 0.467 0.200
0.067 0.467 0.200
0.133 0.467 0.200
0.200 0.467 0.200
0.267 0.467 0.200
0.333 0.467 0.200
0.400 0.467 0.200
0.467 0.467 0.200
0.000 1.000 0.772
0.101 0.000 1.000
1.000 0.000 0.569
1.000 0.760 0.000
0.000 1.000 0.089
0.867 0.467 0.200
0.933 0.467 0.200
1.000 0.467 0.200
0.000 0.533 0.200
0.067 0.533 0.200
0.133 0.533 0.200
0.200 0.533 0.200
