mpv/oil_slick_bw.cube
TITLE "Oil Slick Iridescent Effect - Natural"
LUT_3D_SIZE 16
DOMAIN_MIN 0.0 0.0 0.0
DOMAIN_MAX 1.0 1.0 1.0
0.000000 0.000000 0.000000
0.066667 0.000000 0.000000
0.133333 0.000000 0.000000
0.200000 0.000000 0.000000
0.266667 0.000000 0.000000
0.333333 0.000000 0.000000
0.400000 0.000000 0.000000
0.466667 0.000000 0.000000
0.533333 0.000000 0.000000
0.600000 0.000000 0.000000
0.666667 0.000000 0.000000
0.733333 0.000000 0.000000
0.800000 0.000000 0.000000
0.787511 0.039349 0.078046
0.662044 0.095635 0.267485
0.510000 0.106878 0.483130
0.000000 0.066667 0.000000
0.066667 0.066667 0.000000
0.133333 0.066667 0.000000
0.200000 0.066667 0.000000
0.266667 0.066667 0.000000
0.333333 0.066667 0.000000
0.400000 0.066667 0.000000
0.466667 0.066667 0.000000
0.533333 0.066667 0.000000
0.600000 0.066667 0.000000
0.666667 0.066667 0.000000
0.671733 0.089301 0.060802
0.573333 0.119602 0.223711
0.448356 0.111948 0.412824
0.296800 0.059265 0.628143
0.174151 0.007911 0.869667
0.000000 0.133333 0.000000
0.066667 0.133333 0.000000
0.133333 0.133333 0.000000
0.200000 0.133333 0.000000
0.266667 0.133333 0.000000
0.333333 0.133333 0.000000
0.400000 0.133333 0.000000
0.466667 0.133333 0.000000
0.533333 0.133333 0.000000
0.554000 0.141499 0.045475
0.482667 0.145257 0.181852
0.384756 0.118199 0.344435
0.260267 0.052803 0.533222
0.186066 0.016800 0.748215
0.207285 0.000000 0.921813
0.348078 0.000000 0.987545
0.000000 0.200000 0.000000
0.066667 0.200000 0.000000
0.133333 0.200000 0.000000
0.200000 0.200000 0.000000
0.266667 0.200000 0.000000
0.333333 0.200000 0.000000
0.400000 0.200000 0.000000
0.434311 0.195973 0.032065
0.390044 0.172612 0.141911
0.319200 0.125635 0.277962
0.241274 0.066533 0.440218
0.196806 0.026667 0.628680
0.216519 0.000000 0.791132
0.339479 0.000000 0.856864
0.487526 0.000000 0.922596
0.665741 0.000000 0.988328
0.000000 0.266667 0.000000
0.066667 0.266667 0.000000
0.133333 0.266667 0.000000
0.200000 0.266667 0.000000
0.266667 0.266667 0.000000
0.312667 0.252743 0.020571
0.295467 0.201658 0.103886
0.261281 0.143822 0.213406
0.230066 0.090667 0.349131
0.206401 0.037511 0.511062
0.227151 0.000000 0.660451
0.332327 0.000000 0.726183
0.461365 0.000000 0.791915
0.618877 0.000000 0.857647
0.810010 0.000000 0.923379
0.989111 0.000000 0.938016
0.000000 0.333333 0.000000
0.066667 0.333333 0.000000
0.133333 0.333333 0.000000
0.192104 0.315111 0.018137
0.217189 0.248667 0.084372
0.220565 0.182222 0.150767
0.217321 0.115778 0.259961
0.214950 0.049333 0.395360
0.239291 0.000000 0.529769
0.326704 0.000000 0.595501
0.436802 0.000000 0.661233
0.573718 0.000000 0.726965
0.742185 0.000000 0.792697
0.858429 0.000000 0.769554
0.924161 0.000000 0.654026
0.989893 0.000000 0.491557
0.000000 0.400000 0.000000
0.070623 0.381067 0.018796
0.144021 0.301333 0.098048
0.199423 0.221600 0.177460
0.235128 0.141867 0.257030
0.250643 0.062133 0.336760
0.253202 0.000000 0.399088
0.322794 0.000000 0.464820
0.413969 0.000000 0.530552
0.530363 0.000000 0.596284
0.662016 0.000000 0.647753
0.727748 0.000000 0.599025
0.793480 0.000000 0.511061
0.859212 0.000000 0.378956
0.924944 0.000000 0.198121
0.990676 0.035453 0.000000
0.067105 0.354978 0.110766
0.174180 0.261956 0.203195
0.264951 0.168933 0.295783
0.338793 0.075911 0.388529
0.391962 0.000000 0.464407
0.420082 0.000000 0.464805
0.451889 0.000000 0.465204
0.465603 0.000000 0.442172
0.531335 0.000000 0.450217
0.597067 0.000000 0.426310
0.662799 0.000000 0.365769
0.728531 0.000000 0.263864
0.794263 0.000000 0.116076
0.859995 0.081642 0.000000
0.925727 0.332623 0.000000
0.991459 0.639280 0.000000
0.290449 0.196978 0.333577
0.422286 0.090667 0.439341
0.529722 0.000000 0.529725
0.530124 0.000000 0.493821
0.530523 0.000000 0.453780
0.530921 0.000000 0.407720
0.531320 0.000000 0.353957
0.531719 0.000000 0.291072
0.532117 0.000000 0.217960
0.597849 0.000000 0.146141
0.663581 0.000000 0.031260
0.729313 0.130752 0.000000
0.795045 0.343356 0.000000
0.860777 0.609194 0.000000
0.923122 0.926509 0.000000
0.678536 0.992241 0.000000
0.595044 0.000000 0.523476
0.595443 0.000000 0.479038
0.595841 0.000000 0.430041
0.596240 0.000000 0.374359
0.596639 0.000000 0.310095
0.597037 0.000000 0.235645
0.597436 0.000000 0.149757
0.597835 0.000000 0.051574
0.598233 0.059332 0.000000
0.598632 0.182950 0.000000
0.664364 0.357287 0.000000
0.730096 0.582417 0.000000
0.731377 0.795828 0.000000
0.531373 0.861560 0.000000
0.278058 0.927292 0.000000
0.012000 0.988308 0.026733
0.661160 0.000000 0.407202
0.661559 0.000000 0.341981
0.661957 0.000000 0.267313
0.662356 0.000000 0.181408
0.662755 0.000000 0.082864
0.663153 0.029283 0.000000
0.663552 0.155525 0.000000
0.663951 0.295863 0.000000
0.664349 0.449808 0.000000
0.664748 0.616394 0.000000
0.536076 0.665147 0.000000
0.380608 0.730879 0.000000
0.173132 0.796611 0.000000
0.004044 0.861430 0.084941
0.190400 0.874747 0.312527
0.403333 0.861860 0.444763
0.727276 0.000000 0.225533
0.727675 0.000000 0.128276
0.728073 0.000000 0.017189
0.728472 0.108804 0.000000
0.728871 0.250259 0.000000
0.729269 0.407196 0.000000
0.729668 0.579094 0.000000
0.695224 0.730067 0.000000
0.497817 0.730465 0.000000
0.289981 0.730864 0.000000
0.074042 0.731263 0.000000
0.000000 0.731661 0.147393
0.157333 0.784795 0.327522
0.343200 0.811728 0.431114
0.555644 0.758659 0.375878
0.794667 0.694053 0.204222
0.793392 0.047333 0.000000
0.793791 0.187057 0.000000
0.794189 0.343609 0.000000
0.794588 0.517028 0.000000
0.794987 0.706766 0.000000
0.679066 0.795385 0.000000
0.461371 0.795784 0.000000
0.232246 0.796183 0.000000
0.000000 0.796581 0.005788
0.000000 0.796980 0.249900
0.126222 0.797875 0.402939
0.285022 0.798641 0.454881
0.470400 0.721099 0.328849
0.682356 0.714813 0.183724
0.920889 0.791422 0.012395
1.000000 0.800000 0.000000
0.859508 0.435626 0.000000
0.859907 0.625414 0.000000
0.860305 0.832884 0.000000
0.664563 0.860704 0.000000
0.426673 0.861103 0.000000
0.176337 0.861501 0.000000
0.000000 0.861900 0.083730
0.000000 0.862299 0.350473
0.097067 0.863420 0.507655
0.228800 0.847365 0.533969
0.387111 0.742080 0.362092
0.572000 0.744276 0.190057
0.783467 0.850013 0.017862
0.866667 0.866667 0.000000
0.933333 0.866667 0.000000
1.000000 0.866667 0.000000
0.893757 0.925624 0.000000
0.651670 0.926023 0.000000
0.393673 0.926421 0.000000
0.122201 0.926820 0.000000
0.000000 0.927219 0.159838
0.000000 0.927617 0.449169
0.069867 0.928945 0.612614
0.174533 0.863244 0.581188
0.305778 0.762322 0.396294
0.463600 0.778164 0.211241
0.648577 0.907200 0.026029
0.733333 0.933333 0.000000
0.800000 0.933333 0.000000
0.866667 0.933333 0.000000
0.933333 0.933333 0.000000
1.000000 0.933333 0.000000
0.362334 0.991740 0.000000
0.069802 0.992139 0.000000
0.000000 0.992537 0.234150
0.000000 0.992936 0.546027
0.044622 0.994450 0.717808
0.122222 0.879119 0.629364
0.226400 0.781846 0.431453
0.357156 0.810627 0.233383
0.518034 0.964667 0.035154
0.600000 1.000000 0.000000
0.666667 1.000000 0.000000
0.733333 1.000000 0.000000
0.800000 1.000000 0.000000
0.866667 1.000000 0.000000
0.933333 1.000000 0.000000
1.000000 1.000000 0.000000
0.000000 0.000000 0.066667
0.066667 0.000000 0.066667
0.133333 0.000000 0.066667
0.200000 0.000000 0.066667
0.266667 0.000000 0.066667
0.333333 0.000000 0.066667
0.400000 0.000000 0.066667
0.466667 0.000000 0.066667
0.533333 0.000000 0.066667
0.600000 0.000000 0.066667
0.666667 0.000000 0.066667
0.733333 0.000000 0.066667
0.800000 0.000000 0.066667
0.864659 0.073610 0.055511
0.928591 0.222654 0.042222
0.992151 0.443979 0.028933
0.000000 0.066667 0.066667
0.066667 0.066667 0.066667
0.133333 0.066667 0.066667
0.200000 0.066667 0.066667
0.266667 0.066667 0.066667
0.333333 0.066667 0.066667
0.400000 0.066667 0.066667
0.466667 0.066667 0.066667
0.533333 0.066667 0.066667
0.600000 0.066667 0.066667
0.666667 0.066667 0.066667
0.616000 0.108392 0.171838
0.512533 0.130563 0.326483
0.382489 0.113539 0.507334
0.225867 0.049535 0.714390
0.117154 0.002844 0.947651
0.000000 0.133333 0.066667
0.066667 0.133333 0.066667
0.133333 0.133333 0.066667
0.200000 0.133333 0.066667
0.266667 0.133333 0.066667
0.333333 0.133333 0.066667
0.400000 0.133333 0.066667
0.466667 0.133333 0.066667
0.533333 0.133333 0.066667
0.508400 0.148779 0.147067
0.432000 0.146506 0.275181
0.329022 0.112090 0.429501
0.199467 0.037425 0.610025
0.137549 0.006667 0.816755
0.222745 0.000000 0.921965
0.369421 0.000000 0.987697
0.000000 0.200000 0.066667
0.066667 0.200000 0.066667
0.133333 0.200000 0.066667
0.200000 0.200000 0.066667
0.266667 0.200000 0.066667
0.333333 0.200000 0.066667
0.400000 0.200000 0.066667
0.398844 0.190873 0.124212
0.349511 0.163277 0.225796
0.273600 0.110787 0.353584
0.197569 0.051333 0.507577
0.157963 0.011467 0.687776
0.228850 0.000000 0.791284
0.356961 0.000000 0.857016
0.511858 0.000000 0.922748
0.698735 0.000000 0.988480
0.000000 0.266667 0.066667
0.066667 0.266667 0.066667
0.133333 0.266667 0.066667
0.200000 0.266667 0.066667
0.266667 0.266667 0.066667
0.287333 0.234161 0.103275
0.265067 0.180041 0.178327
0.231040 0.123556 0.279584
0.200171 0.070400 0.407046
0.179185 0.017244 0.560713
0.237915 0.000000 0.660603
0.347239 0.000000 0.726335
0.482067 0.000000 0.792067
0.647109 0.000000 0.857799
0.847546 0.000000 0.923531
0.989263 0.000000 0.889744
0.000000 0.333333 0.066667
0.066667 0.333333 0.066667
0.133333 0.333333 0.066667
0.185826 0.289778 0.101327
0.211027 0.223333 0.154334
0.210565 0.156889 0.207500
0.205360 0.090444 0.308431
0.203095 0.024000 0.435568
0.251384 0.000000 0.529921
0.341292 0.000000 0.595653
0.455670 0.000000 0.661385
0.598663 0.000000 0.727117
0.774998 0.000000 0.792849
0.858581 0.000000 0.727435
0.924313 0.000000 0.600670
0.990045 0.000000 0.425527
0.000000 0.400000 0.066667
0.083931 0.350667 0.107438
0.162799 0.270933 0.173462
0.220255 0.191200 0.239646
0.255039 0.111467 0.305988
0.267133 0.031733 0.372489
0.273024 0.000000 0.399240
0.341545 0.000000 0.464972
0.434321 0.000000 0.530704
0.554575 0.000000 0.596436
0.662168 0.000000 0.617937
0.727900 0.000000 0.561405
0.793632 0.000000 0.463900
0.859364 0.000000 0.320718
0.925096 0.000000 0.127528
0.990828 0.119363 0.000000
0.106754 0.319511 0.191632
0.221970 0.226489 0.270833
0.316546 0.133467 0.350192
0.392148 0.040444 0.429711
0.431602 0.000000 0.464559
0.455414 0.000000 0.464957
0.465356 0.000000 0.447162
0.465755 0.000000 0.413911
0.531487 0.000000 0.419360
0.597219 0.000000 0.390334
0.662951 0.000000 0.322550
0.728683 0.000000 0.211597
0.794415 0.000000 0.053269
0.860147 0.156145 0.000000
0.925879 0.419607 0.000000
0.991611 0.739121 0.000000
0.367138 0.156444 0.393439
0.485974 0.050133 0.463841
0.529877 0.000000 0.475386
0.530276 0.000000 0.442839
0.530675 0.000000 0.405427
0.531073 0.000000 0.361334
0.531472 0.000000 0.308969
0.531871 0.000000 0.247029
0.532269 0.000000 0.174538
0.598001 0.000000 0.096697
0.663733 0.026228 0.000000
0.729465 0.197828 0.000000
0.795197 0.421122 0.000000
0.860929 0.698310 0.000000
0.822745 0.926661 0.000000
0.566827 0.992393 0.000000
0.595196 0.000000 0.461255
0.595595 0.000000 0.415310
0.595993 0.000000 0.368112
0.596392 0.000000 0.313481
0.596791 0.000000 0.249624
0.597189 0.000000 0.175065
0.597588 0.000000 0.088698
0.597987 0.010173 0.000000
0.598385 0.121810 0.000000
0.598784 0.246031 0.000000
0.664516 0.428506 0.000000
0.730248 0.662936 0.000000
0.641237 0.795980 0.000000
0.431183 0.861712 0.000000
0.168165 0.927444 0.000000
0.088000 0.958577 0.138898
0.661312 0.000000 0.337648
0.661711 0.000000 0.269031
0.662109 0.000000 0.193921
0.662508 0.000000 0.106995
0.662907 0.000000 0.007013
0.663305 0.106812 0.000000
0.663704 0.234787 0.000000
0.664103 0.376724 0.000000
0.664501 0.531949 0.000000
0.630474 0.664900 0.000000
0.453304 0.665299 0.000000
0.289664 0.731031 0.000000
0.073879 0.796763 0.000000
0.069911 0.846698 0.182374
0.261333 0.854990 0.383652
0.479333 0.837077 0.482659
0.727428 0.000000 0.144322
0.727827 0.000000 0.041925
0.728225 0.071460 0.000000
0.728624 0.200023 0.000000
0.729023 0.344116 0.000000
0.729421 0.503551 0.000000
0.729820 0.677606 0.000000
0.595390 0.730219 0.000000
0.397061 0.730617 0.000000
0.189155 0.731016 0.000000
0.000000 0.731415 0.025886
0.053778 0.731925 0.232264
0.218133 0.780037 0.390351
0.409067 0.801944 0.466016
0.626578 0.716745 0.350090
0.870667 0.693620 0.186698
0.793544 0.144319 0.000000
0.793943 0.290439 0.000000
0.794341 0.450463 0.000000
0.794740 0.627212 0.000000
0.770362 0.795139 0.000000
0.563826 0.795537 0.000000
0.344498 0.795936 0.000000
0.114661 0.796335 0.000000
0.000000 0.796733 0.123034
0.039600 0.797321 0.345929
0.176889 0.798186 0.465931
0.340756 0.769263 0.458136
0.531200 0.700767 0.312505
0.748222 0.730747 0.175644
0.933333 0.800000 0.066667
1.000000 0.800000 0.066667
0.859660 0.551521 0.000000
0.860059 0.748173 0.000000
0.761548 0.860457 0.000000
0.535271 0.860856 0.000000
0.295082 0.861255 0.000000
0.043440 0.861653 0.000000
0.000000 0.862052 0.216801
0.027378 0.862698 0.458089
0.137600 0.863834 0.573895
0.274400 0.781526 0.498945
0.437778 0.723199 0.340296
0.627733 0.770049 0.181489
0.800000 0.866667 0.066667
0.866667 0.866667 0.066667
0.933333 0.866667 0.066667
1.000000 0.866667 0.066667
0.757796 0.925776 0.000000
0.509370 0.926175 0.000000
0.248446 0.926573 0.000000
0.000000 0.926972 0.024892
0.000000 0.927371 0.307583
0.017111 0.928055 0.569058
0.100267 0.929463 0.681577
0.210000 0.794068 0.540712
0.346311 0.744949 0.369046
0.509200 0.810322 0.197222
0.666667 0.933333 0.066667
0.733333 0.933333 0.066667
0.800000 0.933333 0.066667
0.866667 0.933333 0.066667
0.933333 0.933333 0.066667
1.000000 0.933333 0.066667
0.206685 0.991892 0.000000
0.000000 0.992291 0.090609
0.000000 0.992689 0.395667
0.008800 0.993392 0.679052
0.064889 0.973893 0.767960
0.147556 0.806782 0.583437
0.256800 0.765971 0.398754
0.392622 0.848966 0.213912
0.533333 1.000000 0.066667
0.600000 1.000000 0.066667
0.666667 1.000000 0.066667
0.733333 1.000000 0.066667
0.800000 1.000000 0.066667
0.866667 1.000000 0.066667
0.933333 1.000000 0.066667
1.000000 1.000000 0.066667
0.000000 0.000000 0.133333
0.066667 0.000000 0.133333
0.133333 0.000000 0.133333
0.200000 0.000000 0.133333
0.266667 0.000000 0.133333
0.333333 0.000000 0.133333
0.400000 0.000000 0.133333
0.466667 0.000000 0.133333
0.533333 0.000000 0.133333
0.600000 0.000000 0.133333
0.666667 0.000000 0.133333
0.733333 0.000000 0.133333
0.799520 0.013047 0.127467
0.863784 0.110614 0.100889
0.927675 0.275359 0.074311
0.991194 0.513739 0.047733
0.000000 0.066667 0.133333
0.066667 0.066667 0.133333
0.133333 0.066667 0.133333
0.200000 0.066667 0.133333
0.266667 0.066667 0.133333
0.333333 0.066667 0.133333
0.400000 0.066667 0.133333
0.466667 0.066667 0.133333
0.533333 0.066667 0.133333
0.600000 0.066667 0.133333
0.666364 0.073826 0.128444
0.731163 0.145511 0.101867
0.795590 0.277233 0.075289
0.859645 0.475945 0.048711
0.923326 0.750231 0.022133
0.896398 0.987067 0.000000
0.000000 0.133333 0.133333
0.066667 0.133333 0.133333
0.133333 0.133333 0.133333
0.200000 0.133333 0.133333
0.266667 0.133333 0.133333
0.333333 0.133333 0.133333
0.400000 0.133333 0.133333
0.466667 0.133333 0.133333
0.517689 0.137974 0.144902
0.462800 0.157381 0.238548
0.381333 0.150390 0.358400
0.273289 0.109464 0.504456
0.138667 0.025876 0.676718
0.105205 0.000000 0.856385
0.233976 0.000000 0.922117
0.387486 0.000000 0.987849
0.000000 0.200000 0.133333
0.066667 0.200000 0.133333
0.133333 0.200000 0.133333
0.200000 0.200000 0.133333
0.266667 0.200000 0.133333
0.333333 0.200000 0.133333
0.391200 0.199384 0.139135
0.363378 0.187199 0.206250
0.308978 0.156852 0.299570
0.228000 0.099854 0.419095
0.149437 0.036133 0.564826
0.126043 0.000000 0.725704
0.236489 0.000000 0.791436
0.370669 0.000000 0.857168
0.533306 0.000000 0.922900
0.729687 0.000000 0.988632
0.000000 0.266667 0.133333
0.066667 0.266667 0.133333
0.133333 0.266667 0.133333
0.200000 0.266667 0.133333
0.262843 0.263088 0.135284
0.262000 0.215228 0.175868
0.234667 0.160169 0.242657
0.197537 0.103289 0.335651
0.166079 0.050133 0.454851
0.152488 0.000000 0.595023
0.243747 0.000000 0.660755
0.358036 0.000000 0.726487
0.499470 0.000000 0.792219
0.672829 0.000000 0.857951
0.883309 0.000000 0.923683
0.989415 0.000000 0.842582
0.000000 0.333333 0.133333
0.066667 0.333333 0.133333
0.133402 0.330889 0.134788
0.187180 0.264444 0.174408
0.210915 0.198000 0.214186
0.202956 0.131556 0.254124
0.192579 0.065111 0.346792
0.189779 0.000000 0.464341
0.259198 0.000000 0.530073
0.351980 0.000000 0.595805
0.471190 0.000000 0.661537
0.620878 0.000000 0.727269
0.793001 0.000000 0.780293
0.858733 0.000000 0.686826
0.924465 0.000000 0.548302
0.990197 0.000000 0.360059
0.000000 0.400000 0.133333
0.106987 0.320267 0.185970
0.193946 0.240533 0.238766
0.252940 0.160800 0.291721
0.285143 0.081067 0.344835
0.291008 0.001333 0.398108
0.293188 0.000000 0.399392
0.358727 0.000000 0.465124
0.452509 0.000000 0.530856
0.576607 0.000000 0.596588
0.662320 0.000000 0.590049
0.728052 0.000000 0.525350
0.793784 0.000000 0.417923
0.859516 0.000000 0.263322
0.925248 0.000000 0.057513
0.990980 0.202852 0.000000
0.154997 0.284044 0.262388
0.281404 0.191022 0.328360
0.384412 0.098000 0.394492
0.461172 0.004978 0.460782
0.464711 0.000000 0.451142
0.465109 0.000000 0.434396
0.465508 0.000000 0.412713
0.465907 0.000000 0.384575
0.531639 0.000000 0.388679
0.597371 0.000000 0.354996
0.663103 0.000000 0.280067
0.728835 0.000000 0.160010
0.794567 0.008951 0.000000
0.860299 0.230122 0.000000
0.926031 0.506048 0.000000
0.991763 0.838302 0.000000
0.414212 0.115911 0.404734
0.521297 0.009600 0.436143
0.530029 0.000000 0.411133
0.530428 0.000000 0.383233
0.530827 0.000000 0.349762
0.531225 0.000000 0.308982
0.531624 0.000000 0.259407
0.532023 0.000000 0.199853
0.532421 0.000000 0.129482
0.598153 0.000000 0.046574
0.663885 0.083905 0.000000
0.729617 0.264809 0.000000
0.795349 0.498575 0.000000
0.861081 0.786883 0.000000
0.723199 0.926813 0.000000
0.456320 0.992545 0.000000
0.595348 0.000000 0.398549
0.595747 0.000000 0.346635
0.596145 0.000000 0.296798
0.596544 0.000000 0.244137
0.596943 0.000000 0.181654
0.597341 0.000000 0.108008
0.597740 0.000000 0.022246
0.598139 0.076166 0.000000
0.598537 0.187319 0.000000
0.598936 0.310863 0.000000
0.664668 0.500569 0.000000
0.717135 0.730400 0.000000
0.551412 0.796132 0.000000
0.331812 0.861864 0.000000
0.059619 0.927596 0.000000
0.164000 0.928822 0.241532
0.661464 0.000000 0.266883
0.661863 0.000000 0.190901
0.662261 0.000000 0.111429
0.662660 0.000000 0.024219
0.663059 0.076397 0.000000
0.663457 0.191025 0.000000
0.663856 0.319784 0.000000
0.664255 0.462300 0.000000
0.664653 0.617718 0.000000
0.545370 0.665052 0.000000
0.369263 0.665451 0.000000
0.198428 0.731183 0.000000
0.000000 0.796915 0.024857
0.135778 0.831943 0.272590
0.332267 0.835209 0.446269
0.555333 0.812270 0.511228
0.727580 0.000000 0.061209
0.727979 0.049837 0.000000
0.728377 0.168960 0.000000
0.728776 0.299411 0.000000
0.729175 0.445379 0.000000
0.729573 0.606472 0.000000
0.678176 0.729972 0.000000
0.490891 0.730371 0.000000
0.292685 0.730769 0.000000
0.085803 0.731168 0.000000
0.000000 0.731567 0.127207
0.109511 0.732170 0.312186
0.278933 0.775256 0.446979
0.474933 0.761806 0.463337
0.697511 0.692659 0.334413
0.946667 0.710960 0.179283
0.793696 0.243728 0.000000
0.794095 0.399312 0.000000
0.794493 0.565791 0.000000
0.794892 0.745156 0.000000
0.650550 0.795291 0.000000
0.442489 0.795689 0.000000
0.222462 0.796088 0.000000
0.000000 0.796487 0.007098
0.000000 0.796885 0.243424
0.085200 0.797670 0.433789
0.227556 0.798474 0.522542
0.396489 0.723624 0.438674
0.592000 0.696495 0.306271
0.814089 0.762945 0.177673
0.933333 0.800000 0.133333
1.000000 0.800000 0.133333
0.859812 0.670071 0.000000
0.844195 0.860211 0.000000
0.627522 0.860609 0.000000
0.398919 0.861008 0.000000
0.157292 0.861407 0.000000
0.000000 0.861805 0.094740
0.000000 0.862204 0.354193
0.062844 0.863150 0.552581
0.178133 0.851405 0.619292
0.320000 0.734169 0.474031
0.488444 0.722575 0.328611
0.683467 0.813285 0.183032
0.800000 0.866667 0.133333
0.866667 0.866667 0.133333
0.933333 0.866667 0.133333
1.000000 0.866667 0.133333
0.619322 0.925928 0.000000
0.362317 0.926327 0.000000
0.096304 0.926725 0.000000
0.000000 0.927124 0.178031
0.000000 0.927523 0.460459
0.042444 0.928610 0.669295
0.130667 0.857782 0.668624
0.245467 0.745287 0.510346
0.386844 0.747943 0.351909
0.555572 0.863022 0.193312
0.666667 0.933333 0.133333
0.733333 0.933333 0.133333
0.800000 0.933333 0.133333
0.866667 0.933333 0.133333
0.933333 0.933333 0.133333
1.000000 0.933333 0.133333
0.049071 0.992044 0.000000
0.000000 0.992443 0.254872
0.000000 0.992841 0.562875
0.024000 0.994051 0.784429
0.085156 0.865604 0.718914
0.172889 0.756733 0.547619
0.287200 0.772492 0.376164
0.436185 0.917333 0.204551
0.533333 1.000000 0.133333
0.600000 1.000000 0.133333
0.666667 1.000000 0.133333
0.733333 1.000000 0.133333
0.800000 1.000000 0.133333
0.866667 1.000000 0.133333
0.933333 1.000000 0.133333
1.000000 1.000000 0.133333
0.000000 0.000000 0.200000
0.066667 0.000000 0.200000
0.133333 0.000000 0.200000
0.200000 0.000000 0.200000
0.266667 0.000000 0.200000
0.333333 0.000000 0.200000
0.400000 0.000000 0.200000
0.466667 0.000000 0.200000
0.533333 0.000000 0.200000
0.600000 0.000000 0.200000
0.666667 0.000000 0.200000
0.733333 0.000000 0.200000
0.798709 0.037190 0.176000
0.862932 0.149408 0.136133
0.926783 0.329788 0.096267
0.990261 0.585513 0.056400
0.000000 0.066667 0.200000
0.066667 0.066667 0.200000
0.133333 0.066667 0.200000
0.200000 0.066667 0.200000
0.266667 0.066667 0.200000
0.333333 0.066667 0.200000
0.400000 0.066667 0.200000
0.466667 0.066667 0.200000
0.533333 0.066667 0.200000
0.600000 0.066667 0.200000
0.665753 0.088909 0.177467
0.730512 0.171847 0.137600
0.794898 0.316159 0.097733
0.858912 0.529337 0.057867
0.922553 0.820873 0.018000
0.883115 0.987219 0.000000
0.000000 0.133333 0.200000
0.066667 0.133333 0.200000
0.133333 0.133333 0.200000
0.200000 0.133333 0.200000
0.266667 0.133333 0.200000
0.333333 0.133333 0.200000
0.400000 0.133333 0.200000
0.466667 0.133333 0.200000
0.532759 0.142820 0.178933
0.598053 0.197770 0.139067
0.662975 0.307242 0.099200
0.727524 0.479033 0.059333
0.791700 0.722543 0.019467
0.748069 0.856537 0.000000
0.678990 0.922269 0.000000
0.583551 0.988001 0.000000
0.000000 0.200000 0.200000
0.066667 0.200000 0.200000
0.133333 0.200000 0.200000
0.200000 0.200000 0.200000
0.266667 0.200000 0.200000
0.333333 0.200000 0.200000
0.361676 0.200265 0.219325
0.327911 0.189098 0.278177
0.268444 0.157591 0.363234
0.182400 0.096939 0.474497
0.093041 0.020933 0.611964
0.121442 0.000000 0.725856
0.237798 0.000000 0.791588
0.379266 0.000000 0.857320
0.550756 0.000000 0.923052
0.757647 0.000000 0.988784
0.000000 0.266667 0.200000
0.066667 0.266667 0.200000
0.133333 0.266667 0.200000
0.200000 0.266667 0.200000
0.252064 0.252132 0.206031
0.253239 0.214522 0.238352
0.208648 0.151029 0.296878
0.155812 0.083022 0.381609
0.123062 0.029867 0.492545
0.146334 0.000000 0.595175
0.242423 0.000000 0.660907
0.362930 0.000000 0.726639
0.512104 0.000000 0.792371
0.694807 0.000000 0.858103
0.916243 0.000000 0.923835
0.989567 0.000000 0.797459
0.000000 0.333333 0.200000
0.066667 0.333333 0.200000
0.140372 0.305556 0.210986
0.209136 0.255264 0.237378
0.235200 0.200243 0.263928
0.221013 0.145250 0.290637
0.180372 0.047679 0.375042
0.189405 0.000000 0.464493
0.259998 0.000000 0.530225
0.356517 0.000000 0.595957
0.481502 0.000000 0.661689
0.638812 0.000000 0.727421
0.793153 0.000000 0.753308
0.858885 0.000000 0.648870
0.924617 0.000000 0.497933
0.990349 0.000000 0.296070
0.022155 0.369600 0.214984
0.139337 0.289867 0.254392
0.238836 0.210133 0.293960
0.307065 0.136441 0.333687
0.333924 0.058502 0.373572
0.328788 0.008981 0.399145
0.315710 0.008990 0.399544
0.372765 0.000000 0.465276
0.466724 0.000000 0.531008
0.594768 0.000000 0.596740
0.662472 0.000000 0.565595
0.728204 0.000000 0.492190
0.793936 0.000000 0.374309
0.859668 0.000000 0.207828
0.925400 0.010952 0.000000
0.991132 0.285013 0.000000
0.211732 0.248578 0.323034
0.331333 0.155556 0.357068
0.419747 0.062533 0.380161
0.464464 0.000000 0.395607
