mpv/oil_slick_full.cube
TITLE "Classic Rainbow Oil"
LUT_3D_SIZE 16
DOMAIN_MIN 0.0 0.0 0.0
DOMAIN_MAX 1.0 1.0 1.0
0.00000000 0.00000000 0.00000000
0.06392300 0.03303496 0.00000000
0.12667207 0.12834600 0.00000000
0.10459238 0.19276900 0.00000000
0.04196393 0.25719200 0.00000000
0.00000000 0.32161500 0.04694994
0.00005800 0.38603800 0.15072980
0.00015100 0.45046100 0.26247651
0.00024400 0.51488400 0.38208129
0.00033700 0.57930700 0.51583637
0.00043000 0.61269820 0.64373000
0.00000000 0.54351829 0.70715300
0.00000000 0.42568032 0.77157600
0.00000000 0.25093639 0.83599900
0.00000000 0.01818710 0.90042200
0.26708203 0.00000000 0.96484500
0.02656489 0.06545300 0.00016300
0.01681967 0.06598067 0.00000000
0.00334896 0.13052967 0.00000000
0.00000000 0.19455067 0.04559141
0.00007900 0.25935567 0.11867245
0.00042600 0.32403267 0.20629978
0.00031700 0.38825367 0.30539596
0.00000000 0.45180267 0.41911153
0.00039500 0.47589004 0.51699167
0.00012600 0.43159510 0.58105267
0.00047300 0.34280416 0.64572967
0.00000000 0.20028428 0.70909467
0.00023900 0.00495950 0.77415567
0.24256773 0.00041800 0.83866467
0.53131468 0.00000000 0.90242167
0.85249476 0.00000000 0.96665867
0.00000000 0.13040600 0.05347754
0.00028700 0.13186367 0.07602649
0.00000000 0.13246133 0.08929129
0.00000000 0.19662833 0.15129734
0.00032600 0.26155933 0.23043668
0.00020300 0.32576633 0.32555770
0.00000000 0.33660689 0.38960133
0.00044900 0.31731540 0.45467233
0.00000000 0.25587335 0.51821133
0.00000000 0.14739603 0.58261833
0.01215660 0.00035200 0.64756533
0.21979193 0.00000000 0.71128433
0.47060371 0.00013400 0.77600733
0.75426681 0.00020300 0.84040633
0.90410533 0.00000000 0.74614186
0.96903233 0.00016900 0.54653606
0.00048900 0.19635900 0.18975095
0.00000000 0.18429131 0.19675867
0.00009900 0.17317124 0.19796233
0.00000000 0.16401826 0.19859400
0.00022100 0.19634704 0.26341100
0.00000000 0.19981493 0.32737600
0.00000000 0.16719796 0.39148900
0.00000000 0.09147033 0.45588600
0.03146905 0.00018500 0.52069500
0.20137476 0.00040400 0.58524400
0.41219329 0.00000000 0.64892500
0.65780586 0.00000000 0.71309000
0.77765100 0.00000000 0.62460749
0.84189600 0.00000000 0.45801543
0.90615300 0.00000000 0.26765833
0.97039800 0.00000000 0.04522512
0.00015200 0.17781722 0.26131200
0.00004500 0.15907163 0.26220167
0.00007400 0.13856200 0.26322733
0.00022300 0.11187605 0.26437300
0.00027600 0.07612792 0.26542267
0.00000000 0.03248670 0.32920567
0.05389829 0.00000000 0.39375667
0.18474982 0.00000000 0.45780367
0.35766550 0.00015200 0.52261867
0.56518123 0.00000000 0.58666567
0.65103267 0.00000000 0.50015808
0.71549567 0.00003900 0.36764334
0.77970267 0.00000000 0.20980394
0.84363767 0.00000000 0.01992191
0.90884467 0.21419940 0.00039800
0.97252367 0.50988669 0.00000000
0.00000000 0.12461905 0.32626500
0.00046600 0.08717589 0.32791267
0.00006900 0.03767327 0.32851233
0.02369307 0.00032800 0.32976800
0.09486642 0.00022700 0.33066367
0.17307987 0.00023800 0.33167133
0.30573305 0.00000000 0.39548433
0.45996133 0.00000000 0.44446801
0.52422233 0.00000000 0.37258721
0.58920333 0.00045000 0.27465419
0.65327233 0.00018900 0.14935122
0.71699733 0.00708008 0.00000000
0.78130633 0.20627591 0.00000000
0.84584733 0.46366590 0.00000000
0.91082833 0.79647350 0.00042500
0.73142644 0.97462533 0.00000000
0.00047800 0.00159884 0.39221800
0.07533823 0.00020300 0.39293967
0.16401773 0.00028400 0.39401733
0.26033780 0.00000000 0.39437100
0.36066073 0.00000000 0.39542467
0.39659433 0.00000000 0.33363273
0.39768800 0.00000000 0.24195801
0.46192700 0.00000000 0.17766764
0.52632200 0.00000000 0.08555014
0.59042500 0.03791243 0.00000000
0.65525200 0.20278668 0.00021200
0.71947500 0.42099627 0.00010500
0.78347800 0.70833713 0.00000000
0.61678193 0.84832500 0.00029500
0.28195602 0.91227200 0.00000000
0.00000000 0.97651100 0.14447309
0.23108690 0.00014100 0.45717100
0.34607592 0.00000000 0.45758667
0.45854233 0.00000000 0.45149092
0.46044600 0.00042600 0.33650333
0.46076967 0.00000000 0.22564387
0.46196133 0.00000000 0.12273184
0.46270100 0.00000000 0.02470298
0.46358867 0.07162301 0.00000000
0.52824567 0.20153440 0.00000000
0.59263467 0.38127723 0.00000000
0.65707567 0.62492103 0.00007900
0.49743759 0.72149667 0.00017000
0.21932456 0.78562567 0.00000000
0.00000000 0.84976667 0.14598457
0.00013900 0.91445567 0.59165577
0.00000000 0.85806381 0.97825267
0.52212400 0.00000000 0.47511852
0.52354167 0.00022500 0.34049720
0.52390333 0.00000000 0.21125056
0.52496900 0.00000000 0.09081771
0.52595467 0.02274064 0.00000000
0.52696433 0.13589999 0.00000000
0.52824600 0.25565765 0.00000000
0.52882367 0.38919481 0.00000000
0.51546462 0.53034533 0.00005200
0.37383393 0.59478433 0.00016100
0.15193849 0.65891133 0.00000000
0.00040300 0.72368633 0.15304965
0.00040000 0.78801333 0.53512212
0.00000000 0.72386121 0.85152433
0.00000000 0.36761877 0.91610733
0.00209162 0.00039900 0.98100233
0.58807700 0.00046700 0.19957824
0.58839667 0.00000000 0.06097281
0.59006033 0.07000659 0.00045700
0.59021200 0.19834593 0.00000000
0.59204367 0.33507451 0.00044700
0.59304333 0.48681541 0.00045000
0.52495922 0.59329900 0.00000000
0.32283100 0.59446667 0.00000000
0.09125084 0.59529833 0.00000000
0.00000000 0.59645000 0.16410345
0.00009700 0.66100700 0.48314297
0.00000000 0.58516015 0.72518800
0.00004700 0.28753284 0.78961700
0.02994373 0.00000000 0.85375800
0.34171177 0.00000000 0.91779500
0.62674054 0.00000000 0.98224000
0.65303000 0.11463000 0.00013000
0.65349567 0.25928415 0.00000000
0.65532533 0.41232310 0.00043200
0.65578300 0.58112243 0.00000000
0.53679863 0.65652467 0.00000000
0.31227123 0.65799833 0.00011500
0.05507705 0.65903600 0.00015600
0.00000000 0.65950967 0.22910532
0.00000000 0.66082733 0.53053453
0.00026300 0.49005942 0.66213300
0.00000000 0.20244981 0.66284267
0.06293229 0.00039700 0.72759367
0.33086348 0.00000000 0.79146867
0.58180099 0.00000000 0.85563567
0.80224330 0.00023600 0.92042267
0.98450167 0.00000000 0.98177807
0.71798300 0.48741120 0.00000000
0.71908667 0.67428948 0.00000000
0.55078021 0.71996233 0.00000000
0.30345027 0.72108200 0.00000000
0.02042720 0.72186167 0.00000000
0.00000000 0.72278933 0.29169023
0.00037500 0.72454500 0.62401694
0.00017800 0.49227705 0.72534467
0.00000000 0.17409595 0.72594833
0.11151650 0.00000000 0.72709200
0.35248031 0.00036300 0.72851967
0.54014717 0.00038200 0.72953533
0.73439889 0.00000000 0.79324833
0.85827733 0.00046400 0.81352884
0.92260633 0.00046300 0.79585258
0.98615533 0.00000000 0.78309843
0.56712891 0.78393600 0.00045600
0.29658511 0.78404167 0.00000000
0.00000000 0.78537933 0.01101971
0.00007900 0.78654900 0.35223532
0.00006800 0.78753467 0.71413713
0.00032900 0.49737221 0.78879233
0.00000000 0.14846385 0.78924200
0.16544372 0.00000000 0.79033167
0.43077988 0.00000000 0.79134933
0.63844533 0.00000000 0.79206300
0.78916381 0.00024200 0.79368867
0.79421033 0.00000000 0.69982054
0.79587600 0.00043600 0.63802818
0.86015500 0.00038500 0.63687032
0.92435400 0.00025400 0.61891345
0.98854500 0.00011500 0.55894923
0.00011900 0.84888900 0.04084741
0.00033800 0.85010467 0.41014010
0.00026100 0.85102433 0.80220687
0.00000000 0.50411349 0.85132800
0.00000000 0.12510617 0.85235967
0.21736169 0.00004600 0.85379933
0.50747301 0.00000000 0.85451900
0.73592393 0.00000000 0.85539067
0.85685433 0.00011100 0.81139738
0.85772600 0.00000000 0.70200189
0.85921367 0.00047700 0.63221217
0.86019733 0.00046400 0.58002675
0.86031700 0.00000000 0.52229011
0.86152467 0.00000000 0.43980974
0.92587367 0.00000000 0.33662601
0.99065467 0.00026800 0.15367176
0.00000000 0.91384200 0.88711486
0.00000000 0.51426232 0.91477167
0.00000000 0.10433819 0.91567333
0.26668254 0.00000000 0.91685100
0.58217337 0.00000000 0.91758467
0.83168093 0.00000000 0.91855433
0.92039200 0.00035200 0.82618915
0.92066567 0.00000000 0.70457861
0.92203933 0.00000600 0.62668707
0.92282500 0.00000000 0.56854353
0.92442267 0.00039600 0.50707766
0.92487233 0.00000000 0.41750135
0.92590200 0.00000000 0.28381828
0.92734367 0.00032700 0.09573129
0.92767733 0.14903952 0.00000000
0.99242033 0.47531971 0.00007700
0.00044500 0.08673280 0.97979500
0.31447949 0.00017600 0.98052267
0.65544236 0.00000000 0.98107033
0.92660058 0.00005800 0.98239800
0.98325767 0.00000000 0.84149894
0.98435333 0.00002000 0.70882058
0.98560500 0.00027500 0.62264074
0.98626867 0.00000000 0.55855570
0.98712833 0.00000000 0.49121044
0.98812800 0.00000000 0.39602390
0.98925967 0.00000000 0.25380150
0.98985933 0.00000000 0.05273839
0.99142300 0.20775656 0.00011300
0.99214267 0.52148687 0.00000000
0.99329833 0.87491484 0.00000000
0.73872197 0.99412200 0.00000000
0.03853825 0.06400433 0.00029100
0.00000000 0.06448400 0.01351730
0.00000000 0.12890500 0.10813943
0.00018800 0.13366882 0.19355800
0.00000000 0.08001609 0.25723500
0.00000000 0.00426200 0.32190400
0.08452810 0.00000000 0.38634100
0.18158819 0.00000000 0.45057800
0.28925004 0.00024300 0.51526300
0.41444412 0.00013400 0.57948400
0.56920347 0.00000000 0.64360900
0.70844600 0.00043600 0.65008169
0.77253900 0.00019900 0.52919125
0.83653600 0.00000000 0.35090185
0.90061300 0.00000000 0.11658738
0.96486600 0.16563048 0.00000000
0.00000000 0.06517800 0.00426463
0.05640042 0.06632367 0.04965700
0.04271273 0.13090667 0.03816437
0.03605015 0.19512967 0.07376769
0.03121480 0.25971267 0.13668126
0.02527596 0.32399167 0.21647437
0.01861295 0.38788667 0.31152849
0.00989426 0.45299767 0.42763767
0.00021200 0.46143761 0.51718867
0.00049700 0.40630036 0.58180367
0.00019000 0.30300425 0.64582667
0.00000000 0.14645988 0.70968967
0.06262351 0.00013600 0.77443267
0.31932022 0.00000000 0.83847967
0.61455943 0.00000000 0.90254267
0.93839085 0.00000000 0.96684567
0.00027700 0.13123700 0.09052473
0.04353300 0.13245267 0.11713527
0.04424160 0.13332033 0.11142799
0.03746183 0.19726133 0.16275817
0.03127845 0.26171833 0.23585832
0.02260476 0.32220766 0.32587533
0.00890492 0.32865468 0.39015633
0.00014200 0.29828691 0.45474533
0.00000000 0.22536125 0.51845033
0.00045600 0.10505973 0.58371933
0.06654490 0.00000000 0.64733633
0.28456434 0.00000000 0.71184533
0.54105854 0.00000000 0.77592633
0.82850760 0.00036400 0.84094733
0.90506833 0.00015500 0.67214463
0.96908933 0.00000000 0.47005200
0.00003000 0.16746186 0.19628000
0.03781587 0.16114766 0.19758567
0.03709300 0.16047418 0.19781533
0.03578716 0.16104217 0.19876100
0.02456784 0.19295985 0.26336400
0.00743489 0.18787408 0.32762700
0.00036800 0.14434346 0.39259800
0.00030100 0.05826958 0.45686100
0.07493202 0.00000000 0.52046400
0.25418238 0.00037100 0.58559100
0.47126986 0.00000000 0.64930600
0.71411300 0.00023300 0.70711913
0.77864400 0.00043400 0.56146520
0.84221100 0.00000000 0.39220341
0.90648600 0.00000000 0.19732902
0.97079700 0.03368720 0.00000000
0.00007100 0.14342628 0.26161100
0.02941733 0.13990845 0.26242667
0.02529855 0.12348397 0.26383433
0.01724579 0.09654128 0.26413000
0.00866344 0.05907547 0.26583367
0.00028600 0.00426362 0.33014267
0.09040803 0.00048900 0.39467567
0.22792264 0.00000000 0.45828867
0.40609193 0.00000000 0.52274967
0.58737867 0.00020200 0.55692139
0.65181567 0.00030900 0.44677648
0.71632467 0.00048800 0.31204820
0.78020967 0.00004300 0.14952900
0.84495067 0.04905768 0.00045400
0.90927567 0.29772399 0.00044900
0.97301667 0.61434037 0.00000000
0.00000000 0.08404240 0.32654200
0.00851831 0.04964510 0.32785567
0.00620741 0.00000000 0.32843333
0.06685113 0.00000000 0.32975500
0.13644366 0.00005200 0.33086867
0.21152535 0.00033700 0.33215033
0.34758269 0.00002200 0.39616533
0.46034833 0.00000000 0.40098299
0.52475533 0.00000000 0.32726734
0.58945033 0.00031700 0.22689679
0.65379333 0.00033000 0.09791984
0.71729633 0.06617819 0.00000000
0.78207933 0.27863364 0.00000000
0.84609433 0.55408746 0.00000000
0.91064533 0.91019378 0.00000000
0.59150304 0.97538833 0.00027500
0.05374376 0.00033700 0.39245700
0.13465542 0.00000000 0.39298467
0.22351744 0.00025900 0.39437233
0.31855285 0.00035000 0.39546000
0.39655167 0.00044500 0.37817212
0.39707933 0.00000000 0.28650500
0.39843500 0.00033500 0.20136637
0.46285600 0.00042600 0.13636656
0.52628100 0.00000000 0.04041621
0.59085400 0.08887097 0.00000000
0.65559100 0.26449005 0.00017100
0.71959600 0.49860584 0.00000000
0.76049863 0.78382100 0.00000000
0.49428064 0.84839400 0.00000000
0.13501999 0.91226700 0.00000000
0.00000000 0.97697600 0.31211084
0.30162404 0.00039400 0.45780400
0.41906894 0.00000000 0.45838167
0.45923533 0.00000000 0.38323747
0.46077300 0.00037300 0.27294801
0.46125067 0.00000000 0.16819733
0.46248433 0.00009100 0.07100102
0.46353800 0.02277881 0.00014800
0.46464367 0.11804219 0.00025700
0.52846267 0.25522206 0.00000000
0.59274967 0.44802408 0.00000000
0.60513999 0.65748867 0.00011200
0.39223092 0.72195167 0.00024500
0.09213404 0.78605067 0.00001400
0.00030700 0.85067367 0.29326099
0.00010800 0.91480467 0.75204334
0.00031300 0.69415230 0.97933967
0.52286300 0.00016300 0.39639996
0.52343867 0.00000000 0.26292729
0.52488633 0.00019300 0.14060830
0.52539800 0.00000000 0.02518617
0.52621367 0.08433822 0.00000000
0.52749333 0.19643384 0.00000000
0.52900500 0.31819824 0.00032500
0.52942067 0.45626154 0.00000000
0.44277866 0.53084433 0.00017100
0.28335767 0.59508133 0.00007800
0.04216168 0.65899833 0.00000000
0.00044400 0.72410733 0.28023873
0.00001500 0.78800833 0.67496127
0.00007400 0.57917322 0.85239733
0.00000000 0.22596045 0.91663433
0.13079830 0.00000000 0.98093533
0.58763400 0.00000000 0.11803380
0.58888367 0.01629255 0.00000000
0.58948533 0.14278743 0.00000000
0.59074300 0.27130555 0.00000000
0.59225667 0.41026780 0.00028000
0.59295433 0.56754067 0.00000000
0.43667562 0.59398000 0.00001000
0.22532863 0.59480567 0.00000000
0.00036400 0.59632733 0.01395411
0.00019300 0.59715300 0.27407245
0.00000000 0.66096000 0.60429683
0.00033100 0.45866404 0.72595100
0.00008800 0.16238022 0.79003800
0.14548045 0.00012500 0.85440500
0.44066062 0.00025800 0.91886800
0.70430284 0.00034300 0.98328300
0.65369300 0.19713489 0.00041300
0.65379667 0.34297170 0.00000000
0.65523233 0.49882786 0.00000000
0.63751531 0.65632000 0.00005000
0.43425035 0.65692367 0.00000000
0.19898046 0.65801133 0.00000000
0.00000000 0.65925500 0.06709120
0.00000000 0.65977467 0.35669397
0.00000000 0.66094633 0.65851414
0.00036800 0.36828885 0.66261800
0.00022300 0.09259012 0.66346967
0.16534433 0.00031400 0.72789067
0.41904928 0.00000000 0.79153167
0.65209887 0.00000000 0.85600867
0.85346093 0.00015500 0.92072167
0.98536667 0.00047000 0.94750670
0.71858400 0.58315920 0.00001400
0.65980428 0.71992967 0.00036300
0.43602130 0.72086333 0.00030000
0.17608828 0.72115300 0.00000000
0.00019400 0.72275067 0.11697914
0.00000000 0.72324833 0.43611547
0.00000000 0.67964720 0.72431800
0.00000000 0.35271887 0.72551167
0.00000000 0.04680547 0.72614133
0.22117069 0.00043500 0.72797500
0.43916543 0.00000000 0.72806067
0.60444303 0.00000000 0.72929433
0.78256274 0.00000000 0.79338533
0.85812033 0.00000000 0.77943041
0.92257933 0.00005600 0.76998622
0.98636233 0.00000000 0.75673496
0.44118335 0.78364300 0.00000000
0.15695287 0.78498667 0.00013000
0.00000000 0.78545833 0.16273995
0.00000000 0.78683400 0.51209617
0.00037900 0.70012506 0.78822567
0.00041400 0.34168247 0.78925733
0.00000000 0.00541796 0.78963300
0.28934264 0.00000000 0.79053667
0.53194617 0.00005500 0.79188833
0.71592308 0.00032200 0.79315200
0.79390367 0.00007700 0.74428601
0.79463133 0.00000000 0.66346452
0.79610300 0.00028300 0.61183326
0.85972400 0.00000000 0.61013249
0.92431300 0.00000000 0.58347984
0.98831800 0.00000000 0.50503373
0.00042400 0.84957400 0.20525871
0.00000000 0.85006367 0.58450286
0.00000000 0.72249375 0.85069733
0.00000000 0.33276992 0.85180300
0.03301833 0.00026800 0.85340467
0.35508459 0.00000000 0.85366233
0.62180500 0.00038200 0.85551200
0.82360313 0.00000000 0.85563367
0.85665933 0.00000000 0.74763376
0.85776500 0.00000000 0.65716612
0.85926267 0.00014600 0.59857142
0.85978433 0.00000000 0.54845293
0.86080200 0.00000000 0.48570226
0.86243567 0.00032900 0.39080655
0.92687467 0.00043800 0.26529137
0.99095367 0.00018700 0.05467741
0.00020900 0.75093665 0.91464900
0.00027600 0.32829940 0.91571267
0.06772580 0.00000000 0.91598833
0.41852521 0.00000000 0.91722000
0.70875333 0.00024500 0.91867167
0.91912733 0.00000000 0.90809846
0.92048300 0.00006300 0.75390929
0.92120267 0.00000000 0.65282585
0.92251833 0.00010500 0.58696148
0.92371000 0.00030000 0.53203223
0.92399367 0.00000000 0.46296356
0.92531333 0.00000000 0.36044991
0.92670900 0.00030900 0.20847762
0.92702067 0.00022085 0.00000000
0.92852033 0.26403410 0.00012700
0.99227733 0.61240731 0.00000000
0.09951977 0.00010600 0.97983600
0.47948196 0.00011900 0.98084567
0.79334355 0.00000800 0.98173133
0.98294900 0.00022900 0.93080158
0.98401867 0.00030200 0.76154594
0.98521233 0.00049900 0.65048618
0.98541000 0.00000000 0.57630149
0.98673967 0.00003300 0.51603872
0.98744933 0.00000000 0.44194373
0.98842700 0.00000000 0.33201808
0.98929667 0.00000000 0.16952006
0.99021033 0.05209161 0.00000000
0.99207200 0.33391963 0.00038200
0.99249767 0.66284423 0.00000000
0.96257627 0.99417533 0.00049200
0.58746431 0.99479300 0.00011300
0.05132462 0.12750867 0.00008200
0.00003900 0.12846233 0.03209670
0.00004800 0.12946800 0.11094851
0.00000000 0.12528901 0.19360300
0.00023000 0.07022383 0.25831000
0.00611443 0.00041100 0.32282100
0.09295163 0.00000000 0.38661600
0.18973133 0.00019300 0.45126300
0.29849220 0.00000000 0.51497000
0.42985621 0.00000000 0.57925700
0.59595266 0.00024800 0.64430800
0.70833900 0.00000000 0.61001064
0.77318200 0.00046200 0.47417272
0.83752500 0.00047500 0.28096587
0.90165600 0.00027600 0.03401971
0.96551900 0.25776769 0.00000000
0.00000000 0.12938033 0.05059794
0.03248055 0.13025200 0.12431184
0.04102305 0.08016025 0.13162367
0.03706703 0.04035802 0.19566867
0.08428689 0.03074140 0.25957367
0.15242477 0.02524356 0.32431467
0.23686770 0.01852534 0.38889167
0.34269981 0.00676995 0.45289667
0.48366670 0.00000000 0.51726567
0.58142267 0.00000000 0.49559329
0.64571167 0.00000000 0.39113413
0.71073267 0.00038600 0.23441567
0.77502967 0.00035300 0.02583358
0.83877067 0.22716788 0.00000000
0.90308367 0.51469567 0.00000000
0.96812867 0.82821537 0.00046200
0.00000000 0.13085600 0.12523035
0.04407943 0.11321777 0.13280167
0.09981400 0.13314733 0.11738964
0.09292709 0.19769033 0.16569289
0.08609562 0.26231333 0.23483865
0.07580495 0.32646433 0.32572607
0.05995809 0.33420864 0.39075933
0.03690177 0.29740352 0.45491033
0.00714368 0.20269669 0.51892533
0.00043300 0.06460328 0.58407633
0.11831634 0.00000000 0.64748333
0.34513339 0.00000000 0.71200233
0.60727599 0.00000000 0.77627333
0.84048833 0.00000000 0.78440075
0.90549533 0.00020200 0.60257047
0.96997433 0.00035100 0.39821387
0.00000000 0.13314693 0.19616500
0.03708628 0.12691116 0.19716467
0.09280548 0.15216447 0.19854833
0.09082048 0.16772791 0.19931600
0.07792081 0.20570857 0.26420900
0.05827151 0.20156972 0.32793400
0.03372491 0.14733937 0.39261900
0.00433020 0.03166162 0.45677600
0.11614983 0.00025500 0.52152500
0.30218512 0.00000000 0.58519400
0.52616649 0.00027700 0.65020700
0.71442800 0.00016800 0.65024530
0.77822500 0.00000000 0.50180359
0.84323000 0.00031000 0.33099332
0.90704300 0.00000000 0.12931323
0.97135200 0.11391716 0.00000000
0.00005400 0.10921887 0.26197400
0.02827231 0.10215893 0.26303167
0.07840851 0.12357656 0.26440533
0.06983241 0.10679761 0.26484700
0.06066139 0.08141293 0.26614067
0.05550757 0.03511380 0.32998767
0.12896650 0.00869240 0.39502267
0.26727428 0.00000000 0.45874167
0.45014544 0.00000000 0.52293667
0.58799167 0.00043500 0.51040583
0.65225067 0.00036400 0.39773925
0.71648167 0.00026500 0.25965767
0.78081267 0.00026600 0.09167994
0.84494767 0.11746182 0.00007100
0.90899067 0.38263130 0.00000000
0.97390167 0.72330319 0.00036500
0.00000000 0.04224788 0.32702700
0.01328076 0.00442373 0.32832267
0.10108435 0.04768605 0.32927833
0.14165610 0.03602761 0.33045400
0.19371914 0.02563696 0.33105767
0.25407876 0.01865831 0.33185733
0.38691075 0.00026300 0.39678633
0.46091933 0.00006600 0.36132001
0.52567233 0.00048900 0.28629451
0.58994133 0.00042800 0.18289982
0.65335033 0.00000000 0.04786274
0.71846733 0.12556131 0.00029400
0.78254833 0.35210686 0.00004500
0.84722533 0.64862699 0.00039200
0.79353465 0.91134633 0.00018300
0.44635514 0.97528733 0.00000000
0.10957554 0.00000000 0.39206000
0.20041489 0.00036500 0.39386167
0.29418976 0.00916954 0.39467133
0.38181922 0.00061443 0.39541700
0.39613067 0.00000000 0.32107908
0.39768433 0.00020100 0.23834049
0.39802200 0.00000000 0.16046605
0.46303700 0.00022700 0.09620049
0.52722800 0.00231005 0.00008800
0.59173900 0.13980445 0.00026900
0.65575400 0.32707276 0.00000000
0.72022500 0.57928688 0.00009500
0.65934480 0.78469600 0.00023600
0.36808882 0.84840700 0.00000000
0.00010200 0.91322200 0.01365007
0.00039500 0.97784500 0.48023398
0.37315975 0.00047500 0.45826500
0.45882467 0.00003800 0.42237486
0.45996833 0.00018500 0.30894261
0.46095200 0.00017200 0.20493276
0.46209567 0.00031900 0.10814730
0.46316733 0.00039400 0.01735402
0.46404700 0.07211417 0.00027700
0.46455867 0.16458742 0.00000000
0.52903567 0.31091652 0.00000000
0.59335267 0.51774772 0.00000000
0.51738351 0.65738967 0.00000000
0.28381452 0.72235467 0.00026800
0.00007900 0.78649567 0.03736658
0.00037000 0.85111667 0.44016182
0.00000000 0.91498567 0.90931761
0.00006400 0.53581463 0.97947067
0.52272200 0.00000000 0.31734261
0.52428367 0.00020700 0.18457960
0.52535333 0.00028000 0.06496375
0.52584300 0.04399771 0.00000000
0.52716867 0.15062803 0.00010200
0.52806633 0.26123641 0.00000300
0.52876000 0.38419226 0.00000000
0.53022567 0.52796215 0.00016900
0.36601963 0.53116733 0.00011400
0.18991445 0.59579833 0.00041500
0.00007200 0.65978533 0.06936066
0.00020500 0.72424833 0.40753348
0.00047800 0.76438312 0.78885133
0.00000000 0.43920691 0.85244233
0.00004400 0.09299935 0.91707733
0.24853109 0.00000000 0.98131633
0.58863900 0.00026900 0.03923422
0.58929467 0.09556615 0.00000000
0.59021833 0.22200624 0.00000000
0.59146600 0.35019064 0.00010600
0.59210167 0.49144636 0.00000000
0.53103618 0.59312533 0.00000000
0.34125569 0.59400100 0.00000000
0.12285669 0.59572067 0.00037400
0.00001300 0.59635633 0.12258355
0.00041600 0.59775600 0.38544549
0.00022300 0.59854366 0.66189300
0.00009800 0.33577205 0.72609800
0.00012100 0.04446364 0.79045100
0.25076100 0.00000000 0.85456000
0.52699784 0.00000000 0.91859300
0.76990739 0.00038200 0.98370200
0.65358400 0.27904261 0.00000000
0.65509767 0.43145092 0.00044100
0.65521133 0.59284919 0.00000000
0.53646027 0.65679700 0.00014700
0.32365343 0.65736667 0.00000000
0.07892087 0.65858433 0.00000000
0.00037000 0.66001000 0.19520746
0.00045500 0.66109167 0.48871947
0.00000000 0.53524714 0.66123733
0.00019300 0.24863082 0.66282300
0.01282871 0.00017400 0.66380067
0.26017870 0.00033100 0.72828767
0.49814603 0.00000000 0.79183067
0.71261586 0.00000000 0.85627767
0.89630676 0.00025000 0.92119667
0.98552367 0.00024700 0.91852527
0.71862100 0.68164892 0.00000000
0.54784886 0.71946067 0.00000000
0.31079139 0.72047633 0.00000000
0.04041200 0.72145200 0.00000000
0.00008300 0.72301967 0.26137516
0.00000000 0.72353933 0.58497900
0.00028900 0.53365741 0.72521900
0.00007600 0.21486442 0.72600267
0.07554084 0.00000000 0.72674633
0.32320973 0.00000000 0.72754600
0.51936098 0.00000000 0.72856967
0.66176032 0.00000000 0.72957733
0.79391833 0.00000000 0.76364338
0.85844333 0.00000000 0.75080289
0.92288033 0.00000000 0.74642149
0.98691733 0.00000000 0.72909451
0.31061079 0.78441400 0.00017400
0.00935883 0.78525567 0.00001900
0.00023600 0.78646933 0.32327356
0.00000000 0.78673500 0.67702002
0.00001800 0.53623353 0.78824467
0.00000000 0.18587714 0.78879833
0.13388426 0.00020000 0.79042000
0.40780973 0.00006100 0.79127767
0.62614736 0.00039000 0.79260333
0.78552679 0.00026700 0.79347700
0.79465867 0.00045200 0.69681637
0.79531633 0.00011300 0.63117489
0.79637000 0.00017000 0.58683307
0.86031300 0.00000000 0.58265322
0.92521200 0.00035200 0.54421364
0.98876300 0.00000000 0.44453031
0.00000000 0.84948300 0.37360278
0.00000000 0.85021067 0.76318100
0.00017100 0.54358222 0.85169433
0.00045400 0.16262552 0.85297400
