mpv/oil_slick_m_s.cube
TITLE "Oil Slick Iridescent Effect - Smooth Natural"
LUT_3D_SIZE 6
DOMAIN_MIN 0.0 0.0 0.0
DOMAIN_MAX 1.0 1.0 1.0
0.00000000 0.00000000 0.00000000
0.18945383 0.19697500 0.00000000
0.05185720 0.39445000 0.04383846
0.08907520 0.59192500 0.46545050
0.11241291 0.56155332 0.78840000
0.08611425 0.28515934 0.98587500
0.02094581 0.19883700 0.18910169
0.02966560 0.16137882 0.19927800
0.05677020 0.20384276 0.39637900
0.05390123 0.09129968 0.59434000
0.23452938 0.02486485 0.79095300
0.67257746 0.02181538 0.98790600
0.15907942 0.05796493 0.39717400
0.21681088 0.03652247 0.39753300
0.25797198 0.01310393 0.39905600
0.53156078 0.01313139 0.59599900
0.79325800 0.01763130 0.51719381
0.99049700 0.05676691 0.02211121
0.59551100 0.02085477 0.52639547
0.59585200 0.01302740 0.37896336
0.59714500 0.01315131 0.15953884
0.59850200 0.19217284 0.01333922
0.73287442 0.79587500 0.01795313
0.03594320 0.99270400 0.06201252
0.79384800 0.06457526 0.01830732
0.79466700 0.52335172 0.01795723
0.46867737 0.79556600 0.01768714
0.02753509 0.79659300 0.26867960
0.07763125 0.62727389 0.79861200
0.24329331 0.14559349 0.99548700
0.37694098 0.99218500 0.02275915
0.03345944 0.99299400 0.56111894
0.09383891 0.54437136 0.99440700
0.46886916 0.14450433 0.99513600
0.99663700 0.14959160 0.90088314
0.99754200 0.14948000 0.43816897
0.00000000 0.19632900 0.07875814
0.00021400 0.01750427 0.19786600
0.39509500 0.05916524 0.38059087
0.59176000 0.08852161 0.17588356
0.78920500 0.37098675 0.10058417
0.98672600 0.82619734 0.06046851
0.02939463 0.06938040 0.19870400
0.16004300 0.20004300 0.19886836
0.18325839 0.28985460 0.39684600
0.17983793 0.21607297 0.59463300
0.35439953 0.16661862 0.79170800
0.79770596 0.17037385 0.98908700
0.30571966 0.05244725 0.39749900
0.37476639 0.16824748 0.39808000
0.34759698 0.15845839 0.39929300
0.59480539 0.16161637 0.59624200
0.79380700 0.16610135 0.46203976
0.99087600 0.40620936 0.17021870
0.59569800 0.01481554 0.34181948
0.59629700 0.16170341 0.28019042
0.59777200 0.19974722 0.16230733
0.59956300 0.43809625 0.16322724
0.53237910 0.79604600 0.16674746
0.19925286 0.99320500 0.50050690
0.79365300 0.35548336 0.01766658
0.73329048 0.79461400 0.16603234
0.24174140 0.79665100 0.16728553
0.18708105 0.79705200 0.64900208
0.23133728 0.44474537 0.79875300
0.58354076 0.27838975 0.99546600
0.02289452 0.99262800 0.13073103
0.19527260 0.95159731 0.99290300
0.25243149 0.28044553 0.99429800
0.82993064 0.27829260 0.99541300
0.99680800 0.27898240 0.70503250
0.99772300 0.27903628 0.37956236
0.00024600 0.39315800 0.31347426
0.02493837 0.01835213 0.39422100
0.39523200 0.05922360 0.36756417
0.59240700 0.08756935 0.14903295
0.78969000 0.38826416 0.08223361
0.98686500 0.86517212 0.03904088
0.16149877 0.05881200 0.39478300
0.39658800 0.18806154 0.35663977
0.39791300 0.21519921 0.17849426
0.59460600 0.51285007 0.16969771
0.60598837 0.79201900 0.16580921
0.28695786 0.98897600 0.16988528
0.39790800 0.04367308 0.34411105
0.39839100 0.16269327 0.27026642
0.34874025 0.30758600 0.39958600
0.58560208 0.31084858 0.59700500
0.79419200 0.31457783 0.48464518
0.99172300 0.66414252 0.31893054
0.59621300 0.01366700 0.15091367
0.59669400 0.24373981 0.16176829
0.59825100 0.48839863 0.31154258
0.59912400 0.59289962 0.31184250
0.44895979 0.79720100 0.31912106
0.36124099 0.99428200 0.80208141
0.79449800 0.66914009 0.01806584
0.41161617 0.79553700 0.16659481
0.31815733 0.79666000 0.52874403
0.34432591 0.68836649 0.79781100
0.37442449 0.37685012 0.79908600
0.81685844 0.40891744 0.99672500
0.02669804 0.99278700 0.60813899
0.21699139 0.54490554 0.99384800
0.67280544 0.39938885 0.99458900
0.99590600 0.40812440 0.89877723
0.99770300 0.40921576 0.59207868
0.99842000 0.43264962 0.40922712
0.00000000 0.48210303 0.58898700
0.21481971 0.07876853 0.59011200
0.59192500 0.08892900 0.50277079
0.59264200 0.08165468 0.12939666
0.78989500 0.39636896 0.06074317
0.98711600 0.90971365 0.02618911
0.41725014 0.08871540 0.59167400
0.59241700 0.21230501 0.44467199
0.59368400 0.21524083 0.18634373
0.59577900 0.46849321 0.16445506
0.59849611 0.79299800 0.16642769
0.19136286 0.98931700 0.16984871
0.59432900 0.04923228 0.33639727
0.59489800 0.16401075 0.18968462
0.59695100 0.48992779 0.31114917
0.39727238 0.59752000 0.31114508
0.31481152 0.79470100 0.65364826
0.31861730 0.50896882 0.99171800
0.59652000 0.07620086 0.01352727
0.59810700 0.45665168 0.16284917
0.47650799 0.59843800 0.31151108
0.59988100 0.57881238 0.46188100
0.51101045 0.79690000 0.47158079
0.51460063 0.99403900 0.95677130
0.58546041 0.79449500 0.01761710
0.16616529 0.79546800 0.25695729
0.32560037 0.75513948 0.79761700
0.49458342 0.52959826 0.79875000
0.60950644 0.50950932 0.79988300
0.94753071 0.53779560 0.99629600
0.03965195 0.89691426 0.99344600
0.31368443 0.24020998 0.99473300
0.98248294 0.40652877 0.99528800
0.99713500 0.53865484 0.71400393
0.99791400 0.53888368 0.54442752
0.99952900 0.63315005 0.53994852
0.00000000 0.35445731 0.78581600
0.47287979 0.11801200 0.78697900
0.78794200 0.11781269 0.56784441
0.78953700 0.09439632 0.12453871
0.79096400 0.40230088 0.04153814
0.98733500 0.96416656 0.02189409
0.74284533 0.11841997 0.78844100
0.78961000 0.22877621 0.47246149
0.79072700 0.26709487 0.18601254
0.79180000 0.60010807 0.16597562
0.57672923 0.79286900 0.16593816
0.17013614 0.98998200 0.26666359
0.79006600 0.04424521 0.26542879
0.79185700 0.27765707 0.16616852
0.79267600 0.70858795 0.31395538
0.45062888 0.79370700 0.31426430
0.31516121 0.79532600 0.69552920
0.32032372 0.36262176 0.99232500
0.79301900 0.35060406 0.01799053
0.72814713 0.79428000 0.16647315
0.31509878 0.79523700 0.31927339
0.46466031 0.71906019 0.79614600
0.72788380 0.47971838 0.79748700
0.99468400 0.55106638 0.52692396
0.23141306 0.79531600 0.01799236
0.16775627 0.79665500 0.60471920
0.33588253 0.45481124 0.79728200
0.72944884 0.50234053 0.79893300
0.66697343 0.63967200 0.79967200
0.96393637 0.66808832 0.99716300
0.06048636 0.43040959 0.99343700
0.70459505 0.26004231 0.99523800
0.99592300 0.40830781 0.71762817
0.99719600 0.59610656 0.53850608
0.99856100 0.81081182 0.66910616
0.99953800 0.78656769 0.66968848
0.08816780 0.18156036 0.98264500
0.80357224 0.14797940 0.98393400
0.98458700 0.14306221 0.57415659
0.98543600 0.12926000 0.09235413
0.98686500 0.53541440 0.03300491
0.94287507 0.98793800 0.02191385
0.98433200 0.14361220 0.84262417
0.98547100 0.23118167 0.43752062
0.98745000 0.37233294 0.18067739
0.98860500 0.80812580 0.17036215
0.62491446 0.98954400 0.17031086
0.17045158 0.99067500 0.40770854
0.98742300 0.03648934 0.13305906
0.98836400 0.48711908 0.17015758
0.95736326 0.98905700 0.31777081
0.36846568 0.99091800 0.31882033
0.31858984 0.99149900 0.98082239
0.43846667 0.32699449 0.99260800
0.98939000 0.72304803 0.02232579
0.59708303 0.99069300 0.17054244
0.31852869 0.99140800 0.62041345
0.47284889 0.66571748 0.99250300
0.95916110 0.50569739 0.99381800
0.99485700 0.60930112 0.53427784
0.02196962 0.99132900 0.19645776
0.17814341 0.81721351 0.99253800
0.55954919 0.36642335 0.99427100
0.99552000 0.53446960 0.82081170
0.99605300 0.82198521 0.66722252
0.79145600 0.99810200 0.66887684
0.18022979 0.08699831 0.99409600
0.99518700 0.27273128 0.92671379
0.99657400 0.40869092 0.44226813
0.99808900 0.81761720 0.53918932
0.96453823 0.99846800 0.66886268
0.99999900 0.79999900 0.79999900
