mpv/oil_slick_hf-full-000.cube
TITLE "Oil Slick - Intense"
LUT_3D_SIZE 16
DOMAIN_MIN 0.0 0.0 0.0
DOMAIN_MAX 1.0 1.0 1.0
0.00000000 0.00000000 0.00000000
0.05709924 0.06439033 0.00000000
0.03551382 0.12928067 0.00000000
0.00000000 0.19417100 0.05703726
0.00000000 0.25906133 0.21049790
0.00000000 0.23574587 0.32395167
0.00005800 0.12601434 0.38884200
0.01573887 0.00015100 0.45373233
0.18894743 0.00024400 0.51862267
0.40025442 0.00033700 0.58351300
0.64840333 0.00043000 0.63452409
0.71229367 0.00000000 0.43365245
0.77718400 0.00000000 0.14776371
0.84207433 0.24012747 0.00000000
0.90696467 0.74283909 0.00000000
0.58037907 0.97185500 0.00000000
0.00016300 0.06572833 0.03305516
0.00000000 0.06605667 0.04445048
0.00000000 0.13107300 0.13036470
0.00000000 0.11919565 0.19556133
0.00007900 0.06212283 0.26083367
0.03357017 0.00042600 0.32597800
0.16381075 0.00031700 0.39066633
0.33222506 0.00000000 0.45468267
0.52033900 0.00039500 0.48987970
0.58486733 0.00012600 0.33870112
0.65001167 0.00047300 0.10889010
0.71384400 0.21610712 0.00000000
0.77937233 0.64833900 0.00023900
0.49721345 0.84434867 0.00041800
0.00000000 0.90857300 0.02454593
0.00000000 0.97327733 0.64209915
0.00000000 0.05536167 0.13095667
0.00028700 0.02134052 0.13221500
0.00626322 0.00000000 0.13261333
0.05421726 0.00000000 0.19724767
0.14205949 0.00032600 0.26264600
0.26905186 0.00020300 0.32732033
0.39162267 0.00000000 0.34101744
0.45716100 0.00044900 0.23953651
0.52116733 0.00000000 0.06391976
0.58604167 0.19747684 0.00000000
0.65145600 0.55897817 0.00035200
0.40699482 0.71564233 0.00000000
0.00013400 0.78083267 0.03301510
0.00020300 0.84569900 0.56778614
0.00000000 0.63975265 0.90986533
0.00016900 0.10047446 0.97525967
0.08584371 0.00048900 0.19718500
0.13087748 0.00000000 0.19738533
0.17097848 0.00009900 0.19838967
0.19882200 0.00000000 0.18887628
0.26410633 0.00022100 0.18941567
0.32853867 0.00000000 0.13528602
0.39311900 0.00000000 0.01516303
0.45798333 0.18366322 0.00000000
0.52325967 0.47488394 0.00018500
0.31219400 0.58827600 0.00040400
0.00000000 0.65242433 0.04695273
0.00000000 0.71705667 0.49856147
0.00000000 0.53430319 0.78208500
0.00000000 0.07211658 0.84679733
0.42899776 0.00000000 0.91152167
0.95044510 0.00000000 0.97623400
0.26241333 0.00015200 0.23185024
0.26310367 0.00004500 0.17417518
0.26393000 0.00007400 0.11344287
0.26487633 0.00022300 0.04421614
0.26572667 0.03860553 0.00027600
0.32997700 0.17531027 0.00000000
0.39349322 0.39499533 0.00000000
0.20990222 0.45950967 0.00000000
0.00015200 0.52479200 0.06793742
0.00000000 0.58930633 0.43649662
0.00000000 0.42262239 0.65414067
0.00003900 0.03880641 0.71907100
0.39077962 0.00000000 0.78374533
0.84730100 0.00000000 0.84814767
0.91382200 0.00039800 0.50988639
0.97796833 0.00000000 0.16437658
0.32764167 0.00000000 0.07925503
0.32909000 0.01349424 0.00046600
0.32949033 0.12140116 0.00006900
0.33054667 0.24912393 0.00032800
0.26609059 0.33124300 0.00022700
0.10235887 0.33205133 0.00023800
0.00000000 0.39633167 0.09469003
0.00000000 0.46127600 0.38066308
0.00000000 0.30448749 0.52600433
0.00114741 0.00045000 0.59145267
0.35789966 0.00018900 0.65598900
0.72018133 0.00000000 0.69136174
0.78495767 0.00000000 0.40875919
0.84996600 0.00000000 0.11443288
0.91541433 0.19166855 0.00042500
0.97967867 0.51671502 0.00000000
0.39387000 0.20202109 0.00047800
0.39439233 0.35836497 0.00020300
0.25179047 0.39527067 0.00028400
0.05098149 0.39542500 0.00000000
0.00000000 0.39627933 0.16483164
0.00000000 0.39724967 0.39043000
0.00000000 0.17993076 0.39814400
0.04621444 0.00000000 0.46285033
0.33007020 0.00000000 0.52771267
0.59228300 0.00000000 0.52887066
0.65757733 0.00021200 0.30480798
0.72226767 0.00010500 0.06100793
0.78673800 0.19942633 0.00000000
0.85205233 0.48318983 0.00029500
0.91646667 0.80253390 0.00000000
0.78357693 0.98117300 0.00000000
0.24044216 0.45909833 0.00014100
0.00358756 0.45931467 0.00000000
0.00000000 0.46007100 0.25086202
0.00042600 0.40579607 0.46177533
0.00000000 0.14001847 0.46189967
0.11555939 0.00000000 0.46289200
0.35335947 0.00000000 0.46343233
0.46412067 0.00000000 0.36079046
0.52924500 0.00000000 0.19529733
0.59410133 0.00000000 0.00310106
0.65900967 0.21172680 0.00007900
0.72389800 0.45252352 0.00017000
0.78849433 0.72984219 0.00000000
0.64504052 0.85310267 0.00000000
0.36848574 0.91825900 0.00013900
0.00000000 0.98252333 0.00462982
0.00000000 0.52432667 0.33393897
0.00022500 0.41031024 0.52554500
0.00000000 0.10372777 0.52570733
0.19124808 0.00000000 0.52657367
0.46688970 0.00000000 0.52736000
0.52817033 0.00000000 0.34084223
0.52925267 0.00000000 0.12431025
0.52963100 0.06297260 0.00000000
0.53095333 0.22762996 0.00005200
0.59585967 0.42560620 0.00016100
0.66024071 0.66045400 0.00000000
0.50340292 0.72569633 0.00040300
0.27610597 0.79049067 0.00040000
0.00000000 0.85446900 0.04075964
0.00000000 0.91951933 0.46476834
0.00039900 0.96219531 0.98488167
0.00046700 0.07184679 0.59055500
0.26407354 0.00000000 0.59067533
0.57815280 0.00045700 0.59213967
0.59209200 0.00000000 0.32367321
0.59372433 0.00044700 0.07677125
0.59452467 0.13914866 0.00045000
0.59458100 0.32654445 0.00000000
0.59554933 0.49766301 0.00000000
0.52888574 0.59618167 0.00000000
0.35657894 0.59713400 0.00000000
0.17883994 0.66215833 0.00009700
0.00000000 0.72680667 0.08203651
0.00004700 0.79170300 0.44214403
0.00000000 0.79972097 0.85631133
0.00000000 0.34261385 0.92081567
0.22457832 0.00000000 0.98572800
0.65578333 0.00013000 0.62626758
0.65604967 0.00000000 0.30929527
0.65768000 0.00043200 0.03123165
0.65793833 0.21154418 0.00000000
0.65848067 0.42358496 0.00000000
0.65975500 0.61681906 0.00011500
0.51763886 0.66059333 0.00015600
0.32364467 0.66086767 0.00000000
0.10870671 0.66198600 0.00000000
0.00026300 0.66309233 0.13905295
0.00000000 0.66360267 0.42470118
0.00039700 0.63245093 0.72882100
0.00000000 0.25243857 0.79316333
0.23369534 0.00000000 0.85779767
0.81678605 0.00023600 0.92305200
0.98759833 0.00000000 0.49786241
0.72101167 0.01210450 0.00000000
0.72191600 0.28231837 0.00000000
0.72259233 0.51882217 0.00000000
0.71342951 0.72351267 0.00000000
0.50742941 0.72409300 0.00000000
0.29300215 0.72482133 0.00000000
0.05604410 0.72637767 0.00037500
0.00017800 0.72697800 0.21723654
0.00000000 0.72738233 0.53146723
0.00000000 0.56737249 0.72832667
0.00036300 0.17345315 0.72955500
0.24989724 0.00038200 0.73037133
0.74877549 0.00000000 0.79455167
0.86004800 0.00046400 0.39173078
0.92484433 0.11759289 0.00046300
0.98886067 0.66190291 0.00000000
0.78724000 0.61266411 0.00045600
0.72587818 0.78714633 0.00000000
0.49975022 0.78828467 0.00000000
0.26478624 0.78925500 0.00007900
0.00480110 0.79004133 0.00006800
0.00032900 0.79109967 0.29323918
0.00000000 0.79135000 0.63570037
0.00000000 0.55883986 0.79224033
0.00000000 0.12873446 0.79305867
0.33204963 0.00000000 0.79357300
0.79499933 0.00024200 0.77989419
0.79532167 0.00000000 0.30462197
0.79678800 0.15236861 0.00043600
0.86153433 0.62517847 0.00038500
0.73108102 0.92620067 0.00025400
0.35594090 0.99085900 0.00011500
0.49382387 0.85246833 0.00011900
0.23822416 0.85348467 0.00033800
0.00026100 0.85420500 0.04441562
0.00000000 0.85430933 0.36602132
0.00000000 0.85514167 0.73715237
0.00004600 0.55343515 0.85638200
0.00000000 0.08751063 0.85690233
0.41166433 0.00000000 0.85757467
0.85883900 0.00011100 0.78775042
0.85951133 0.00000000 0.27191857
0.86079967 0.22536189 0.00047700
0.86158400 0.68758588 0.00046400
0.61943435 0.86150433 0.00000000
0.25412103 0.86251267 0.00000000
0.00000000 0.92732900 0.07072669
0.00026800 0.99257733 0.40429940
0.00000000 0.91769667 0.09085024
0.00000000 0.91842700 0.43748455
0.00000000 0.91912933 0.83628232
0.00000000 0.55042372 0.92010767
0.00000000 0.04924530 0.92064200
0.48787008 0.00000000 0.92141233
0.92305067 0.00035200 0.79931249
0.92312500 0.00000000 0.24195866
0.92429933 0.29463648 0.00000600
0.92488567 0.79470936 0.00000000
0.60546300 0.92628400 0.00039600
0.20816701 0.92653433 0.00000000
0.00000000 0.92736467 0.13745615
0.00032700 0.92860700 0.44273733
0.00000000 0.92874133 0.72150580
0.00007700 0.92224291 0.99395167
0.00044500 0.98392500 0.93377022
0.00017600 0.55077124 0.98445333
0.00000000 0.01439166 0.98480167
0.56158074 0.00005800 0.98593000
0.98659033 0.00000000 0.81346823
0.98748667 0.00002000 0.21599972
0.98853900 0.36151002 0.00027500
0.98900333 0.89970104 0.00000000
0.59279419 0.98966367 0.00000000
0.16456294 0.99046400 0.00000000
0.00000000 0.99139633 0.20876748
0.00000000 0.99179667 0.53751698
0.00011300 0.99316100 0.83934110
0.00000000 0.85436565 0.99368133
0.00000000 0.54778901 0.99463767
0.00000000 0.20663638 0.99526200
0.00029100 0.06459500 0.02102018
0.00000000 0.04214704 0.06487533
0.01893616 0.00000000 0.12976367
0.14922121 0.00018800 0.19488400
0.25902833 0.00000000 0.18252795
0.32416467 0.00000000 0.08017466
0.38906900 0.05855848 0.00000000
0.45377333 0.22920378 0.00000000
0.51892567 0.43408646 0.00024300
0.48646885 0.58361400 0.00013400
0.31281688 0.64820633 0.00000000
0.06622602 0.71351067 0.00043600
0.00019900 0.77807100 0.27294464
0.00000000 0.84253533 0.71744144
0.00000000 0.53700295 0.90707967
0.00822264 0.00000000 0.97180000
0.00000000 0.05710732 0.06537733
0.05299033 0.06632367 0.05938292
0.03915596 0.13137400 0.12930869
0.04024541 0.13104490 0.19606433
0.04712743 0.08909847 0.26111467
0.09101592 0.04951635 0.32586100
0.21064353 0.04840167 0.39022333
0.37382639 0.04849864 0.45580167
0.52046000 0.04766447 0.45238005
0.58554233 0.04583401 0.30004225
0.65003267 0.03873397 0.05905730
0.71436300 0.34394505 0.02462704
0.76785369 0.77957333 0.00419831
0.32662532 0.84408767 0.00000000
0.00000000 0.90861800 0.21753572
0.00000000 0.97338833 0.85153996
0.00027700 0.00549217 0.13171167
0.06444880 0.04715460 0.13272800
0.06728991 0.05173796 0.13339633
0.10087445 0.05139650 0.19780467
0.17709079 0.05066012 0.26272900
0.29585763 0.04970004 0.32735333
0.39210167 0.04890025 0.31979307
0.45715800 0.04742642 0.21926092
0.52133033 0.04465750 0.04141000
0.58706667 0.30562800 0.03122547
0.62667724 0.65115100 0.01301826
0.26469462 0.71612733 0.00000000
0.00000000 0.78067567 0.19709681
0.00036400 0.84616400 0.74885767
0.00015500 0.45107593 0.91075233
0.08972945 0.00000000 0.97524067
0.13996268 0.00003000 0.19703000
0.18725711 0.05174024 0.19813633
0.19816667 0.05120661 0.19066472
0.19891300 0.05136292 0.17317719
0.26398333 0.05064635 0.18204001
0.32871367 0.04908598 0.13325875
0.39415200 0.07787193 0.04560564
0.45888233 0.27224653 0.03682525
0.47933488 0.52295267 0.02188420
0.19789291 0.58854700 0.00349706
0.00000000 0.65272933 0.18388066
0.00023300 0.71800367 0.65221693
0.00043400 0.37267235 0.78300200
0.09232001 0.00000000 0.84703633
0.59010294 0.00000000 0.91177867
0.97655700 0.00000000 0.85039565
0.26263633 0.00007100 0.17356149
0.26325267 0.05058731 0.14367010
0.26446100 0.05114932 0.10001835
0.26455733 0.05388327 0.05014832
0.26606167 0.11756549 0.04908770
0.33083800 0.24589649 0.04257862
0.32604609 0.39583833 0.03173755
0.12869483 0.45991867 0.01543347
0.00000000 0.52484700 0.17901555
0.00020200 0.58994333 0.56343735
0.00030900 0.28668857 0.65484767
0.10241582 0.00048800 0.71982400
0.53003546 0.00004300 0.78417633
0.84938467 0.00045400 0.71766968
0.91417700 0.00044900 0.38634935
0.97838533 0.00000000 0.04893260
0.32784267 0.00000000 0.00919865
0.32895700 0.12473321 0.04948134
0.32933533 0.21594348 0.04676470
0.33045767 0.32650469 0.04244078
0.20413406 0.33137200 0.03592909
0.05203248 0.33245433 0.02853509
0.01280413 0.39693667 0.19199192
0.00000000 0.43923303 0.46158700
0.00000000 0.19202590 0.52646133
0.11896749 0.00031700 0.59162367
0.47633350 0.00033000 0.65643400
0.72040433 0.00000000 0.57749677
0.78565467 0.00000000 0.30169609
0.85013700 0.00000000 0.01299121
0.91515533 0.28943326 0.00000000
0.98036567 0.61846366 0.00027500
0.39403300 0.29504563 0.00033700
0.33506364 0.39436133 0.03991911
0.16672640 0.39554967 0.03217563
0.02279585 0.39643800 0.07519133
0.01354896 0.39733033 0.27574413
0.00530320 0.30411001 0.39765867
0.00048711 0.08650020 0.39881500
0.14538000 0.00042600 0.46370333
0.42951980 0.00000000 0.52759567
0.59263600 0.00000000 0.43182815
0.65784033 0.00017100 0.21206873
0.72231267 0.02711983 0.00000000
0.78700500 0.28550569 0.00000000
0.85204533 0.57199769 0.00000000
0.91638567 0.90143937 0.00000000
0.66648100 0.98156200 0.00000000
0.11705704 0.45965533 0.00039400
0.01690454 0.46003367 0.14001339
0.00561151 0.46068800 0.38480583
0.00037300 0.27655184 0.46202633
0.00000000 0.01767425 0.46230467
0.22787988 0.00009100 0.46333900
0.45305238 0.00014800 0.46419333
0.46509967 0.00025700 0.27723058
0.52938600 0.00000000 0.11444146
0.59414033 0.07369808 0.00000000
0.65934667 0.28732684 0.00011200
0.72427700 0.53086401 0.00024500
0.76061391 0.78884333 0.00001400
0.54264538 0.85393367 0.00030700
0.24166281 0.91853200 0.00010800
0.00031300 0.98353433 0.16236106
0.00016300 0.52498967 0.48650435
0.00000000 0.25637838 0.52536600
0.04319290 0.00019300 0.52661433
0.32809789 0.00000000 0.52692667
0.52754300 0.00000000 0.46492961
0.52862333 0.00000000 0.23332031
0.52993567 0.00032500 0.03220259
0.53015200 0.14205055 0.00000000
0.53137633 0.29596227 0.00017100
0.59608067 0.49539925 0.00007800
0.58348259 0.66046500 0.00000000
0.41310921 0.72604133 0.00044400
0.16459988 0.79040967 0.00001500
0.00007400 0.85526600 0.17920637
0.00000000 0.91997033 0.63375571
0.00000000 0.76147895 0.98473867
0.09445626 0.00000000 0.59003600
0.42310921 0.00000000 0.59108633
0.59148867 0.00000000 0.46088434
0.59254700 0.00000000 0.19552508
0.59386133 0.03612382 0.00028000
0.59435967 0.23640886 0.00000000
0.59518600 0.41343047 0.00001000
0.59581233 0.57750268 0.00000000
0.45199989 0.59713467 0.00036400
0.27630550 0.59776100 0.00019300
0.08067718 0.66203533 0.00000000
0.00033100 0.72749367 0.20317854
0.00008800 0.79204800 0.59016950
0.00012500 0.62372946 0.85688233
0.00025800 0.13959568 0.92181267
0.45181651 0.00034300 0.98669500
0.65637033 0.00041300 0.46538596
0.65627467 0.00000000 0.16210690
0.65751100 0.09907203 0.00000000
0.65839933 0.32622808 0.00005000
0.65880367 0.52634393 0.00000000
0.60709151 0.65969200 0.00000000
0.42364972 0.66073633 0.00000000
0.22576989 0.66105667 0.00000000
0.00232457 0.66202900 0.00000000
0.00036800 0.66350133 0.25654199
0.00022300 0.66415367 0.55455845
0.00031400 0.47814898 0.72904200
0.00000000 0.07317370 0.79315033
0.43392294 0.00000000 0.85809467
0.92327500 0.00015500 0.81437817
0.98838733 0.00047000 0.27610679
0.72153667 0.15604627 0.00001400
0.72268300 0.41269575 0.00036300
0.72341733 0.63671818 0.00030000
0.60356612 0.72350767 0.00000000
0.39957563 0.72490600 0.00019400
0.18003500 0.72520433 0.00000000
0.00000000 0.72607467 0.06673554
0.00000000 0.72706900 0.35250157
0.00000000 0.72749933 0.68073575
0.00043500 0.40619332 0.72913367
0.00000000 0.00136527 0.72902000
0.42514979 0.00000000 0.73005433
0.79461267 0.00000000 0.65038534
0.85981500 0.00000000 0.19363039
0.92474133 0.31522376 0.00005600
0.98899167 0.85573755 0.01707754
0.78687100 0.74053608 0.00000000
0.60374170 0.78801533 0.00013000
0.37782471 0.78828767 0.00000000
0.13772725 0.78946400 0.00000000
0.00037900 0.79065633 0.13334149
0.00041400 0.79148867 0.44536328
0.00000000 0.77991308 0.79166500
0.00000000 0.37705694 0.79236933
0.06385551 0.00005500 0.79352167
0.53110669 0.00032200 0.79458600
0.79513833 0.00007700 0.58270566
0.79566667 0.00000000 0.11499070
0.79693900 0.33244093 0.00678555
0.86102733 0.79790793 0.02159212
0.58197862 0.92608367 0.03446912
0.23775315 0.99055600 0.04112637
0.36238010 0.85307733 0.00042400
0.09795329 0.85336767 0.00000000
0.00000000 0.85380200 0.19535783
0.00000000 0.85470833 0.53354937
0.00026800 0.78966320 0.85611067
0.00000000 0.35263243 0.85616900
0.12540138 0.00038200 0.85781933
0.63107139 0.00000000 0.85774167
0.85856800 0.00000000 0.56837246
0.85947433 0.00000000 0.06008471
0.86077267 0.42355256 0.00166973
0.85631563 0.86109500 0.02105022
0.47854137 0.86191333 0.03541504
0.15530904 0.86334767 0.04360330
0.04482505 0.92825400 0.23405419
0.04386199 0.99280033 0.54740791
0.00020900 0.91842767 0.25399833
0.00027600 0.91929200 0.61995682
0.00000000 0.80169709 0.91936833
0.00000000 0.33242622 0.92040067
0.18243365 0.00024500 0.92165300
0.72781587 0.00000000 0.92190933
0.92306567 0.00006300 0.55942333
0.92358600 0.00000000 0.00977966
0.92470233 0.51284669 0.00010500
0.85884586 0.92569467 0.01833185
0.44693871 0.92577900 0.03335094
0.09421357 0.92689933 0.04208391
0.04468609 0.92809567 0.30375782
0.04406338 0.92820800 0.58022158
0.04460454 0.92950833 0.84039908
0.04329786 0.80772321 0.99373267
0.00010600 0.82008752 0.98389000
0.00011900 0.31581220 0.98470033
0.23558579 0.00000800 0.98538667
0.82093182 0.00022900 0.98640500
0.98727533 0.00030200 0.55422080
0.98826967 0.03694204 0.00049900
0.98826800 0.59866204 0.00000000
0.86352889 0.98939833 0.01462451
0.41834190 0.98990867 0.03149363
0.04078436 0.99068700 0.04570369
0.04319941 0.99135733 0.38575555
0.04318941 0.99207167 0.68630810
0.04408949 0.99373400 0.96830235
0.04355357 0.73811975 0.99396033
0.04426965 0.43696584 0.99543867
0.04392574 0.09582640 0.99585700
0.00008200 0.12869000 0.07255208
0.00003900 0.08008212 0.12944433
0.02132052 0.00004800 0.13025067
0.16134468 0.00000000 0.19485300
0.26002733 0.00023000 0.16431803
0.32500567 0.00041100 0.05729100
0.38926800 0.08525003 0.00000000
0.45438233 0.26044058 0.00019300
0.51855667 0.47127971 0.00000000
0.43710492 0.58331100 0.00000000
0.24721993 0.64882933 0.00024800
0.00000000 0.71332767 0.02302518
0.00046200 0.77863800 0.38984340
0.00047500 0.82163867 0.84344833
0.00027600 0.36049942 0.90804667
0.21304854 0.00000000 0.97237700
0.00000000 0.05951270 0.13017033
0.06046650 0.03360024 0.13084267
0.13201500 0.04267953 0.11843422
0.19652733 0.04453283 0.07943321
0.26089967 0.09256033 0.04877421
0.32610800 0.20865109 0.04952432
0.39115233 0.36277646 0.04906467
0.34961157 0.45562467 0.04804978
0.22320599 0.52046100 0.04719973
0.04360243 0.58508533 0.06482263
0.03464045 0.64984167 0.34504533
0.01939647 0.69634750 0.71533000
0.00035300 0.31062546 0.78009433
0.18238391 0.00000000 0.84430267
0.77391798 0.00000000 0.90908300
0.97459533 0.00046200 0.50112671
0.04372243 0.00000000 0.13125467
0.11258109 0.04933526 0.13300100
0.10648067 0.10843081 0.13314733
0.12956079 0.10503625 0.19815767
0.19726635 0.10417656 0.26324800
0.30858859 0.10304675 0.32786633
0.39262867 0.10205199 0.31378527
0.45724700 0.09934615 0.21624386
0.52172933 0.14879641 0.09255685
0.58734767 0.40884539 0.08136832
0.52373181 0.65122200 0.06269763
0.15788312 0.71620833 0.04074506
0.01678786 0.78094667 0.36732452
0.00000000 0.76812609 0.84562900
0.00020200 0.27013815 0.91110333
0.26989304 0.00035100 0.97604967
0.19301320 0.00000000 0.19683900
0.19763933 0.05104435 0.16078944
0.19882367 0.10534129 0.16391979
0.19939200 0.10553488 0.17106878
0.26475233 0.10468266 0.19152238
0.32894467 0.10195051 0.14939690
0.39409700 0.16066110 0.09742141
0.45872133 0.35016693 0.08794348
0.40627783 0.52393767 0.07404631
0.12908358 0.58807400 0.05483911
0.03478906 0.65355433 0.33508683
0.01454203 0.63872230 0.71824267
0.00000000 0.21747547 0.78250700
0.24819029 0.00031000 0.84797933
0.74023174 0.00000000 0.91225967
0.97703600 0.00000000 0.71059522
0.26292333 0.00005400 0.11530930
0.26378167 0.05087083 0.08862901
0.26495600 0.11190676 0.10491243
0.26519833 0.14299365 0.10398079
0.26629267 0.18370576 0.10263742
0.33060700 0.30094767 0.09526002
0.27998657 0.39610933 0.08491758
0.09247137 0.46029567 0.06928290
0.05157325 0.52495800 0.30968566
0.03445400 0.50164076 0.59048033
0.01861042 0.17153981 0.65520667
0.23779717 0.00600322 0.71990500
0.65915393 0.00026600 0.78470333
0.84930567 0.00007100 0.59574825
0.91381600 0.00000000 0.27226370
0.97919433 0.05837286 0.00036500
0.32825167 0.06221216 0.00000000
0.32934800 0.19655879 0.04896131
0.33010433 0.30195567 0.10005621
0.27132616 0.33108067 0.09595096
0.16605109 0.33148500 0.08991840
0.08358827 0.33208533 0.12280163
0.06965825 0.39748167 0.29536998
0.05388485 0.35497304 0.46208200
0.03973702 0.11884639 0.52730233
0.24586832 0.02742511 0.59203867
0.58657856 0.01578592 0.65591500
0.72149933 0.00596530 0.47601788
0.78604767 0.00004500 0.20355945
0.85119200 0.08048475 0.00039200
0.91578033 0.38255341 0.00018300
0.98018867 0.71689845 0.00000000
0.39356000 0.39093333 0.00000000
0.23506187 0.39516233 0.03755567
0.10698633 0.39577267 0.08522019
0.07697252 0.39631900 0.21586949
0.06928480 0.39683333 0.38540888
0.06415197 0.23141206 0.39818767
0.06548131 0.06018244 0.39832600
0.26255643 0.04880911 0.46380833
0.52356227 0.03780103 0.52846667
0.59344500 0.02725851 0.35443978
0.65792733 0.01627174 0.14019951
0.72286567 0.11341714 0.00577861
0.78780400 0.36701605 0.00023600
0.85198233 0.65824336 0.00000000
0.83273956 0.91726467 0.00010200
0.54636156 0.98235500 0.00039500
0.00047500 0.46004033 0.01089018
0.01260730 0.46040067 0.27178186
0.06152844 0.40467822 0.46134500
0.05440498 0.17830012 0.46212933
0.14672785 0.05033518 0.46307367
0.35380732 0.04898867 0.46394600
0.46462633 0.04886784 0.38774731
0.46493867 0.04846628 0.22450862
0.52988300 0.03776375 0.07422184
0.59466733 0.16622633 0.02698673
0.65917167 0.36574538 0.01598956
0.72460400 0.60789578 0.00596391
0.67383898 0.78921233 0.00007900
0.43700454 0.85430067 0.00037000
0.10975296 0.91863700 0.00000000
0.00006400 0.98358933 0.32537886
0.00000000 0.41011086 0.52477267
0.00020700 0.10007805 0.52613500
0.22078167 0.03987825 0.52700533
0.47213340 0.03754880 0.52729567
0.52842200 0.03781084 0.35519958
0.52912033 0.03776875 0.15521938
0.52961467 0.09242553 0.03752266
0.53088100 0.24179628 0.03804857
0.53162333 0.37459308 0.03805048
0.59672167 0.56619831 0.02754695
0.51055914 0.66117600 0.01646738
0.32314319 0.72610633 0.00591322
0.04962419 0.79117667 0.00047800
0.00000000 0.85523500 0.32227397
0.00004400 0.92033733 0.80829143
0.00000000 0.55654245 0.98504367
0.25901266 0.00026900 0.59096500
0.58161300 0.00000000 0.59142133
0.59214567 0.02680423 0.32766519
0.59319400 0.02709150 0.09083138
0.59363033 0.16822118 0.02676678
0.59445467 0.34610318 0.02683006
0.59513100 0.50493970 0.02674534
0.53634914 0.59665133 0.02750462
0.38153701 0.59708767 0.02717990
0.21085374 0.59828800 0.02761918
0.01665720 0.66289233 0.03733251
0.00581853 0.72756467 0.33200440
0.00012100 0.79238500 0.74338206
0.00000000 0.44294320 0.85696133
0.06639161 0.00000000 0.92146167
0.67808983 0.00038200 0.98703800
0.65618533 0.00000000 0.30891707
0.65749967 0.00044100 0.01851087
0.65741400 0.23999168 0.01587283
0.65880033 0.44747738 0.01648160
0.65917067 0.63210531 0.01607438
0.51220914 0.66018900 0.01631515
0.33356261 0.66141533 0.01676392
0.13625183 0.66229767 0.01686870
0.01603747 0.66224400 0.12344909
0.01664625 0.66363033 0.38730621
0.01666742 0.63971723 0.66440867
0.00771744 0.32359416 0.72936300
0.11073941 0.00315806 0.79337333
0.63613064 0.00713499 0.85828767
0.92367400 0.01944093 0.60918475
0.98846833 0.03716139 0.09437495
0.72149767 0.29383254 0.00000000
0.72213800 0.54007380 0.00000000
0.68999909 0.72295433 0.00522172
0.49124980 0.72373067 0.00520699
0.28831744 0.72509900 0.00578426
0.06444784 0.72541933 0.00531353
0.00600280 0.72689967 0.20262178
0.00579607 0.72748400 0.49859183
0.00556467 0.61857738 0.72802833
0.00688429 0.24226138 0.72862867
0.18314183 0.01284557 0.72945300
0.60644907 0.02405419 0.73026133
0.79506967 0.03231502 0.47618002
0.86006200 0.04647409 0.04725999
0.92496633 0.53452889 0.06334062
0.94684852 0.98947067 0.07878986
0.70838382 0.78756600 0.00017400
0.47881216 0.78820833 0.00001900
0.24980901 0.78922267 0.00023600
0.00151383 0.78928900 0.00000000
0.00001800 0.79059933 0.28059280
0.00000000 0.79095367 0.60679655
0.00020000 0.60361530 0.79237600
0.00006100 0.18775249 0.79303433
0.26451466 0.00330687 0.79416067
0.73347062 0.01531876 0.79483500
0.79581733 0.03240720 0.40266446
0.79627567 0.11823214 0.05136469
0.79713000 0.52564326 0.07013659
0.77175150 0.86154033 0.08275358
0.46659862 0.92690667 0.09281534
0.15292279 0.99092500 0.09609648
0.22784215 0.85291033 0.00000000
0.00000000 0.85343867 0.04842628
0.00017100 0.85472300 0.35852649
0.00045400 0.85580333 0.71317238
