mpv/oil_slick_hf-full-090.cube
TITLE "Oil Slick - Intense 90°"
LUT_3D_SIZE 16
DOMAIN_MIN 0.0 0.0 0.0
DOMAIN_MAX 1.0 1.0 1.0
0.00000000 0.00000000 0.00000000
0.00000000 0.06439033 0.03928276
0.00000000 0.10031115 0.12928067
0.00000000 0.03971674 0.19417100
0.08090323 0.00000000 0.25906133
0.25016413 0.00000000 0.32395167
0.38884200 0.00005800 0.32040634
0.45373233 0.00015100 0.21135380
0.51862267 0.00024400 0.07072990
0.58351300 0.10866642 0.00033700
0.64840333 0.33829591 0.00043000
0.71229367 0.63454955 0.00000000
0.53654771 0.77718400 0.00000000
0.18047319 0.84207433 0.00000000
0.00000000 0.90696467 0.28925775
0.00000000 0.97185500 0.87735093
0.00027250 0.00016300 0.06572833
0.01126915 0.00000000 0.06605667
0.06478470 0.00000000 0.13107300
0.17394835 0.00000000 0.19556133
0.26083367 0.00007900 0.19250017
0.32597800 0.00042600 0.13005783
0.39066633 0.00031700 0.03199792
0.45468267 0.10465173 0.00000000
0.52033900 0.29082630 0.00039500
0.58486733 0.53866288 0.00012600
0.43365944 0.65001167 0.00047300
0.14007688 0.71384400 0.00000000
0.00023900 0.77937233 0.25877233
0.00041800 0.84434867 0.76951855
0.00000000 0.42950807 0.90857300
0.15533648 0.00000000 0.97327733
0.13095667 0.00000000 0.12092700
0.13221500 0.00028700 0.08730452
0.13261333 0.00000000 0.05987544
0.19724767 0.00000000 0.04399407
0.26264600 0.01089949 0.00032600
0.32732033 0.10549320 0.00020300
0.39162267 0.24627056 0.00000000
0.45716100 0.44642949 0.00044900
0.32467443 0.52116733 0.00000000
0.09514649 0.58604167 0.00000000
0.00035200 0.65145600 0.23342617
0.00000000 0.71564233 0.66633918
0.00013400 0.35760224 0.78083267
0.14503814 0.00020300 0.84569900
0.72483135 0.00000000 0.90986533
0.97525967 0.00016900 0.58801980
0.19718500 0.00048900 0.01348229
0.19738533 0.03213081 0.00000000
0.19838967 0.07183315 0.00009900
0.19882200 0.10922372 0.00000000
0.26410633 0.20685433 0.00022100
0.29962735 0.32853867 0.00000000
0.21190303 0.39311900 0.00000000
0.04488744 0.45798333 0.00000000
0.00018500 0.52325967 0.21334661
0.00040400 0.58827600 0.57042200
0.00000000 0.27889194 0.65242433
0.13982813 0.00000000 0.71705667
0.63873481 0.00000000 0.78208500
0.84679733 0.00000000 0.49564725
0.91152167 0.00000000 0.02625758
0.97623400 0.46211710 0.00000000
0.26241333 0.16184576 0.00015200
0.26310367 0.22050282 0.00004500
0.24537087 0.26393000 0.00007400
0.17654281 0.26487633 0.00022300
0.09467181 0.26572667 0.00027600
0.00000000 0.32997700 0.01018627
0.00000000 0.39499533 0.19897478
0.00000000 0.43982355 0.45950967
0.00015200 0.19468658 0.52479200
0.14177796 0.00000000 0.58930633
0.55854161 0.00000000 0.65414067
0.71907100 0.00003900 0.39832241
0.78374533 0.00000000 0.00096705
0.84814767 0.42298767 0.00000000
0.91382200 0.86104561 0.00039800
0.65348724 0.97796833 0.00000000
0.24316837 0.32764167 0.00000000
0.15174976 0.32909000 0.00046600
0.04344751 0.32949033 0.00006900
0.00032800 0.33054667 0.08401460
0.00022700 0.33124300 0.23088741
0.00023800 0.26826553 0.33205133
0.00000000 0.10305730 0.39633167
0.14995908 0.00000000 0.46127600
0.48441851 0.00000000 0.52600433
0.59145267 0.00045000 0.29525393
0.65598900 0.02999966 0.00018900
0.72018133 0.38870226 0.00000000
0.78495767 0.76845881 0.00000000
0.53952888 0.84996600 0.00000000
0.26667611 0.91541433 0.00042500
0.00000000 0.97967867 0.02682168
0.00047800 0.39387000 0.00532509
0.00020300 0.39439233 0.16127030
0.00028400 0.39527067 0.34125753
0.00000000 0.24887349 0.39542500
0.00000000 0.03285503 0.39627933
0.19174067 0.00000000 0.39724967
0.39814400 0.00000000 0.37901876
0.46285033 0.00000000 0.18502623
0.52771267 0.06618486 0.00000000
0.59228300 0.35941134 0.00000000
0.63349064 0.65757733 0.00021200
0.42208926 0.72226767 0.00010500
0.19360967 0.78673800 0.00000000
0.00029500 0.85205233 0.05731116
0.00000000 0.91646667 0.34425656
0.00000000 0.98117300 0.68809307
0.00014100 0.45909833 0.44827584
0.00000000 0.23346489 0.45931467
0.02058602 0.00000000 0.46007100
0.28707993 0.00042600 0.46177533
0.46189967 0.00000000 0.37109180
0.46289200 0.00000000 0.11580861
0.46343233 0.12148880 0.00000000
0.46412067 0.33518154 0.00000000
0.45996533 0.52924500 0.00000000
0.30016773 0.59410133 0.00000000
0.11789654 0.65900967 0.00007900
0.00017000 0.72389800 0.09065952
0.00000000 0.78849433 0.33557953
0.00000000 0.85310267 0.63450348
0.00013900 0.82754574 0.91825900
0.00000000 0.48604085 0.98252333
0.07167764 0.00000000 0.52432667
0.37811976 0.00022500 0.52554500
0.52570733 0.00000000 0.36678644
0.52657367 0.00000000 0.07152726
0.52736000 0.20303370 0.00000000
0.52817033 0.45124377 0.00000000
0.38896358 0.52925267 0.00000000
0.20113340 0.52963100 0.00000000
0.03792471 0.53095333 0.00005200
0.00016100 0.59585967 0.12775687
0.00000000 0.66045400 0.33041929
0.00040300 0.72569633 0.58534308
0.00040000 0.67115130 0.79049067
0.00000000 0.38584636 0.85446900
0.00492567 0.00000000 0.91951933
0.51532669 0.00039900 0.98488167
0.59055500 0.00046700 0.36689079
0.59067533 0.00000000 0.03094913
0.59213967 0.28231147 0.00045700
0.59209200 0.56427079 0.00000000
0.37340991 0.59372433 0.00044700
0.15878868 0.59452467 0.00045000
0.00000000 0.59458100 0.02910845
0.00000000 0.59554933 0.19982834
0.00000000 0.59618167 0.36524426
0.00000000 0.59713400 0.53905706
0.00009700 0.50987060 0.66215833
0.00000000 0.28128882 0.72680667
0.04631603 0.00004700 0.79170300
0.48467503 0.00000000 0.85631133
0.92081567 0.00000000 0.80323918
0.98572800 0.00000000 0.26780568
0.65578333 0.35747242 0.00013000
0.63752061 0.65604967 0.00000000
0.35985565 0.65768000 0.00043200
0.11726449 0.65793833 0.00000000
0.00000000 0.65848067 0.09416363
0.00011500 0.65975500 0.28699906
0.00015600 0.66059333 0.47332914
0.00000000 0.65426200 0.66086767
0.00000000 0.43972271 0.66198600
0.00026300 0.19288772 0.66309233
0.09288785 0.00000000 0.66360267
0.46097907 0.00039700 0.72882100
0.79316333 0.00000000 0.64904924
0.85779767 0.00000000 0.19487199
0.92305200 0.35537805 0.00023600
0.98759833 0.98352759 0.00000000
0.34809083 0.72101167 0.00000000
0.07848963 0.72191600 0.00000000
0.00000000 0.72259233 0.15741550
0.00000000 0.72351267 0.37179049
0.00000000 0.72409300 0.57855259
0.00000000 0.65560482 0.72482133
0.00037500 0.41904543 0.72637767
0.00017800 0.14651946 0.72697800
0.16766856 0.00000000 0.72738233
0.52508351 0.00000000 0.72832667
0.72955500 0.00036300 0.53804915
0.73037133 0.00038200 0.11586143
0.79455167 0.35138216 0.00000000
0.82152278 0.86004800 0.00046400
0.34552378 0.92484433 0.00046300
0.00000000 0.98886067 0.16731358
0.00045600 0.78724000 0.21927211
0.00000000 0.78714633 0.45462382
0.00000000 0.78828467 0.68262978
0.00007900 0.65937424 0.78925500
0.00006800 0.39978777 0.79004133
0.00032900 0.10280415 0.79109967
0.23991637 0.00000000 0.79135000
0.62945814 0.00000000 0.79224033
0.79305867 0.00000000 0.52531579
0.79357300 0.00000000 0.06415637
0.79499933 0.41272581 0.00024200
0.70239930 0.79532167 0.00000000
0.24667939 0.79678800 0.00043600
0.00038500 0.86153433 0.19460380
0.00025400 0.92620067 0.65834698
0.00011500 0.85131290 0.99085900
0.00011900 0.85246833 0.78493813
0.00033800 0.66479749 0.85348467
0.00026100 0.38307838 0.85420500
0.00000000 0.06048534 0.85430933
0.30938304 0.00000000 0.85514167
0.73116085 0.00004600 0.85638200
0.85690233 0.00000000 0.51607729
0.85757467 0.00000000 0.01658900
0.85883900 0.50056358 0.00011100
0.70168124 0.85951133 0.00000000
0.20575344 0.86079967 0.00047700
0.00046400 0.86158400 0.25702588
0.00000000 0.86150433 0.67261565
0.00000000 0.68547836 0.86251267
0.00000000 0.39266331 0.92732900
0.00026800 0.09239127 0.99257733
0.00000000 0.36767109 0.91769667
0.00000000 0.02130145 0.91842700
0.37652765 0.00000000 0.91912933
0.82963828 0.00000000 0.92010767
0.92064200 0.00000000 0.50979730
0.92141233 0.02691941 0.00000000
0.92305067 0.58543951 0.00035200
0.70370666 0.92312500 0.00000000
0.16752219 0.92429933 0.00000600
0.00000000 0.92488567 0.33216402
0.00039600 0.92628400 0.78416100
0.00000000 0.67150968 0.92653433
0.00000000 0.32604919 0.92736467
0.00032700 0.02205667 0.92860700
0.25696714 0.00000000 0.92874133
0.56872309 0.00007700 0.99395167
0.44203022 0.00044500 0.98392500
0.92599676 0.00017600 0.98445333
0.98480167 0.00000000 0.50692900
0.98593000 0.06864474 0.00005800
0.98659033 0.66637777 0.00000000
0.70973305 0.98748667 0.00002000
0.13317198 0.98853900 0.00027500
0.00000000 0.98900333 0.40517037
0.00000000 0.98966367 0.89160381
0.00000000 0.65989094 0.99046400
0.00000000 0.28684519 0.99139633
0.04139165 0.00000000 0.99179667
0.34281710 0.00011300 0.99316100
0.63607435 0.00000000 0.99368133
0.94416499 0.00000000 0.99463767
0.99526200 0.00000000 0.70435638
0.00029100 0.01171382 0.06459500
0.05505296 0.00000000 0.06487533
0.12976367 0.00000000 0.04574317
0.19488400 0.05187321 0.00018800
0.25902833 0.20578205 0.00000000
0.24231999 0.32416467 0.00000000
0.13594752 0.38906900 0.00000000
0.00000000 0.45377333 0.00226112
0.00024300 0.51892567 0.17474512
0.00013400 0.58361400 0.38901915
0.00000000 0.63695555 0.64820633
0.00043600 0.42276336 0.71351067
0.00019900 0.11638936 0.77807100
0.29610678 0.00000000 0.84253533
0.82342305 0.00000000 0.90707967
0.97180000 0.00000000 0.47698136
0.04071268 0.00000000 0.06537733
0.05299033 0.05326442 0.06632367
0.08319967 0.03915596 0.13137400
0.18317431 0.04024541 0.19606433
0.26111467 0.04712743 0.19609209
0.32586100 0.04951635 0.14618910
0.39022333 0.04840167 0.05707063
0.45580167 0.17017488 0.04849864
0.52046000 0.35214219 0.04766447
0.56989642 0.58554233 0.04583401
0.36470665 0.65003267 0.03873397
0.05017700 0.71436300 0.02462704
0.00419831 0.77957333 0.40360546
0.00000000 0.74874265 0.84408767
0.00000000 0.23615228 0.90861800
0.36462529 0.00000000 0.97338833
0.13171167 0.00027700 0.07120950
0.13272800 0.04715460 0.07264709
0.13339633 0.05173796 0.07701520
0.19780467 0.05139650 0.07512263
0.26272900 0.07105635 0.05066012
0.32735333 0.15703099 0.04970004
0.39210167 0.29280955 0.04890025
0.42412670 0.45715800 0.04742642
0.27812267 0.52133033 0.04141000
0.03474353 0.58706667 0.03122547
0.01301826 0.65115100 0.35655839
0.00000000 0.62279729 0.71612733
0.00000000 0.19275052 0.78067567
0.32595767 0.00036400 0.84616400
0.91075233 0.00015500 0.90637460
0.97524067 0.00000000 0.39765988
0.19703000 0.04146268 0.00003000
0.19813633 0.11405906 0.05174024
0.19816667 0.13218859 0.05120661
0.19891300 0.15087377 0.05136292
0.26398333 0.23925817 0.05064635
0.27307260 0.32871367 0.04908598
0.18761253 0.39415200 0.04560564
0.03682525 0.45888233 0.06121799
0.02188420 0.52295267 0.31603621
0.00349706 0.49041788 0.58854700
0.00000000 0.14211800 0.65272933
0.29333160 0.00023300 0.71800367
0.78300200 0.00043400 0.76395635
0.84703633 0.00000000 0.33070466
0.91177867 0.13402161 0.00000000
0.97655700 0.61423835 0.00000000
0.26263633 0.22042851 0.00007100
0.25000278 0.26325267 0.05058731
0.20667419 0.26446100 0.05114932
0.15361788 0.26455733 0.05014832
0.08909690 0.26606167 0.04908770
0.04257862 0.33083800 0.10176680
0.03173755 0.39583833 0.28358018
0.01543347 0.35093743 0.45991867
0.00000000 0.08326245 0.52484700
0.26856669 0.00020200 0.58994333
0.65484767 0.00030900 0.61395790
0.71982400 0.00048800 0.25822818
0.78417633 0.13796879 0.00004300
0.84938467 0.55663432 0.00045400
0.84321335 0.91417700 0.00044900
0.53819526 0.97838533 0.00000000
0.17326398 0.32784267 0.00000000
0.11396731 0.32895700 0.04948134
0.04676470 0.32933533 0.07465816
0.04244078 0.33045767 0.18249625
0.03592909 0.33137200 0.31088849
0.02853509 0.20399210 0.33245433
0.01280413 0.02568260 0.39693667
0.25308497 0.00000000 0.46158700
0.52646133 0.00000000 0.45528057
0.59162367 0.00031700 0.17731984
0.65643400 0.14828150 0.00033000
0.72040433 0.50286123 0.00000000
0.69454543 0.78565467 0.00000000
0.43823921 0.85013700 0.00000000
0.16793741 0.91515533 0.00000000
0.00027500 0.98036567 0.12841832
0.00033700 0.39403300 0.09819763
0.03991911 0.39436133 0.27643792
0.03217563 0.34841342 0.39554967
0.02279585 0.15722145 0.39643800
0.08385344 0.01354896 0.39733033
0.29502959 0.00530320 0.39765867
0.39881500 0.00048711 0.28566415
0.46370333 0.00042600 0.08711067
0.52759567 0.16548246 0.00000000
0.59263600 0.45700785 0.00000000
0.54090340 0.65784033 0.00017100
0.33380551 0.72231267 0.00000000
0.10760831 0.78700500 0.00000000
0.00000000 0.85204533 0.14596702
0.00000000 0.91638567 0.44301003
0.00000000 0.98156200 0.80581500
0.00039400 0.34668770 0.45965533
0.01690454 0.11536026 0.46003367
0.15726758 0.00561151 0.46068800
0.41667416 0.00037300 0.46202633
0.46230467 0.00000000 0.24889959
0.46333900 0.00009100 0.00392612
0.46419333 0.22102971 0.00014800
0.46509967 0.42054742 0.00025700
0.37926146 0.52938600 0.00000000
0.22292658 0.59414033 0.00000000
0.04251449 0.65934667 0.00011200
0.00024500 0.72427700 0.16884801
0.00001400 0.78884333 0.42265809
0.00030700 0.85393367 0.73840862
0.00010800 0.70087481 0.91853200
0.00031300 0.32987560 0.98353433
0.22409101 0.00016300 0.52498967
0.52536600 0.00000000 0.51919038
0.52661433 0.00019300 0.22040377
0.52692667 0.06448855 0.00000000
0.52754300 0.32614839 0.00000000
0.49772698 0.52862333 0.00000000
0.29700792 0.52993567 0.00032500
0.12264145 0.53015200 0.00000000
0.00017100 0.53137633 0.03035960
0.00007800 0.59608067 0.19739792
0.00000000 0.66046500 0.40704741
0.00044400 0.72604133 0.67617479
0.00001500 0.55979722 0.79040967
0.00007400 0.24853763 0.85526600
0.17376105 0.00000000 0.91997033
0.71560505 0.00000000 0.98473867
0.59003600 0.00000000 0.20002774
0.59108633 0.12751455 0.00000000
0.59148867 0.42609966 0.00000000
0.49191708 0.59254700 0.00000000
0.26122685 0.59386133 0.00028000
0.06074247 0.59435967 0.00000000
0.00001000 0.59518600 0.11584247
0.00000000 0.59581233 0.27951602
0.00036400 0.59713467 0.44388411
0.00019300 0.57508950 0.59776100
0.00000000 0.41185985 0.66203533
0.00033100 0.16106480 0.72749367
0.19418950 0.00008800 0.79204800
0.66165654 0.00012500 0.85688233
0.92181267 0.00025800 0.60037301
0.98669500 0.00034300 0.04204549
0.65637033 0.51937604 0.00041300
0.49048423 0.65627467 0.00000000
0.22962197 0.65751100 0.00000000
0.00304659 0.65839933 0.00005000
0.00000000 0.65880367 0.19677060
0.00000000 0.65969200 0.38232049
0.00000000 0.66073633 0.56745228
0.00000000 0.55653923 0.66105667
0.00000000 0.33349257 0.66202900
0.00036800 0.07576068 0.66350133
0.22259311 0.00022300 0.66415367
0.61557102 0.00031400 0.72904200
0.79315033 0.00000000 0.46993636
0.85809467 0.00476161 0.00000000
0.92327500 0.57061183 0.00015500
0.77006545 0.98838733 0.00047000
0.20474307 0.72153667 0.00001400
0.00036300 0.72268300 0.05153575
0.00030000 0.72341733 0.27515952
0.00000000 0.72350767 0.48149188
0.00019400 0.72490600 0.68788037
0.00000000 0.54278967 0.72520433
0.00000000 0.29595379 0.72607467
0.00000000 0.01098043 0.72706900
0.31678508 0.00000000 0.72749933
0.68772468 0.00043500 0.72913367
0.72902000 0.00000000 0.36611327
0.73005433 0.06000313 0.00000000
0.79461267 0.54129466 0.00000000
0.62357439 0.85981500 0.00000000
0.14723090 0.92474133 0.00005600
0.01707754 0.98899167 0.36978049
0.00000000 0.78687100 0.34699208
0.00013000 0.78801533 0.57834630
0.00000000 0.77216604 0.78828767
0.00000000 0.53246725 0.78946400
0.00037900 0.26255518 0.79065633
0.04982594 0.00041400 0.79148867
0.40748092 0.00000000 0.79166500
0.79236933 0.00000000 0.77339161
0.79352167 0.00005500 0.33298783
0.79458600 0.13397469 0.00032200
0.79513833 0.61004034 0.00007700
0.51292003 0.79566667 0.00000000
0.07620689 0.79693900 0.00678555
0.02159212 0.86102733 0.37819032
0.03446912 0.92608367 0.82438144
0.04112637 0.71246796 0.99055600
0.00042400 0.78870677 0.85307733
0.00000000 0.52467863 0.85336767
0.00000000 0.23087417 0.85380200
0.10602671 0.00000000 0.85470833
0.49463680 0.00026800 0.85611067
0.85616900 0.00000000 0.78095243
0.85781933 0.00038200 0.30408129
0.85774167 0.20195406 0.00000000
0.85856800 0.71924754 0.00000000
0.48999937 0.85947433 0.00000000
0.00933837 0.86077267 0.00166973
0.02105022 0.86109500 0.44585198
0.03541504 0.86191333 0.83203615
0.04360330 0.56518122 0.86334767
0.04482505 0.29731038 0.92825400
0.07293874 0.04386199 0.99280033
0.00020900 0.20552900 0.91842767
0.16044882 0.00027600 0.91929200
0.57713291 0.00000000 0.91936833
0.92040067 0.00000000 0.79273155
0.92165300 0.00024500 0.27876035
0.92190933 0.26671321 0.00000000
0.92306567 0.82520667 0.00006300
0.47167966 0.92358600 0.00000000
0.00010500 0.92470233 0.05054802
0.01833185 0.92569467 0.53886206
0.03335094 0.89315274 0.92577900
0.04208391 0.53662128 0.92689933
0.04468609 0.22731914 0.92809567
0.13814927 0.04406338 0.92820800
0.39794718 0.04460454 0.92950833
0.70452472 0.04329786 0.99373267
0.65580048 0.00010600 0.98389000
0.98470033 0.00011900 0.80810287
0.98538667 0.00000800 0.25711955
0.98640500 0.32784382 0.00022900
0.98727533 0.92684320 0.00030200
0.45794129 0.98826967 0.00049900
0.00000000 0.98826800 0.10437804
0.01462451 0.98939833 0.62788087
0.03149363 0.89754942 0.98990867
0.04078436 0.51081635 0.99068700
0.04319941 0.17472224 0.99135733
0.21186697 0.04318941 0.99207167
0.49348009 0.04408949 0.99373400
0.77459754 0.04355357 0.99396033
0.99543867 0.04426965 0.91255035
0.99585700 0.04392574 0.57179203
0.00824808 0.00008200 0.12869000
0.11410388 0.00003900 0.12944433
0.13025067 0.00004800 0.04387682
0.19485300 0.06384468 0.00000000
0.26002733 0.22583797 0.00023000
0.21958833 0.32500567 0.00041100
0.10919797 0.38926800 0.00000000
0.00019300 0.45438233 0.03334591
0.00000000 0.51855667 0.21178637
0.00000000 0.58331100 0.43762508
0.00024800 0.57151059 0.64882933
0.00000000 0.33356216 0.71332767
0.00075540 0.00046200 0.77863800
0.44377133 0.00047500 0.84344833
0.90804667 0.00027600 0.81438476
0.97237700 0.00000000 0.27285346
0.13017033 0.00000000 0.12459937
0.13084267 0.03360024 0.05535519
0.13201500 0.10092804 0.04267953
0.15543047 0.19652733 0.04453283
0.11105081 0.26089967 0.04877421
0.04952432 0.32610800 0.07035925
0.04906467 0.39115233 0.19173263
0.04804978 0.45562467 0.35785032
0.04719973 0.45983663 0.52046100
0.04360243 0.29312368 0.58508533
0.03744472 0.03464045 0.64984167
0.38634574 0.01939647 0.71533000
0.78009433 0.00035300 0.70049612
0.84430267 0.00000000 0.23941342
0.90908300 0.31924998 0.00000000
0.97459533 0.96099729 0.00046200
0.13125467 0.00000000 0.02117890
0.13300100 0.07074822 0.04933526
0.13314733 0.10648067 0.12176414
0.19815767 0.10503625 0.12707242
0.26324800 0.11773063 0.10417656
0.32786633 0.19617881 0.10304675
0.39262867 0.32618372 0.10205199
0.39519429 0.45724700 0.09934615
0.25090354 0.52172933 0.09255685
0.08136832 0.58734767 0.15585572
0.06269763 0.65122200 0.48445001
0.04074506 0.49561476 0.71620833
0.01678786 0.04833061 0.78094667
0.50007991 0.00000000 0.84562900
0.91110333 0.00020200 0.72558882
0.97604967 0.00035100 0.21865830
0.19683900 0.09436120 0.00000000
0.19763933 0.16119173 0.05104435
0.19882367 0.18698636 0.10534129
0.19939200 0.18078666 0.10553488
0.26475233 0.25794745 0.10468266
0.26289398 0.32894467 0.10195051
0.18251952 0.39409700 0.09742141
0.08794348 0.45872133 0.16477800
0.07404631 0.52393767 0.41665183
0.05483911 0.39570102 0.58807400
0.03478906 0.04387393 0.65355433
0.44591271 0.01454203 0.71824267
0.78250700 0.00000000 0.60891147
0.84797933 0.00031000 0.17626438
0.91225967 0.28399841 0.00000000
0.97703600 0.75484478 0.00000000
0.24674396 0.26292333 0.00005400
0.19508443 0.26378167 0.05087083
0.17793989 0.26495600 0.10491243
0.14557671 0.26519833 0.10398079
0.10339670 0.26629267 0.10263742
0.09526002 0.33060700 0.18327418
0.08491758 0.39610933 0.35663622
0.06928290 0.28797776 0.46029567
0.07299329 0.05157325 0.52495800
0.40130674 0.03445400 0.59048033
0.65520667 0.01861042 0.48983793
0.71990500 0.00600322 0.13116017
0.78470333 0.26693526 0.00026600
0.84930567 0.67824575 0.00007100
0.72927970 0.91381600 0.00000000
0.43177181 0.97919433 0.00036500
0.10163917 0.32825167 0.00000000
0.04896131 0.32934800 0.05636544
0.10005621 0.33010433 0.18693161
0.09595096 0.33108067 0.27327032
0.08991840 0.28683439 0.33148500
0.08358827 0.16862343 0.33208533
0.13145827 0.06965825 0.39748167
0.36509238 0.05388485 0.46208200
0.52730233 0.03973702 0.36262904
0.59203867 0.02742511 0.09128867
0.65591500 0.26651402 0.01578592
0.72149933 0.60921377 0.00596530
0.59656078 0.78604767 0.00004500
0.34569925 0.85119200 0.00039200
0.07561126 0.91578033 0.00018300
0.00000000 0.98018867 0.22670112
0.00000000 0.39356000 0.19393333
0.03755567 0.39516233 0.37645947
0.08522019 0.26226257 0.39577267
0.07697252 0.09774878 0.39631900
0.22163461 0.06928480 0.39683333
0.39794543 0.06415197 0.39818767
0.39832600 0.06018244 0.22395535
0.46380833 0.05505682 0.04880911
0.52846667 0.27822945 0.03780103
0.59344500 0.54935697 0.02725851
0.46102730 0.65792733 0.01627174
0.25668360 0.72286567 0.00577861
0.02723995 0.78780400 0.00023600
0.00000000 0.85198233 0.23206069
0.00010200 0.91726467 0.54320844
0.00039500 0.98235500 0.92736844
0.00047500 0.21984249 0.46004033
0.04788518 0.01260730 0.46040067
0.31810350 0.06152844 0.46134500
0.46212933 0.05440498 0.38216229
0.46307367 0.05033518 0.16031176
0.46394600 0.14632866 0.04898867
0.46462633 0.33362611 0.04886784
0.43274482 0.46493867 0.04846628
0.32028147 0.52988300 0.03776375
0.17158743 0.59466733 0.02698673
0.01598956 0.65917167 0.04415432
0.00596391 0.72460400 0.24857574
0.00007900 0.78921233 0.51001902
0.00037000 0.85430067 0.84463146
0.00000000 0.56911696 0.91863700
0.00006400 0.16651180 0.98358933
0.37686914 0.00000000 0.52477267
0.52613500 0.00020700 0.36304205
0.52700533 0.03987825 0.10253836
0.52729567 0.22725997 0.03754880
0.52842200 0.45633884 0.03781084
0.40089517 0.52912033 0.03776875
0.22866579 0.52961467 0.03752266
0.08071707 0.53088100 0.03804857
0.03805048 0.53162333 0.12780665
0.02754695 0.59672167 0.28161096
0.01646738 0.66117600 0.48943855
0.00591322 0.68323975 0.72610633
0.00047800 0.44497352 0.79117667
0.00000000 0.10495203 0.85523500
0.34814476 0.00004400 0.92033733
0.92099955 0.00000000 0.98504367
0.59096500 0.00026900 0.03687334
0.59142133 0.28586634 0.00000000
0.59214567 0.57395542 0.02680423
0.37388262 0.59319400 0.02709150
0.16874416 0.59363033 0.02676678
0.02683006 0.59445467 0.06229088
0.02674534 0.59513100 0.22074687
0.02750462 0.59665133 0.37238017
0.02717990 0.59708767 0.52768444
0.02761918 0.49618815 0.59828800
0.01665720 0.31909945 0.66289233
0.00581853 0.04050574 0.72756467
0.34725006 0.00012100 0.79238500
0.84244880 0.00000000 0.85696133
0.92146167 0.00000000 0.39374372
0.98703800 0.18476183 0.00038200
0.63704774 0.65618533 0.00000000
0.34704020 0.65749967 0.00044100
0.11252456 0.65741400 0.01587283
0.01648160 0.65880033 0.12631802
0.01607438 0.65917067 0.31055717
0.01631515 0.66018900 0.48623194
0.01676392 0.65588832 0.66141533
0.01686870 0.45896631 0.66229767
0.01603747 0.23172912 0.66224400
0.06381416 0.01664625 0.66363033
0.36522948 0.01666742 0.66440867
0.72936300 0.00771744 0.68441694
0.79337333 0.00315806 0.29068434
0.85828767 0.21055430 0.00713499
0.92367400 0.78604671 0.01944093
0.57002843 0.98846833 0.03716139
0.06642279 0.72149767 0.00000000
0.00000000 0.72213800 0.17876180
0.00522172 0.72295433 0.39704327
0.00520699 0.72373067 0.59694970
0.00578426 0.64797481 0.72509900
0.00531353 0.42450074 0.72541933
0.00600280 0.16983226 0.72689967
0.13774786 0.00579607 0.72748400
0.47624745 0.00556467 0.72802833
0.72862867 0.00688429 0.60313357
0.72945300 0.01284557 0.20085302
0.73026133 0.25334550 0.02405419
0.79506967 0.73258199 0.03231502
0.45405394 0.86006200 0.04647409
0.06334062 0.92496633 0.10371603
0.07878986 0.98947067 0.57675241
0.00017400 0.78756600 0.47305218
0.00001900 0.78820833 0.70350984
0.00023600 0.64430235 0.78922267
0.00000000 0.39640583 0.78928900
0.00001800 0.11473386 0.79059933
0.21110722 0.00000000 0.79095367
0.58504870 0.00020000 0.79237600
0.79303433 0.00006100 0.58423916
0.79416067 0.00330687 0.13752598
0.79483500 0.34371250 0.01531876
0.78436952 0.79581733 0.03240720
0.35695273 0.79627567 0.05136469
0.07013659 0.79713000 0.16214656
0.08275358 0.86154033 0.56193579
0.09281534 0.88364429 0.92690667
0.09609648 0.60033705 0.99092500
0.00000000 0.65432082 0.85291033
0.00000000 0.37781906 0.85343867
0.00017100 0.06909151 0.85472300
0.28549771 0.00045400 0.85580333
