mpv/oil_slick_h.cube
TITLE "Oil Slick Iridescent Effect"
LUT_3D_SIZE 16
DOMAIN_MIN 0.0 0.0 0.0
DOMAIN_MAX 1.0 1.0 1.0
0.000000 0.000000 0.000000
0.059657 0.043761 0.029828
0.119313 0.115034 0.059657
0.145162 0.178970 0.089485
0.141930 0.238627 0.119313
0.149142 0.298283 0.182169
0.000000 0.357940 0.217232
0.000000 0.417597 0.402451
0.000000 0.338884 0.477253
0.000000 0.223072 0.536910
0.000000 0.090868 0.596567
0.052927 0.000000 0.656223
0.204575 0.000000 0.715880
0.361653 0.000000 0.775537
0.523248 0.000000 0.835193
0.690081 0.000000 0.894850
0.046544 0.062537 0.031268
0.043852 0.065527 0.032763
0.066042 0.125183 0.062592
0.092420 0.184840 0.120771
0.000000 0.244497 0.163374
0.000000 0.300766 0.304153
0.000000 0.244304 0.363810
0.000000 0.162142 0.423467
0.000000 0.059885 0.483123
0.057495 0.000000 0.542780
0.185960 0.000000 0.602437
0.322668 0.000000 0.662093
0.466188 0.000000 0.721750
0.616637 0.000000 0.781407
0.775763 0.000000 0.841063
0.900720 0.000000 0.854514
0.062537 0.125073 0.086256
0.064032 0.128063 0.105142
0.000000 0.131053 0.115258
0.000000 0.164296 0.190710
0.000000 0.145964 0.250367
0.000000 0.097989 0.310023
0.000000 0.026111 0.369680
0.064491 0.000000 0.429337
0.169465 0.000000 0.488993
0.285549 0.000000 0.548650
0.410793 0.000000 0.608307
0.544713 0.000000 0.667963
0.688390 0.000000 0.727620
0.787277 0.000000 0.730067
0.846933 0.000000 0.676688
0.906590 0.000000 0.601158
0.000000 0.156521 0.187610
0.000000 0.109438 0.190600
0.000000 0.066697 0.193590
0.000000 0.028785 0.196580
0.011569 0.000000 0.256237
0.074664 0.000000 0.315893
0.155629 0.000000 0.375550
0.250702 0.000000 0.435207
0.357379 0.000000 0.494863
0.474558 0.000000 0.554520
0.602650 0.000000 0.614177
0.673833 0.000000 0.604059
0.733490 0.000000 0.566091
0.793147 0.000000 0.506951
0.852803 0.000000 0.420590
0.912460 0.000000 0.300012
0.000000 0.039048 0.250147
0.017255 0.000000 0.253137
0.066822 0.000000 0.256127
0.109654 0.000000 0.259117
0.146050 0.000000 0.262107
0.219167 0.000000 0.321763
0.306671 0.000000 0.381420
0.406706 0.000000 0.441077
0.500733 0.000000 0.482520
0.560390 0.000000 0.476174
0.620047 0.000000 0.453689
0.679703 0.000000 0.410938
0.739360 0.000000 0.342551
0.799017 0.000000 0.242152
0.858673 0.000000 0.102642
0.918330 0.083463 0.000000
0.125571 0.000000 0.312683
0.183082 0.000000 0.315673
0.232621 0.000000 0.318663
0.274942 0.000000 0.321653
0.311123 0.000000 0.324643
0.327633 0.000000 0.312732
0.387290 0.000000 0.336358
0.446947 0.000000 0.345734
0.506603 0.000000 0.338976
0.566260 0.000000 0.312729
0.625917 0.000000 0.262335
0.685573 0.000000 0.182055
0.745230 0.000000 0.065345
0.804887 0.094833 0.000000
0.864543 0.305651 0.000000
0.924200 0.574055 0.000000
0.316210 0.000000 0.375220
0.370034 0.000000 0.378210
0.381200 0.000000 0.345879
0.384190 0.000000 0.311079
0.387180 0.000000 0.280073
0.390170 0.000000 0.250728
0.393160 0.000000 0.220768
0.452817 0.000000 0.211484
0.512473 0.000000 0.179319
0.572130 0.000000 0.119249
0.631787 0.000000 0.025324
0.691443 0.109015 0.000000
0.751100 0.290590 0.000000
0.810757 0.526126 0.000000
0.870413 0.821885 0.000000
0.676830 0.930070 0.000000
0.437757 0.000000 0.355923
0.440747 0.000000 0.311941
0.443737 0.000000 0.272437
0.446727 0.000000 0.234962
0.449717 0.000000 0.196908
0.452707 0.000000 0.155595
0.455697 0.000000 0.108373
0.458687 0.000000 0.052711
0.518343 0.018169 0.000000
0.578000 0.126576 0.000000
0.637657 0.278921 0.000000
0.697313 0.481674 0.000000
0.756970 0.740987 0.000000
0.570911 0.816627 0.000000
0.302348 0.876283 0.000000
0.000000 0.935940 0.035922
0.500293 0.000000 0.266724
0.503283 0.000000 0.221280
0.506273 0.000000 0.175327
0.509263 0.000000 0.125853
0.512253 0.000000 0.069881
0.515243 0.000000 0.004572
0.518233 0.072668 0.000000
0.521223 0.164093 0.000000
0.524213 0.271536 0.000000
0.583870 0.441367 0.000000
0.622844 0.643527 0.000000
0.460833 0.703183 0.000000
0.235714 0.762840 0.000000
0.000000 0.822497 0.055984
0.000000 0.882153 0.416324
0.000000 0.941810 0.845781
0.562830 0.000000 0.155448
0.565820 0.000000 0.097978
0.568810 0.000000 0.033449
0.571800 0.041284 0.000000
0.574790 0.129095 0.000000
0.577780 0.232478 0.000000
0.580770 0.353457 0.000000
0.583760 0.493509 0.000000
0.519996 0.586750 0.000000
0.345812 0.589740 0.000000
0.164244 0.649397 0.000000
0.000000 0.709053 0.080838
0.000000 0.768710 0.391872
0.000000 0.828367 0.769822
0.000000 0.562009 0.888023
0.000000 0.173168 0.947680
0.625367 0.001354 0.000000
0.628357 0.085332 0.000000
0.631347 0.183512 0.000000
0.634337 0.298630 0.000000
0.637327 0.432907 0.000000
0.640317 0.587962 0.000000
0.521867 0.643307 0.000000
0.329084 0.646297 0.000000
0.114795 0.649287 0.000000
0.000000 0.652277 0.119817
0.000000 0.655267 0.372894
0.000000 0.714923 0.699179
0.000000 0.459019 0.774580
0.000000 0.124394 0.834237
0.269908 0.000000 0.893893
0.719060 0.000000 0.953550
0.687903 0.236254 0.000000
0.690893 0.362917 0.000000
0.693883 0.510286 0.000000
0.696873 0.680125 0.000000
0.526252 0.699863 0.000000
0.315097 0.702853 0.000000
0.080668 0.705843 0.000000
0.000000 0.708833 0.175756
0.000000 0.711823 0.452160
0.000000 0.683765 0.714813
0.000000 0.382006 0.717803
0.000000 0.069935 0.720793
0.269601 0.000000 0.780450
0.664409 0.000000 0.840107
0.899763 0.000000 0.690558
0.959420 0.000000 0.322243
0.750440 0.585860 0.000000
0.736572 0.753430 0.000000
0.532838 0.756420 0.000000
0.303514 0.759410 0.000000
0.049142 0.762400 0.000000
0.000000 0.765390 0.228901
0.000000 0.768380 0.528450
0.000000 0.696122 0.771370
0.000000 0.368828 0.774360
0.000000 0.030443 0.777350
0.314653 0.000000 0.780340
0.661864 0.000000 0.783330
0.786320 0.000000 0.566096
0.845977 0.000000 0.249668
0.905633 0.104593 0.000000
0.965290 0.489048 0.000000
0.541404 0.812977 0.000000
0.294097 0.815967 0.000000
0.019967 0.818957 0.000000
0.000000 0.821947 0.279522
0.000000 0.824937 0.602054
0.000000 0.711314 0.827927
0.000000 0.358614 0.830917
0.005978 0.000000 0.833907
0.377767 0.000000 0.836897
0.751829 0.000000 0.839887
0.842877 0.000000 0.562574
0.845867 0.000000 0.204777
0.848857 0.140874 0.000000
0.851847 0.470263 0.000000
0.911503 0.833080 0.000000
0.728437 0.971160 0.000000
0.000000 0.875513 0.007040
0.000000 0.878503 0.327812
0.000000 0.881493 0.673176
0.000000 0.729121 0.884483
0.000000 0.351131 0.887473
0.039573 0.000000 0.890463
0.437984 0.000000 0.893453
0.838846 0.000000 0.896443
0.899433 0.000000 0.562025
0.902423 0.000000 0.178069
0.905413 0.192941 0.000000
0.908403 0.546605 0.000000
0.911393 0.879167 0.000000
0.641118 0.914383 0.000000
0.364781 0.917373 0.000000
0.121456 0.977030 0.000000
0.000000 0.938050 0.741971
0.000000 0.749381 0.941040
0.000000 0.346208 0.944030
0.070523 0.000000 0.947020
0.495492 0.000000 0.950010
0.923117 0.000000 0.953000
0.955990 0.000000 0.564238
0.958980 0.000000 0.154119
0.961970 0.242277 0.000000
0.964960 0.620260 0.000000
0.960074 0.967950 0.000000
0.636087 0.970940 0.000000
0.339934 0.973930 0.000000
0.072821 0.976920 0.000000
0.000000 0.979910 0.165125
0.000000 0.982900 0.374863
0.046869 0.057807 0.028903
0.030398 0.060797 0.034774
0.060227 0.120453 0.105477
0.090055 0.158044 0.180110
0.119883 0.156456 0.239767
0.033419 0.000000 0.299423
0.178267 0.000000 0.359080
0.355480 0.000000 0.418737
0.478393 0.000000 0.397787
0.538050 0.000000 0.293134
0.597707 0.000000 0.173357
0.657363 0.000000 0.042918
0.717020 0.094860 0.000000
0.776677 0.238030 0.000000
0.836333 0.386196 0.000000
0.895990 0.540612 0.000000
0.032325 0.063677 0.031838
0.066667 0.066667 0.066667
0.096174 0.126323 0.094742
0.000000 0.185980 0.066449
0.000000 0.245637 0.180094
0.000000 0.280982 0.305293
0.000000 0.220796 0.364950
0.000000 0.136431 0.424607
0.000000 0.033294 0.484263
0.083932 0.000000 0.543920
0.211581 0.000000 0.603577
0.347250 0.000000 0.663233
0.489990 0.000000 0.722890
0.640426 0.000000 0.782547
0.800806 0.000000 0.842203
0.901860 0.000000 0.828756
0.063107 0.126213 0.106613
0.000000 0.129203 0.121830
0.000000 0.129569 0.132193
0.000000 0.150136 0.191850
0.000000 0.129789 0.251507
0.000000 0.079717 0.311163
0.000000 0.006492 0.370820
0.084631 0.000000 0.430477
0.189495 0.000000 0.490133
0.305171 0.000000 0.549790
0.430120 0.000000 0.609447
0.564318 0.000000 0.669103
0.709318 0.000000 0.728760
0.788417 0.000000 0.708598
0.848073 0.000000 0.650488
0.907730 0.000000 0.567974
0.000000 0.112025 0.188750
0.000000 0.066115 0.191740
0.000000 0.034492 0.194730
0.000000 0.008129 0.197720
0.029263 0.000000 0.257377
0.091575 0.000000 0.317033
0.172127 0.000000 0.376690
0.266843 0.000000 0.436347
0.373350 0.000000 0.496003
0.490865 0.000000 0.555660
0.615317 0.000000 0.610446
0.674973 0.000000 0.586265
0.734630 0.000000 0.544065
0.794287 0.000000 0.478658
0.853943 0.000000 0.383732
0.913600 0.000000 0.252125
0.009233 0.000000 0.251287
0.063296 0.000000 0.254277
0.104157 0.000000 0.257267
0.138213 0.000000 0.260257
0.165872 0.000000 0.263247
0.235875 0.000000 0.322903
0.321949 0.000000 0.382560
0.421599 0.000000 0.442217
0.501873 0.000000 0.469243
0.561530 0.000000 0.460952
0.621187 0.000000 0.434941
0.680843 0.000000 0.386784
0.740500 0.000000 0.310861
0.800157 0.000000 0.200620
0.859813 0.000000 0.048890
0.919470 0.151776 0.000000
0.174481 0.000000 0.313823
0.229133 0.000000 0.316813
0.271264 0.000000 0.319803
0.306461 0.000000 0.322793
0.325783 0.000000 0.315649
0.328773 0.000000 0.296439
0.388430 0.000000 0.321761
0.448087 0.000000 0.330774
0.507743 0.000000 0.321794
0.567400 0.000000 0.291385
0.627057 0.000000 0.234742
0.686713 0.000000 0.145991
0.746370 0.000000 0.018517
0.806027 0.154694 0.000000
0.865683 0.380688 0.000000
0.925340 0.666170 0.000000
0.363680 0.000000 0.376360
0.379350 0.000000 0.343959
0.382340 0.000000 0.309454
0.385330 0.000000 0.280016
0.388320 0.000000 0.253641
0.391310 0.000000 0.228132
0.394300 0.000000 0.201177
0.453957 0.000000 0.190197
0.513613 0.000000 0.153801
0.573270 0.000000 0.087096
0.632927 0.015820 0.000000
0.692583 0.161441 0.000000
0.752240 0.356458 0.000000
0.811897 0.607375 0.000000
0.822972 0.871553 0.000000
0.562648 0.931210 0.000000
0.438897 0.000000 0.312497
0.441887 0.000000 0.270321
0.444877 0.000000 0.234891
0.447867 0.000000 0.200552
0.450857 0.000000 0.164658
0.453847 0.000000 0.124529
0.456837 0.000000 0.077550
0.459827 0.000000 0.021259
0.519483 0.055967 0.000000
0.579140 0.173348 0.000000
0.638797 0.337025 0.000000
0.698453 0.553193 0.000000
0.688542 0.758110 0.000000
0.469971 0.817767 0.000000
0.183991 0.877423 0.000000
0.000000 0.937080 0.172052
0.501433 0.000000 0.223295
0.504423 0.000000 0.177855
0.507413 0.000000 0.133479
0.510403 0.000000 0.084468
0.513393 0.000000 0.027887
0.516383 0.039022 0.000000
0.519373 0.118734 0.000000
0.522363 0.213352 0.000000
0.525353 0.324527 0.000000
0.585010 0.505156 0.000000
0.548434 0.644667 0.000000
0.371888 0.704323 0.000000
0.131092 0.763980 0.000000
0.000000 0.823637 0.176891
0.000000 0.883293 0.553563
0.000000 0.887088 0.942950
0.563970 0.000000 0.108194
0.566960 0.000000 0.048279
0.569950 0.017545 0.000000
0.572940 0.094681 0.000000
0.575930 0.185872 0.000000
0.578920 0.293441 0.000000
0.581910 0.419213 0.000000
0.584900 0.564439 0.000000
0.446034 0.587890 0.000000
0.266648 0.590880 0.000000
0.071651 0.650537 0.000000
0.000000 0.710193 0.187870
0.000000 0.769850 0.513749
0.000000 0.752668 0.829507
0.000000 0.413909 0.889163
0.000000 0.012560 0.948820
0.626507 0.057851 0.000000
0.629497 0.147017 0.000000
0.632487 0.249373 0.000000
0.635477 0.369561 0.000000
0.638467 0.509580 0.000000
0.612113 0.641457 0.000000
0.434983 0.644447 0.000000
0.235990 0.647437 0.000000
0.015879 0.650427 0.000000
0.000000 0.653417 0.223903
0.000000 0.656407 0.481257
0.000000 0.611490 0.716063
0.000000 0.327096 0.775720
0.019324 0.000000 0.835377
0.423926 0.000000 0.895033
0.881416 0.000000 0.954690
0.689043 0.308202 0.000000
0.692033 0.442621 0.000000
0.695023 0.596604 0.000000
0.622501 0.698013 0.000000
0.427868 0.701003 0.000000
0.209568 0.703993 0.000000
0.000000 0.706983 0.031591
0.000000 0.709973 0.294044
0.000000 0.712963 0.575512
0.000000 0.558826 0.715953
0.000000 0.254587 0.718943
0.058429 0.000000 0.721933
0.407591 0.000000 0.781590
0.810485 0.000000 0.841247
0.900903 0.000000 0.540647
0.960560 0.000000 0.168502
0.751580 0.679202 0.000000
0.635855 0.754570 0.000000
0.423972 0.757560 0.000000
0.186621 0.760550 0.000000
0.000000 0.763540 0.075337
0.000000 0.766530 0.360217
0.000000 0.769520 0.665569
0.000000 0.556766 0.772510
0.000000 0.226447 0.775500
0.113315 0.000000 0.778490
0.458039 0.000000 0.781480
0.784470 0.000000 0.765850
0.787460 0.000000 0.431075
0.847117 0.000000 0.110651
0.906773 0.245461 0.000000
0.966430 0.629493 0.000000
0.424383 0.814117 0.000000
0.166637 0.817107 0.000000
0.000000 0.820097 0.115900
0.000000 0.823087 0.422998
0.000000 0.826077 0.752036
0.000000 0.558477 0.829067
0.000000 0.202239 0.832057
0.164128 0.000000 0.835047
0.535821 0.000000 0.838037
0.841027 0.000000 0.774182
0.844017 0.000000 0.412711
0.847007 0.000000 0.060612
0.849997 0.277697 0.000000
0.852987 0.598316 0.000000
0.866084 0.912643 0.000000
0.608443 0.972300 0.000000
0.000000 0.876653 0.152212
0.000000 0.879643 0.482786
0.000000 0.882633 0.835337
0.000000 0.563514 0.885623
0.000000 0.181495 0.888613
0.211360 0.000000 0.891603
0.609927 0.000000 0.894593
0.897583 0.000000 0.786261
0.900573 0.000000 0.398144
0.903563 0.000000 0.020007
0.906553 0.343432 0.000000
0.909543 0.687999 0.000000
0.814847 0.912533 0.000000
0.523601 0.915523 0.000000
0.259074 0.918513 0.000000
0.021737 0.978170 0.000000
0.000000 0.939190 0.914431
0.000000 0.571556 0.942180
0.000000 0.163879 0.945170
0.255363 0.000000 0.948160
0.680727 0.000000 0.951150
0.954140 0.000000 0.801701
0.957130 0.000000 0.386970
0.960120 0.017196 0.000000
0.963110 0.405772 0.000000
0.966100 0.774311 0.000000
0.819073 0.969090 0.000000
0.506833 0.972080 0.000000
0.223021 0.975070 0.000000
0.000000 0.978060 0.031566
0.000000 0.981050 0.257214
0.000000 0.984040 0.455296
0.083444 0.115613 0.057807
0.059302 0.118603 0.069359
0.060797 0.121593 0.107756
0.090625 0.153201 0.181250
0.120453 0.147431 0.240907
0.059469 0.000000 0.300563
0.209545 0.000000 0.360220
0.390317 0.000000 0.419877
0.479533 0.000000 0.363274
0.539190 0.000000 0.258097
0.598847 0.000000 0.138957
0.658503 0.000000 0.009958
0.718160 0.126013 0.000000
0.777817 0.267497 0.000000
0.837473 0.414617 0.000000
0.897130 0.569154 0.000000
0.060742 0.121483 0.079328
0.093355 0.124473 0.121167
0.095597 0.107989 0.127463
0.028802 0.000000 0.187120
0.140380 0.000000 0.246777
0.284552 0.000000 0.306433
0.366090 0.000000 0.275706
0.425747 0.000000 0.200702
0.485403 0.000000 0.108345
0.545060 0.000000 0.002935
0.604717 0.112293 0.000000
0.664373 0.235409 0.000000
0.724030 0.365969 0.000000
0.783687 0.505111 0.000000
0.843343 0.655579 0.000000
0.903000 0.821665 0.000000
0.063677 0.127353 0.127110
0.000000 0.079516 0.130343
0.080000 0.133333 0.125651
0.000000 0.155968 0.192990
0.000000 0.127260 0.252647
0.000000 0.072097 0.312303
0.004205 0.000000 0.371960
0.097016 0.000000 0.431617
0.202680 0.000000 0.491273
0.318758 0.000000 0.550930
0.444210 0.000000 0.610587
0.579519 0.000000 0.670243
0.726728 0.000000 0.729900
0.789557 0.000000 0.689701
0.849213 0.000000 0.625865
0.908870 0.000000 0.535344
0.000000 0.067789 0.189890
0.000000 0.013496 0.192880
0.016777 0.000000 0.195870
0.011864 0.000000 0.198860
0.039532 0.000000 0.258517
0.100987 0.000000 0.318173
0.181761 0.000000 0.377830
0.276845 0.000000 0.437487
0.383933 0.000000 0.497143
0.502566 0.000000 0.556800
0.616457 0.000000 0.598965
0.676113 0.000000 0.571366
0.735770 0.000000 0.524004
0.795427 0.000000 0.451371
0.855083 0.000000 0.346917
0.914740 0.000000 0.203346
0.056789 0.000000 0.252427
0.114971 0.000000 0.255417
0.153622 0.000000 0.258407
0.172518 0.000000 0.261397
0.184949 0.000000 0.264387
0.248544 0.000000 0.324043
0.332678 0.000000 0.383700
0.432197 0.000000 0.443357
0.503013 0.000000 0.459707
0.562670 0.000000 0.448765
0.622327 0.000000 0.418428
0.681983 0.000000 0.364009
0.741640 0.000000 0.279670
0.801297 0.000000 0.158718
0.860953 0.006058 0.000000
0.920610 0.222028 0.000000
0.222374 0.000000 0.314963
0.279016 0.000000 0.317953
0.318691 0.000000 0.320943
0.323933 0.000000 0.304112
0.326923 0.000000 0.290387
0.329913 0.000000 0.280456
0.389570 0.000000 0.309197
0.449227 0.000000 0.318116
0.508883 0.000000 0.306614
0.568540 0.000000 0.271484
0.628197 0.000000 0.207903
0.687853 0.000000 0.109941
0.747510 0.029031 0.000000
0.807167 0.215961 0.000000
0.866823 0.457724 0.000000
0.926480 0.760751 0.000000
0.377500 0.000000 0.344885
0.380490 0.000000 0.298554
0.383480 0.000000 0.265955
0.386470 0.000000 0.243482
0.389460 0.000000 0.223343
0.392450 0.000000 0.203288
0.395440 0.000000 0.180981
0.455097 0.000000 0.169171
0.514753 0.000000 0.128575
0.574410 0.000000 0.054902
0.634067 0.057495 0.000000
0.693723 0.214933 0.000000
0.753380 0.423896 0.000000
0.813037 0.690612 0.000000
0.724719 0.872693 0.000000
0.446049 0.932350 0.000000
0.440037 0.000000 0.269794
0.443027 0.000000 0.225923
0.446017 0.000000 0.191008
0.449007 0.000000 0.160676
0.451997 0.000000 0.127826
0.454987 0.000000 0.089790
0.457977 0.000000 0.044002
0.460967 0.011915 0.000000
0.520623 0.095042 0.000000
0.580280 0.221420 0.000000
0.639937 0.396640 0.000000
0.699593 0.626476 0.000000
0.602162 0.759250 0.000000
0.366960 0.818907 0.000000
0.063603 0.878563 0.000000
0.000000 0.938220 0.310006
0.502573 0.000000 0.179941
0.505563 0.000000 0.131363
0.508553 0.000000 0.085396
0.511543 0.000000 0.037315
0.514533 0.019372 0.000000
0.517523 0.087326 0.000000
0.520513 0.168891 0.000000
0.523503 0.266006 0.000000
0.526493 0.380132 0.000000
0.586150 0.571198 0.000000
0.471905 0.645807 0.000000
0.280906 0.705463 0.000000
0.024565 0.765120 0.000000
0.000000 0.824777 0.299471
0.000000 0.884433 0.692104
0.000000 0.735553 0.944090
0.565110 0.000000 0.060104
0.568100 0.005099 0.000000
0.571090 0.075045 0.000000
0.574080 0.154316 0.000000
0.577070 0.248550 0.000000
0.580060 0.359890 0.000000
0.583050 0.489948 0.000000
0.532338 0.586040 0.000000
0.368405 0.589030 0.000000
0.184629 0.592020 0.000000
0.000000 0.651677 0.023276
0.000000 0.711333 0.296797
0.000000 0.770990 0.637052
0.000000 0.617548 0.830647
0.000000 0.265586 0.890303
0.147506 0.000000 0.949960
0.627647 0.116234 0.000000
0.630637 0.213126 0.000000
0.633627 0.322146 0.000000
0.636617 0.447177 0.000000
0.639607 0.592614 0.000000
0.525621 0.642597 0.000000
0.342702 0.645587 0.000000
0.138146 0.648577 0.000000
0.000000 0.651567 0.087033
0.000000 0.654557 0.331132
0.000000 0.657547 0.591818
0.000000 0.490904 0.717203
0.000000 0.194536 0.776860
0.162869 0.000000 0.836517
0.576909 0.000000 0.896173
0.955830 0.000000 0.869833
0.690183 0.383045 0.000000
0.693173 0.527427 0.000000
0.696163 0.690143 0.000000
0.524462 0.699153 0.000000
0.322987 0.702143 0.000000
0.098081 0.705133 0.000000
0.000000 0.708123 0.149155
0.000000 0.711113 0.416877
0.000000 0.714103 0.702553
0.000000 0.431135 0.717093
0.000000 0.125421 0.720083
0.187491 0.000000 0.723073
0.545267 0.000000 0.782730
0.842387 0.000000 0.729512
0.902043 0.000000 0.393004
0.961700 0.000000 0.017975
0.729221 0.752720 0.000000
0.529626 0.755710 0.000000
0.307872 0.758700 0.000000
0.062956 0.761690 0.000000
0.000000 0.764680 0.206002
0.000000 0.767670 0.497018
0.000000 0.733951 0.770660
0.000000 0.413619 0.773650
0.000000 0.081233 0.776640
0.258899 0.000000 0.779630
0.602218 0.000000 0.782620
0.785610 0.000000 0.627145
0.788600 0.000000 0.297306
0.848257 0.026055 0.000000
0.907913 0.383052 0.000000
0.967570 0.765797 0.000000
0.303314 0.815257 0.000000
0.033689 0.818247 0.000000
0.000000 0.821237 0.258574
0.000000 0.824227 0.572619
0.000000 0.747042 0.827217
0.000000 0.401134 0.830207
0.000000 0.042296 0.833197
0.324856 0.000000 0.836187
0.695437 0.000000 0.839177
0.842167 0.000000 0.619873
0.845157 0.000000 0.263293
0.848147 0.082166 0.000000
0.851137 0.412266 0.000000
0.854127 0.723340 0.000000
0.746130 0.913783 0.000000
0.493022 0.973440 0.000000
0.000000 0.877793 0.301272
0.000000 0.880783 0.642694
0.000000 0.764179 0.883773
0.000000 0.392892 0.886763
0.000000 0.007778 0.889753
0.386240 0.000000 0.892743
0.783949 0.000000 0.895733
0.898723 0.000000 0.617419
0.901713 0.000000 0.234190
0.904703 0.137195 0.000000
0.907693 0.492206 0.000000
0.910683 0.826918 0.000000
0.689187 0.913673 0.000000
0.409703 0.916663 0.000000
0.157347 0.919653 0.000000
0.000000 0.979310 0.073569
0.000000 0.790627 0.940330
0.000000 0.389896 0.943320
0.022901 0.000000 0.946310
0.443657 0.000000 0.949300
0.868390 0.000000 0.952290
0.955280 0.000000 0.619118
0.958270 0.000000 0.209298
0.961260 0.187973 0.000000
0.964250 0.567872 0.000000
0.967240 0.926215 0.000000
0.680844 0.970230 0.000000
0.380836 0.973220 0.000000
0.109696 0.976210 0.000000
0.000000 0.979200 0.132189
0.000000 0.982190 0.345523
0.000000 0.985180 0.532082
0.109783 0.173420 0.086710
0.088205 0.176410 0.114116
0.089700 0.179400 0.165155
0.091195 0.148558 0.182390
0.000000 0.035451 0.242047
0.084487 0.000000 0.301703
0.239424 0.000000 0.361360
0.421017 0.000000 0.418626
0.480673 0.000000 0.330804
0.540330 0.000000 0.225317
0.599987 0.000000 0.106918
0.659643 0.020672 0.000000
0.719300 0.155016 0.000000
0.778957 0.295151 0.000000
0.838613 0.441722 0.000000
0.898270 0.597023 0.000000
0.089645 0.179290 0.136709
0.121520 0.178905 0.182280
0.000000 0.071517 0.185270
0.027579 0.000000 0.188260
0.148783 0.000000 0.247917
0.299261 0.000000 0.307573
0.367230 0.000000 0.259198
0.426887 0.000000 0.181843
0.486543 0.000000 0.088467
0.546200 0.017040 0.000000
0.605857 0.131892 0.000000
0.665513 0.254646 0.000000
0.725170 0.385364 0.000000
0.784827 0.525691 0.000000
0.844483 0.678856 0.000000
0.904140 0.849587 0.000000
0.000000 0.138982 0.185160
0.000000 0.059659 0.188150
0.035869 0.000000 0.191140
0.157567 0.000000 0.194130
0.253787 0.000000 0.189318
0.313443 0.000000 0.136345
0.373100 0.000000 0.066809
0.432757 0.016967 0.000000
0.492413 0.112363 0.000000
0.552070 0.217653 0.000000
0.611727 0.332404 0.000000
0.671383 0.457656 0.000000
0.731040 0.595967 0.000000
0.790697 0.751370 0.000000
0.771461 0.850353 0.000000
0.683910 0.910010 0.000000
0.000000 0.023851 0.191030
0.038861 0.000000 0.194020
0.097290 0.000000 0.197010
0.120000 0.131524 0.200000
0.022836 0.000000 0.259657
0.093298 0.000000 0.319313
0.178869 0.000000 0.378970
0.277019 0.000000 0.438627
0.386570 0.000000 0.498283
0.507818 0.000000 0.557940
0.617597 0.000000 0.592621
0.677253 0.000000 0.560384
0.736910 0.000000 0.506692
0.796567 0.000000 0.425702
0.856223 0.000000 0.310636
0.915880 0.000000 0.154085
0.103606 0.000000 0.253567
0.165954 0.000000 0.256557
0.215404 0.000000 0.259547
0.232378 0.000000 0.262537
0.203330 0.000000 0.265527
0.252340 0.000000 0.325183
0.335083 0.000000 0.384840
0.435754 0.000000 0.444497
0.504153 0.000000 0.455931
0.563810 0.000000 0.441124
0.623467 0.000000 0.405304
0.683123 0.000000 0.343511
0.742780 0.000000 0.249693
0.802437 0.000000 0.117033
0.862093 0.061696 0.000000
0.921750 0.293761 0.000000
0.269276 0.000000 0.316103
0.319093 0.000000 0.310148
0.322083 0.000000 0.270710
0.325073 0.000000 0.253426
0.328063 0.000000 0.257334
0.331053 0.000000 0.264680
0.390710 0.000000 0.300509
0.450367 0.000000 0.309560
0.510023 0.000000 0.294930
0.569680 0.000000 0.254226
0.629337 0.000000 0.182786
0.688993 0.000000 0.074701
0.748650 0.076628 0.000000
0.808307 0.278043 0.000000
0.867963 0.536218 0.000000
0.927620 0.857276 0.000000
0.378640 0.000000 0.301693
0.381630 0.000000 0.253862
0.384620 0.000000 0.217129
0.387610 0.000000 0.195493
0.390600 0.000000 0.185114
0.393590 0.000000 0.174082
0.396580 0.000000 0.160052
0.456237 0.000000 0.149255
0.515893 0.000000 0.104618
0.575550 0.000000 0.023573
0.635207 0.098899 0.000000
0.694863 0.268778 0.000000
0.754520 0.492256 0.000000
0.814177 0.775234 0.000000
0.624769 0.873833 0.000000
0.327613 0.933490 0.000000
0.441177 0.000000 0.227690
0.444167 0.000000 0.181757
0.447157 0.000000 0.142511
0.450147 0.000000 0.111288
0.453137 0.000000 0.083321
