mpv/oil_slick_muted.cube
TITLE "Oilslick_Iridescent_16x"
LUT_3D_SIZE 16
0.000000 0.000000 0.000000
0.066575 0.000028 0.000004
0.132504 0.000311 0.000031
0.196616 0.001043 0.000136
0.258719 0.002450 0.001815
0.317993 0.003068 0.004728
0.374367 0.000805 0.008052
0.434325 0.001257 0.012569
0.490213 0.001839 0.011374
0.539979 0.004910 0.002560
0.586402 0.027457 0.003424
0.611220 0.044297 0.004430
0.619136 0.055745 0.012398
0.644423 0.068499 0.057032
0.665866 0.045934 0.082438
0.698884 0.009740 0.097402
0.000248 0.066460 0.000029
0.065766 0.066537 0.000101
0.129549 0.067039 0.001375
0.191110 0.067310 0.004627
0.249713 0.063833 0.007910
0.311124 0.061958 0.012380
0.372407 0.060858 0.014200
0.425867 0.059753 0.004353
0.476209 0.076920 0.003389
0.512461 0.097176 0.004390
0.519887 0.106507 0.005530
0.547129 0.117129 0.045484
0.572774 0.106102 0.081905
0.594978 0.055752 0.096835
0.681801 0.054335 0.112605
0.747517 0.054134 0.089054
0.000232 0.131702 0.000958
0.064046 0.131608 0.004527
0.125342 0.127411 0.007769
0.187748 0.122777 0.012193
0.254344 0.120005 0.016950
0.311480 0.117085 0.008402
0.365725 0.126641 0.003355
0.413271 0.150207 0.004351
0.427009 0.157424 0.005486
0.449529 0.165913 0.034097
0.479379 0.166249 0.081375
0.505683 0.116628 0.096270
0.577729 0.097490 0.112012
0.665286 0.095439 0.109660
0.699416 0.093697 0.035408
0.732675 0.167794 0.016195
0.000763 0.191048 0.007629
0.064200 0.183713 0.012008
0.134083 0.179281 0.017683
0.196817 0.174555 0.012358
0.254952 0.176621 0.003321
0.310238 0.199975 0.004312
0.333680 0.208495 0.005442
0.351622 0.214853 0.022871
0.385684 0.222445 0.076917
0.416096 0.177466 0.095706
0.473573 0.140786 0.111420
0.580496 0.136875 0.127767
0.620332 0.133409 0.058925
0.656658 0.179226 0.016133
0.690068 0.288202 0.017799
0.606943 0.300907 0.019417
0.012676 0.238684 0.017450
0.081881 0.232162 0.016221
0.143890 0.226856 0.003287
0.203226 0.246342 0.004273
0.239902 0.259722 0.005398
0.253409 0.263948 0.011805
0.291685 0.269420 0.063258
0.326215 0.238267 0.095143
0.369332 0.184223 0.110830
0.476928 0.178444 0.127158
0.541010 0.173241 0.082240
0.580430 0.190970 0.016072
0.618790 0.297699 0.017738
0.567774 0.336058 0.019358
0.506410 0.347723 0.056264
0.532029 0.359269 0.196415
0.032540 0.281153 0.007061
0.095915 0.292988 0.004234
0.145674 0.311103 0.005354
0.160597 0.313198 0.006606
0.197385 0.316548 0.049774
0.236041 0.299032 0.094581
0.271155 0.233952 0.110240
0.373299 0.220145 0.126548
0.461449 0.213195 0.105352
0.503987 0.207060 0.020044
0.545085 0.305247 0.017678
0.528262 0.371288 0.019300
0.437361 0.382004 0.021971
0.464297 0.392850 0.159468
0.493188 0.326741 0.235874
0.533768 0.191440 0.247264
0.051000 0.362638 0.005310
0.072469 0.362603 0.006558
0.102781 0.363830 0.036463
0.145573 0.359762 0.094020
0.184668 0.295599 0.109651
0.269606 0.261979 0.125940
0.381647 0.253272 0.128261
0.427329 0.245534 0.046089
0.471194 0.313088 0.017617
0.488405 0.406597 0.019241
0.401126 0.416346 0.020790
0.396483 0.426474 0.122686
0.426205 0.398615 0.235422
0.458178 0.256311 0.246877
0.616906 0.226024 0.256446
0.769518 0.228637 0.213074
0.007874 0.411265 0.023324
0.054810 0.411710 0.084712
0.097899 0.357196 0.109063
0.165850 0.303946 0.125331
0.292656 0.293471 0.142021
0.350455 0.284119 0.071932
0.397115 0.321224 0.017556
0.441985 0.435769 0.019183
0.365715 0.450751 0.020735
0.328585 0.460142 0.086070
0.359176 0.469943 0.234545
0.391483 0.329964 0.246487
0.507897 0.259343 0.256130
0.701660 0.262209 0.256074
0.748390 0.266633 0.097075
0.797482 0.367413 0.027169
0.010848 0.418742 0.108475
0.062027 0.346048 0.124724
0.189246 0.333794 0.141402
0.273363 0.322815 0.097572
0.322847 0.329657 0.017495
0.370123 0.439932 0.019124
0.329999 0.485219 0.020680
0.260601 0.493855 0.049620
0.292098 0.503159 0.195677
0.324778 0.403497 0.246095
0.399020 0.292652 0.255811
0.598304 0.295752 0.263430
0.679443 0.300668 0.141043
0.726879 0.357676 0.027163
0.776631 0.531947 0.027195
0.692714 0.568019 0.026964
0.085794 0.374242 0.140784
0.196051 0.361624 0.123008
0.248387 0.350626 0.029673
0.298103 0.444368 0.019065
0.293977 0.519751 0.020624
0.201273 0.527614 0.022081
0.224971 0.536402 0.156956
0.258061 0.476910 0.245701
0.292574 0.328251 0.255490
0.487495 0.329266 0.263189
0.610596 0.334655 0.184959
0.656412 0.347893 0.027157
0.704066 0.523099 0.027198
0.661729 0.605001 0.026977
0.568124 0.613122 0.040322
0.630332 0.620245 0.196315
0.173735 0.388069 0.058027
0.225921 0.449081 0.019006
0.257646 0.554348 0.020568
0.169175 0.561420 0.022029
0.157791 0.569672 0.118385
0.191330 0.550203 0.245304
0.225752 0.403336 0.255165
0.376827 0.362752 0.262945
0.541846 0.368596 0.228822
0.586077 0.376675 0.065759
0.631667 0.514158 0.027201
0.630986 0.641884 0.026990
0.519687 0.651472 0.026516
0.548942 0.660246 0.154328
0.612902 0.616271 0.247973
0.682034 0.481647 0.235779
0.205125 0.573135 0.020513
0.136816 0.595274 0.021978
0.090557 0.602972 0.079964
0.124584 0.611914 0.233443
0.158954 0.478305 0.254838
0.266300 0.396213 0.262698
0.468846 0.402492 0.268285
0.515875 0.411259 0.110204
0.559434 0.505124 0.027204
0.600480 0.678667 0.027003
0.485378 0.689708 0.026538
0.467804 0.700120 0.112235
0.528120 0.698543 0.248377
0.593360 0.563547 0.236267
0.744629 0.526086 0.222000
0.923665 0.546996 0.190269
0.023266 0.636302 0.041694
0.057820 0.644934 0.193010
0.092176 0.553160 0.254508
0.155912 0.429647 0.262448
0.356370 0.436344 0.268122
0.445802 0.445781 0.154625
0.487364 0.496002 0.027206
0.529850 0.674992 0.027015
0.451367 0.727832 0.026559
0.386916 0.739870 0.070038
0.443609 0.751256 0.219224
0.504974 0.645465 0.236752
0.615927 0.571059 0.222561
0.809380 0.594000 0.206455
0.886780 0.617198 0.090215
0.948895 0.679710 0.016975
0.025418 0.627900 0.254175
0.059822 0.477217 0.262195
0.244041 0.470152 0.267955
0.375856 0.480242 0.199020
0.415455 0.493161 0.033575
0.455524 0.667293 0.027026
0.417648 0.765843 0.026581
0.306276 0.779494 0.027738
0.359367 0.792657 0.178760
0.416873 0.727399 0.237235
0.487340 0.615884 0.223118
0.679633 0.640853 0.207078
0.786814 0.666128 0.121564
0.844734 0.702978 0.017046
0.905510 0.818243 0.015061
0.918337 0.857161 0.013028
0.131857 0.503919 0.267785
0.306036 0.514642 0.243387
0.343706 0.528440 0.078148
0.381389 0.659460 0.027038
0.384220 0.803744 0.026602
0.266452 0.818995 0.025905
0.275393 0.833923 0.138163
0.329057 0.809348 0.237714
0.387050 0.688744 0.223673
0.549985 0.687554 0.207699
0.687154 0.714904 0.153133
0.740875 0.742188 0.033448
0.797513 0.846905 0.015135
0.827497 0.912821 0.013103
0.826683 0.919096 0.011065
0.902003 0.924076 0.058518
0.272115 0.563642 0.122724
0.307443 0.651496 0.027049
0.342933 0.833387 0.026622
0.228837 0.858373 0.025936
0.191687 0.875055 0.097436
0.241526 0.891311 0.238190
0.295490 0.770072 0.224226
0.420437 0.734104 0.208317
0.587799 0.763526 0.184922
0.637321 0.792905 0.061743
0.689813 0.875172 0.015209
0.737189 0.968335 0.013178
0.728743 0.976567 0.011139
0.782197 0.983381 0.044014
0.862700 0.982195 0.072246
0.944006 0.954784 0.054433
0.000002 0.000001 0.066648
0.066521 0.000087 0.066428
0.132148 0.000524 0.065983
0.195732 0.001489 0.065587
0.257200 0.003205 0.067021
0.315699 0.003024 0.068886
0.372561 0.000963 0.071248
0.433498 0.001463 0.074668
0.487351 0.002097 0.068474
0.536562 0.009335 0.059299
0.582456 0.035448 0.058246
0.598603 0.048502 0.057264
0.610067 0.060460 0.071834
0.634630 0.073681 0.119412
0.655521 0.037325 0.134226
0.702864 0.010334 0.147535
0.000355 0.066453 0.066003
0.065370 0.066667 0.065370
0.128832 0.067386 0.066480
0.189785 0.066976 0.068817
0.247940 0.062623 0.071143
0.311179 0.061541 0.074522
0.370898 0.060435 0.071808
0.423894 0.061077 0.059339
0.473774 0.083489 0.058283
0.502147 0.100577 0.057299
0.510118 0.110408 0.061919
0.538918 0.121501 0.107013
0.563976 0.097693 0.133755
0.598352 0.054545 0.147029
0.691931 0.054238 0.161151
0.743873 0.054103 0.115983
0.000305 0.131648 0.065965
0.063681 0.130986 0.068750
0.124392 0.125632 0.071040
0.188683 0.121741 0.074377
0.254180 0.118906 0.075060
0.310944 0.115946 0.062262
0.364798 0.131797 0.058321
0.405252 0.152807 0.057333
0.414149 0.160512 0.056442
0.442900 0.169476 0.094781
0.472133 0.158033 0.133285
0.497972 0.103131 0.146525
0.588174 0.096674 0.160619
0.662945 0.094737 0.137772
0.697306 0.093121 0.055774
0.730947 0.192749 0.054341
0.000915 0.188989 0.070938
0.066011 0.182063 0.074234
0.137198 0.177509 0.078229
0.197714 0.172695 0.066824
0.255528 0.180371 0.058359
0.307920 0.205189 0.057368
0.323230 0.210772 0.056473
0.346578 0.217605 0.082715
0.379990 0.218345 0.132816
0.409883 0.164251 0.146021
0.484341 0.139246 0.160087
0.581766 0.135498 0.159360
0.619412 0.132215 0.080483
0.655981 0.202507 0.054331
0.665157 0.293043 0.054694
0.576801 0.305736 0.055212
0.017152 0.236243 0.078516
0.084203 0.229584 0.071286
0.145965 0.229211 0.058397
0.205008 0.252581 0.057403
0.231854 0.261186 0.056504
0.249950 0.265888 0.070815
0.287549 0.271831 0.125550
0.321505 0.225328 0.145519
0.380433 0.181957 0.159557
0.493847 0.176388 0.174260
0.541289 0.171426 0.104990
0.580813 0.212569 0.054320
0.619403 0.325584 0.054677
0.539416 0.340504 0.055190
0.502831 0.352152 0.120746
0.529525 0.360709 0.262253
0.036109 0.278315 0.058435
0.099241 0.297706 0.057438
0.140022 0.311756 0.056535
0.153016 0.314326 0.059079
0.194807 0.318160 0.111152
0.232838 0.286363 0.145018
0.276448 0.224805 0.159027
0.390425 0.217406 0.173710
0.462937 0.210754 0.129294
0.505442 0.222936 0.054310
0.546615 0.331548 0.054661
0.501706 0.375343 0.055169
0.434334 0.386137 0.085491
0.462151 0.396970 0.227313
0.492145 0.297249 0.273860
0.567627 0.191787 0.284456
0.047735 0.362481 0.056566
0.064043 0.362919 0.055776
0.101766 0.364640 0.096933
0.143882 0.347357 0.144518
0.182388 0.277798 0.158499
0.286949 0.258553 0.173160
0.384353 0.250200 0.153395
0.429866 0.242865 0.063556
0.473652 0.337799 0.054646
0.463667 0.410255 0.055148
0.371115 0.420175 0.055793
0.394709 0.430388 0.189653
0.425335 0.369817 0.273441
0.459774 0.225081 0.284095
0.654519 0.226863 0.293034
0.774557 0.229979 0.213330
0.008424 0.411273 0.082891
0.054635 0.408310 0.144020
0.097063 0.339742 0.157971
0.183419 0.299830 0.172611
0.305536 0.289765 0.177293
0.354085 0.280880 0.090582
0.400514 0.344336 0.054630
0.425297 0.445240 0.055126
0.337284 0.454269 0.055767
0.327198 0.463843 0.152152
0.358493 0.442262 0.273019
0.391709 0.298038 0.283732
0.544756 0.260248 0.292738
0.706313 0.263716 0.256736
0.753640 0.268715 0.096093
0.803408 0.406412 0.062630
0.011460 0.401631 0.157444
0.079832 0.341237 0.172063
0.212650 0.329448 0.187152
0.278096 0.319001 0.117406
0.327197 0.351160 0.054615
0.374165 0.467871 0.055106
0.303168 0.488420 0.055741
0.259614 0.497335 0.114810
0.291617 0.506837 0.264848
0.325003 0.372231 0.283367
0.435130 0.293616 0.292440
0.637669 0.297416 0.299595
0.684131 0.303003 0.140288
0.732061 0.396962 0.062591
0.774564 0.563379 0.063638
0.664172 0.570681 0.064633
0.109310 0.369252 0.186592
0.201897 0.357230 0.144028
0.253702 0.358275 0.054600
0.302943 0.470822 0.055085
0.268764 0.522627 0.055715
0.191957 0.530867 0.077630
0.224706 0.539952 0.225338
0.258301 0.446305 0.282999
0.325639 0.326966 0.292139
0.526087 0.331080 0.299368
0.614734 0.337238 0.184445
0.660862 0.387447 0.062551
0.708912 0.562901 0.063600
0.631837 0.608205 0.064598
0.576231 0.615963 0.114173
0.639855 0.622670 0.268443
0.180025 0.383826 0.072731
0.231571 0.474039 0.055064
0.234069 0.556893 0.055689
0.140057 0.564438 0.056444
0.157757 0.573088 0.185969
0.191599 0.520261 0.282629
0.226516 0.370533 0.291835
0.414648 0.364710 0.299138
0.545449 0.371419 0.228560
0.589810 0.380317 0.064960
0.635624 0.554494 0.063562
0.599766 0.645624 0.064562
0.496982 0.654922 0.071166
0.557126 0.663343 0.227033
0.622365 0.587430 0.286306
0.704755 0.469498 0.275196
0.199080 0.591219 0.055664
0.109072 0.598050 0.056414
0.090769 0.606246 0.146743
0.124897 0.594098 0.282257
0.159559 0.446117 0.291529
0.303354 0.398306 0.298906
0.476274 0.405548 0.272632
0.518902 0.415228 0.109470
0.562513 0.545977 0.063525
0.567957 0.682938 0.064527
0.455357 0.693763 0.065459
0.474655 0.703885 0.185505
0.536152 0.669646 0.286674
0.602539 0.539183 0.275641
0.781481 0.534013 0.262627
0.928931 0.555041 0.206273
0.023738 0.639427 0.107661
0.058191 0.648579 0.262645
0.092637 0.521589 0.291220
0.192202 0.431869 0.298670
0.394587 0.439626 0.304041
0.448136 0.450070 0.153968
0.489577 0.537352 0.063487
0.532053 0.715794 0.064491
0.419724 0.732485 0.065427
0.392444 0.744298 0.143861
0.450215 0.751866 0.287040
0.512649 0.620926 0.276084
0.652281 0.579753 0.263138
0.831289 0.602834 0.239448
0.890809 0.626035 0.113280
0.953219 0.708286 0.068956
0.025749 0.596948 0.290909
0.081193 0.465401 0.298432
0.281483 0.473654 0.303882
0.377512 0.484844 0.198452
0.416815 0.528622 0.063449
0.456713 0.708857 0.064455
0.384406 0.771091 0.065394
0.310489 0.784583 0.102103
0.364555 0.797501 0.250815
0.423050 0.702693 0.276523
0.523190 0.625343 0.263647
0.710130 0.650475 0.249010
0.789270 0.675763 0.143306
0.847499 0.733676 0.068953
0.908554 0.841261 0.068979
0.908317 0.858955 0.068900
0.168527 0.507632 0.303720
0.307026 0.519551 0.242922
0.344225 0.534465 0.078085
0.381576 0.701768 0.064419
0.349401 0.809581 0.065361
0.234775 0.824739 0.066216
0.279170 0.839478 0.210927
0.333741 0.784483 0.276960
0.394207 0.670784 0.264153
0.580070 0.697963 0.249577
0.688036 0.725337 0.173558
0.742081 0.758674 0.068950
0.799036 0.872071 0.068980
0.814645 0.915370 0.068905
0.828483 0.921144 0.075780
0.910890 0.925649 0.124994
0.271805 0.570058 0.122571
0.306639 0.694529 0.064383
0.314705 0.847954 0.065327
0.195282 0.864767 0.066187
0.194060 0.881317 0.170897
0.244722 0.866294 0.277394
0.299533 0.750273 0.264657
0.450105 0.745298 0.250141
0.587107 0.774757 0.204036
0.636965 0.804000 0.089665
0.689812 0.902488 0.068981
0.721498 0.971643 0.068909
0.720770 0.979330 0.068745
0.789826 0.985615 0.111732
0.870131 0.975875 0.126958
0.950992 0.954109 0.111170
0.000017 0.000006 0.133183
0.066475 0.000208 0.132546
0.131695 0.000816 0.131440
0.194755 0.002044 0.130512
0.255564 0.004069 0.131676
0.313271 0.002739 0.132182
0.371092 0.001138 0.133457
0.432624 0.001689 0.135030
0.484542 0.002376 0.123559
0.533221 0.014688 0.114576
0.575756 0.041780 0.111545
0.584868 0.052905 0.108539
0.601007 0.065358 0.131026
0.624905 0.071204 0.173952
0.645312 0.027267 0.184613
0.708681 0.010938 0.196299
0.000452 0.066489 0.131488
0.065083 0.066870 0.130233
0.128064 0.067838 0.131042
0.188388 0.066402 0.132151
0.247336 0.062215 0.133395
0.311833 0.061120 0.135569
0.369478 0.060014 0.127444
0.422025 0.065097 0.114687
0.471463 0.091206 0.111656
0.490763 0.104172 0.108648
0.502648 0.114494 0.120317
0.530765 0.126043 0.168494
0.555295 0.087869 0.184202
0.604559 0.054408 0.195853
0.704027 0.054166 0.208376
0.740590 0.054097 0.139944
0.000391 0.131663 0.130409
0.063302 0.130122 0.132121
0.123407 0.123407 0.133333
0.190225 0.120679 0.135471
0.254143 0.117789 0.131240
0.310542 0.115759 0.114798
0.364014 0.138051 0.111768
0.396212 0.155594 0.108758
0.403983 0.163784 0.109767
0.436321 0.173211 0.155384
0.464983 0.148438 0.183792
0.500348 0.098020 0.195407
0.600534 0.095899 0.207902
0.660921 0.094081 0.162920
0.695545 0.111928 0.092594
0.729602 0.219426 0.091458
0.001086 0.186491 0.133273
0.068439 0.180363 0.135374
0.138537 0.175699 0.134946
0.198773 0.170810 0.119048
0.256268 0.185171 0.111879
0.301215 0.207170 0.108867
0.311568 0.213230 0.105931
0.341574 0.220533 0.142447
0.374376 0.208972 0.183384
0.403795 0.149522 0.194963
0.496975 0.137766 0.207429
0.581011 0.134189 0.185694
0.618791 0.131097 0.099156
0.655629 0.227546 0.091493
0.638959 0.297890 0.090709
0.545558 0.310535 0.090297
0.022498 0.233745 0.138400
0.086718 0.226966 0.124151
0.148225 0.232565 0.111991
0.205773 0.258900 0.108977
0.222632 0.262832 0.106037
0.246523 0.268009 0.129680
0.283474 0.269474 0.182977
0.316894 0.210909 0.194521
0.393350 0.179767 0.206957
0.500856 0.174420 0.208267
0.541819 0.169711 0.124851
0.581465 0.235963 0.091529
0.598440 0.333298 0.090731
0.509866 0.344954 0.090305
0.499733 0.356551 0.186110
0.527553 0.333813 0.300611
0.039885 0.280232 0.112102
0.102762 0.303659 0.109087
0.133234 0.312588 0.106144
0.151168 0.315638 0.117084
0.192276 0.319954 0.172581
0.229709 0.272248 0.194079
0.289657 0.221903 0.206486
0.409426 0.214775 0.219607
0.464626 0.208438 0.150343
0.507110 0.244677 0.091565
0.548371 0.359593 0.090754
0.473865 0.379439 0.090314
0.431717 0.390275 0.149919
0.460463 0.401061 0.295983
0.491605 0.266631 0.311455
0.602967 0.192296 0.321419
0.043375 0.362500 0.106250
0.055509 0.363421 0.104657
0.100780 0.365642 0.157425
0.142239 0.333539 0.193639
0.185894 0.264174 0.206015
0.306118 0.255256 0.219114
0.387211 0.247277 0.175632
0.432561 0.253691 0.091602
0.476276 0.364299 0.090777
0.437553 0.413989 0.090324
0.363610 0.424047 0.113898
0.393319 0.434311 0.257479
0.424892 0.339883 0.311062
0.494380 0.225600 0.321079
0.693216 0.227896 0.329555
0.779802 0.231507 0.213247
0.008988 0.411480 0.142452
0.054484 0.394784 0.193200
0.096267 0.320787 0.205546
0.202764 0.295863 0.218622
0.309574 0.286230 0.200719
0.357818 0.277833 0.106468
0.404017 0.369283 0.090801
0.400928 0.448605 0.090334
0.307602 0.457867 0.090240
0.326121 0.467591 0.219127
0.358162 0.413013 0.310667
0.392324 0.265299 0.320736
0.582685 0.261385 0.329273
0.711099 0.265445 0.256988
0.759020 0.272472 0.096806
0.809455 0.445479 0.098858
0.012082 0.383050 0.205078
0.099364 0.336595 0.218130
0.231712 0.325298 0.225604
0.282877 0.315406 0.134465
0.331593 0.374546 0.090825
0.363986 0.483289 0.090344
0.274983 0.491736 0.090237
0.258864 0.500901 0.180928
0.291413 0.486022 0.310270
0.325543 0.340137 0.320391
0.472295 0.294849 0.328988
0.642490 0.299340 0.300673
0.688879 0.305586 0.139689
0.737299 0.436420 0.098779
0.744366 0.566283 0.101007
0.636379 0.573184 0.103379
0.134543 0.364480 0.231205
0.207738 0.353081 0.162261
0.259000 0.380090 0.090850
0.307761 0.499076 0.090356
0.242096 0.525656 0.090234
0.191549 0.534242 0.142882
0.224643 0.543594 0.294557
0.258779 0.414858 0.320045
0.362044 0.328288 0.328702
0.565303 0.333192 0.335630
0.618864 0.340103 0.184010
0.665303 0.427278 0.098700
0.713746 0.602457 0.100922
0.602567 0.611278 0.103290
0.584643 0.618652 0.188437
0.649652 0.617720 0.333427
0.186239 0.385915 0.090875
0.237136 0.500854 0.090367
0.208937 0.559627 0.090232
0.124171 0.567616 0.104992
0.157849 0.576634 0.254432
0.192030 0.489462 0.319696
0.251932 0.361705 0.328412
0.453086 0.367002 0.335408
0.548974 0.374560 0.228302
0.593467 0.418054 0.098621
0.639507 0.594689 0.100837
0.569042 0.649262 0.103200
0.504127 0.658245 0.145885
0.565543 0.666290 0.299860
0.632028 0.559749 0.325755
0.745279 0.476541 0.315832
0.175503 0.593650 0.090231
0.079924 0.601024 0.090451
0.091031 0.609689 0.214441
0.125295 0.563950 0.319345
0.160284 0.413424 0.328121
0.341015 0.400771 0.335183
0.479208 0.408959 0.272564
0.521788 0.419528 0.109320
0.565457 0.586793 0.100753
0.535802 0.687136 0.103111
0.426198 0.697715 0.105578
0.481701 0.707523 0.258960
0.544351 0.641863 0.326083
0.616720 0.521188 0.316231
0.816664 0.542000 0.304557
0.934028 0.563098 0.225485
0.024185 0.642759 0.174586
0.058572 0.638320 0.318992
0.093142 0.489491 0.327827
0.229091 0.434501 0.334956
0.409562 0.443299 0.316793
0.450264 0.454725 0.153817
0.491595 0.578770 0.100669
0.502843 0.724900 0.103022
0.388824 0.737063 0.105486
0.398125 0.748621 0.217933
0.456958 0.723988 0.326408
0.520431 0.597841 0.316627
0.687001 0.588516 0.305016
0.834814 0.611685 0.257395
0.894653 0.634838 0.139793
0.957343 0.734728 0.122491
0.026049 0.565450 0.327531
0.117311 0.468191 0.334726
0.319081 0.477583 0.340035
0.378893 0.489847 0.198314
0.417917 0.570624 0.100585
0.457662 0.750055 0.102934
0.351787 0.776289 0.105394
0.314814 0.789587 0.176781
0.369847 0.802232 0.322838
0.429311 0.679398 0.317020
0.557441 0.634882 0.305473
0.735905 0.660119 0.289522
0.791543 0.685365 0.168464
0.850078 0.762254 0.122414
0.905320 0.855953 0.124409
0.900151 0.860570 0.126218
0.205351 0.511810 0.339875
0.307674 0.524896 0.242809
0.344424 0.562357 0.100501
0.381465 0.743811 0.102845
0.315084 0.815393 0.105302
0.231767 0.830421 0.135504
0.283018 0.844938 0.283718
0.338485 0.760985 0.317411
0.427985 0.681097 0.305928
0.608259 0.708400 0.292822
0.688737 0.735737 0.197367
0.743112 0.789387 0.122338
0.800384 0.894993 0.124339
0.803681 0.917726 0.126155
0.837191 0.923007 0.146995
0.919443 0.927051 0.190873
0.271113 0.576908 0.123354
0.305480 0.737400 0.102757
0.278712 0.854378 0.105210
0.162613 0.871123 0.107736
0.196469 0.887503 0.244445
0.247953 0.842601 0.317800
0.303600 0.732127 0.306381
0.477911 0.756527 0.293330
0.586236 0.785957 0.226500
0.636445 0.816127 0.122261
0.689656 0.927558 0.124268
0.707729 0.974742 0.126092
0.718255 0.981889 0.131348
0.797171 0.987654 0.178826
0.877210 0.971155 0.182997
0.960435 0.957560 0.169149
0.000058 0.000029 0.199494
0.066410 0.000383 0.198247
0.131118 0.001199 0.196294
0.193688 0.002719 0.194858
0.253818 0.004417 0.195116
0.310719 0.002151 0.194539
0.370045 0.001332 0.194611
0.430405 0.001934 0.192204
0.481801 0.002675 0.176496
0.529971 0.021051 0.168352
0.565647 0.045860 0.163296
0.569957 0.057501 0.158241
0.591978 0.070434 0.190044
0.615271 0.064903 0.224566
0.635261 0.015701 0.233620
0.716395 0.011553 0.243726
0.000514 0.066578 0.196378
0.064775 0.067158 0.194500
0.127247 0.068403 0.195029
0.186921 0.065527 0.194550
0.247167 0.061801 0.194594
0.313039 0.060698 0.195325
0.368161 0.059596 0.180974
0.420273 0.070075 0.168536
0.467570 0.098436 0.163482
0.478246 0.107957 0.158426
0.495205 0.118758 0.178508
0.522689 0.125002 0.224254
0.546749 0.076574 0.233267
0.612613 0.054296 0.243337
0.705119 0.054119 0.241318
0.737674 0.054117 0.160987
0.000493 0.131761 0.194256
0.062910 0.128961 0.194562
0.124113 0.122390 0.194579
0.192461 0.119593 0.195414
0.254242 0.116657 0.185355
0.310282 0.119360 0.168721
0.363383 0.145488 0.163669
0.386081 0.158567 0.158611
0.398126 0.167236 0.167137
0.429807 0.177115 0.215982
0.457948 0.137405 0.232916
0.508751 0.097178 0.242949
0.614846 0.095169 0.253906
0.659219 0.093474 0.185151
0.694138 0.134130 0.129959
0.728641 0.247792 0.127632
0.001274 0.183487 0.194565
0.071567 0.178617 0.195367
0.140047 0.173857 0.189640
0.200000 0.168906 0.168906
0.257177 0.191106 0.163855
0.293463 0.209333 0.158796
0.300741 0.215870 0.155928
0.336623 0.223636 0.202142
0.368855 0.198198 0.232567
0.404809 0.140199 0.242563
0.511511 0.136348 0.253488
0.580530 0.132950 0.209112
0.618471 0.145088 0.130056
0.655602 0.254316 0.127708
0.611513 0.302731 0.125940
0.539190 0.315289 0.150683
0.025574 0.231195 0.193830
0.089428 0.224313 0.174693
0.150672 0.237005 0.164042
0.200393 0.260253 0.158982
0.212168 0.264658 0.153999
0.243138 0.270309 0.188478
0.279471 0.258951 0.232219
0.312393 0.194968 0.242178
0.408118 0.177658 0.253072
0.501607 0.172545 0.232871
0.542596 0.168099 0.141898
0.582384 0.261129 0.127784
0.572839 0.337734 0.125994
0.479182 0.349396 0.124805
0.497123 0.360905 0.252384
0.526119 0.305592 0.338523
0.043866 0.283186 0.164228
0.106474 0.310930 0.159167
0.125237 0.313602 0.154180
0.149352 0.317134 0.174990
0.189796 0.319666 0.231872
0.226660 0.256644 0.241794
0.304667 0.219099 0.252656
0.422448 0.212260 0.256427
0.466511 0.206250 0.168571
0.508986 0.268231 0.127861
0.533828 0.372812 0.126049
0.444794 0.383561 0.124838
0.429514 0.394407 0.215287
0.459238 0.377736 0.338114
0.491570 0.234984 0.348758
0.639665 0.192964 0.358256
0.037839 0.362701 0.154361
0.055264 0.364113 0.161676
0.099827 0.366835 0.218017
0.140649 0.318266 0.241411
0.201156 0.260672 0.252242
0.327123 0.252096 0.263854
0.390214 0.244508 0.195042
0.435406 0.275625 0.127939
0.479058 0.392547 0.126106
0.410113 0.417785 0.124872
0.361829 0.427949 0.178354
0.392318 0.438231 0.326177
0.424878 0.308908 0.348385
0.530325 0.226318 0.357929
0.732854 0.229121 0.366110
0.785236 0.233217 0.213069
0.009565 0.411887 0.202085
0.054358 0.379836 0.241030
0.097584 0.302377 0.251828
0.223896 0.292053 0.263415
0.313705 0.282875 0.221312
0.361643 0.283311 0.128018
0.407615 0.396030 0.126162
