mpv/oil_slick_muted.cube
TITLE "Oilslick_Iridescent_16x"
LUT_3D_SIZE 6
0.000000 0.000000 0.000000
0.196616 0.001043 0.000136
0.374367 0.000805 0.008052
0.539979 0.004910 0.002560
0.619136 0.055745 0.012398
0.698884 0.009740 0.097402
0.000763 0.191048 0.007629
0.196817 0.174555 0.012358
0.333680 0.208495 0.005442
0.416096 0.177466 0.095706
0.620332 0.133409 0.058925
0.606943 0.300907 0.019417
0.051000 0.362638 0.005310
0.145573 0.359762 0.094020
0.381647 0.253272 0.128261
0.488405 0.406597 0.019241
0.426205 0.398615 0.235422
0.769518 0.228637 0.213074
0.085794 0.374242 0.140784
0.298103 0.444368 0.019065
0.224971 0.536402 0.156956
0.487495 0.329266 0.263189
0.704066 0.523099 0.027198
0.630332 0.620245 0.196315
0.023266 0.636302 0.041694
0.155912 0.429647 0.262448
0.487364 0.496002 0.027206
0.386916 0.739870 0.070038
0.615927 0.571059 0.222561
0.948895 0.679710 0.016975
0.272115 0.563642 0.122724
0.228837 0.858373 0.025936
0.295490 0.770072 0.224226
0.637321 0.792905 0.061743
0.728743 0.976567 0.011139
0.944006 0.954784 0.054433
0.000058 0.000029 0.199494
0.193688 0.002719 0.194858
0.370045 0.001332 0.194611
0.529971 0.021051 0.168352
0.591978 0.070434 0.190044
0.716395 0.011553 0.243726
0.001274 0.183487 0.194565
0.200000 0.168906 0.168906
0.300741 0.215870 0.155928
0.404809 0.140199 0.242563
0.618471 0.145088 0.130056
0.539190 0.315289 0.150683
0.037839 0.362701 0.154361
0.140649 0.318266 0.241411
0.390214 0.244508 0.195042
0.410113 0.417785 0.124872
0.424878 0.308908 0.348385
0.785236 0.233217 0.213069
0.160041 0.359938 0.273246
0.304290 0.520817 0.124978
0.224780 0.529960 0.347258
0.577859 0.335596 0.344941
0.683175 0.606225 0.139253
0.659699 0.587160 0.372960
0.024606 0.646288 0.242476
0.266436 0.437535 0.371406
0.493409 0.620090 0.138843
0.403947 0.752828 0.292176
0.719973 0.597329 0.348230
0.961263 0.758988 0.177556
0.270037 0.597299 0.138438
0.150644 0.877425 0.170318
0.330288 0.738321 0.349433
0.635767 0.846821 0.177110
0.725395 0.984247 0.203138
0.971012 0.963695 0.228305
0.000465 0.000418 0.395970
0.189988 0.005570 0.384040
0.370312 0.002032 0.371117
0.520916 0.047024 0.320389
0.565281 0.084773 0.364953
0.744394 0.013439 0.371379
0.009177 0.177948 0.371549
0.204731 0.181599 0.321630
0.288162 0.224850 0.324738
0.442060 0.135830 0.377702
0.619293 0.217199 0.236564
0.529864 0.329142 0.344481
0.013445 0.364424 0.289356
0.136227 0.263382 0.377024
0.400000 0.237188 0.237188
0.327385 0.429426 0.232722
0.443236 0.226639 0.459574
0.802516 0.264367 0.239393
0.179091 0.347787 0.325833
0.227812 0.530056 0.226004
0.226390 0.437649 0.458525
0.589258 0.344499 0.347404
0.593006 0.615279 0.261122
0.691116 0.502213 0.498543
0.025701 0.657924 0.451917
0.377282 0.448982 0.480285
0.487128 0.731349 0.260155
0.422123 0.748314 0.498772
0.788915 0.623867 0.467666
0.955535 0.802157 0.351618
0.264513 0.726869 0.259197
0.155736 0.895873 0.400258
0.414396 0.772001 0.486833
0.632872 0.925524 0.350568
0.745246 0.990153 0.414182
0.992117 0.979383 0.412086
0.001090 0.001555 0.586515
0.185622 0.006604 0.563760
0.367128 0.002915 0.525623
0.489304 0.061094 0.458183
0.539600 0.060269 0.501018
0.735487 0.015362 0.433334
0.024509 0.172448 0.537096
0.211085 0.205067 0.460117
0.276129 0.235338 0.494040
0.496416 0.132064 0.502426
0.622718 0.304561 0.336441
0.525324 0.336852 0.542531
0.010067 0.367861 0.444922
0.187713 0.249807 0.502129
0.410742 0.311059 0.337224
0.324954 0.441177 0.428451
0.556462 0.230169 0.571708
0.820909 0.380255 0.356989
0.197484 0.338031 0.356160
0.138952 0.540426 0.325065
0.229754 0.339475 0.570574
0.600000 0.355783 0.355783
0.517973 0.622976 0.402575
0.737043 0.442928 0.635576
0.026518 0.570618 0.569440
0.380707 0.463743 0.488041
0.387915 0.744873 0.393183
0.441073 0.673753 0.635320
0.795269 0.650140 0.556074
0.927079 0.804442 0.538020
0.255606 0.852263 0.391560
0.160913 0.913356 0.630347
0.479084 0.805453 0.635435
0.624816 0.979679 0.536463
0.762450 0.991111 0.615569
0.999535 0.990781 0.602631
0.001098 0.003642 0.768417
0.180710 0.004269 0.732292
0.364233 0.003985 0.658344
0.446664 0.076382 0.581824
0.515467 0.021965 0.625784
0.729963 0.017279 0.471414
0.038737 0.166734 0.679788
0.196710 0.219073 0.584413
0.264895 0.207393 0.626400
0.506591 0.128974 0.556924
0.543469 0.320598 0.432454
0.525651 0.246873 0.653883
0.011896 0.372998 0.607769
0.259225 0.241569 0.618433
0.422141 0.400332 0.433205
0.325349 0.452685 0.635008
0.676729 0.235365 0.687457
0.839959 0.493624 0.485252
0.214764 0.396967 0.433991
0.125168 0.551605 0.510331
0.334652 0.338661 0.686082
0.609786 0.476025 0.483368
0.541889 0.629136 0.645472
0.847119 0.462286 0.784913
0.027029 0.474530 0.684711
0.381529 0.481508 0.506097
0.296682 0.757437 0.539513
0.460413 0.613347 0.784130
0.800000 0.675623 0.675623
0.916928 0.805435 0.737497
0.158889 0.884475 0.537150
0.166073 0.854572 0.783332
0.470029 0.838005 0.742227
0.588860 0.986676 0.733171
0.776684 0.983092 0.803865
0.999942 0.997689 0.799202
0.000700 0.007004 0.940650
0.180735 0.002343 0.888607
0.362679 0.018820 0.780955
0.418912 0.093105 0.718961
0.538754 0.014163 0.740644
0.727885 0.086346 0.555576
0.051105 0.160941 0.796127
0.164778 0.228636 0.695147
0.254692 0.158236 0.741559
0.512636 0.126618 0.583848
0.452349 0.334149 0.527583
0.530826 0.148001 0.767335
0.013792 0.346984 0.742504
0.295934 0.234833 0.677619
0.364572 0.433864 0.528101
0.328552 0.377285 0.765947
0.701897 0.242110 0.711393
0.758072 0.499053 0.626166
0.230482 0.489461 0.528665
0.126791 0.563246 0.722255
0.450554 0.348487 0.807586
0.618353 0.592161 0.623503
0.567197 0.633638 0.890176
0.940045 0.481610 0.946898
0.102648 0.454176 0.805834
0.379668 0.582153 0.620866
0.293692 0.768786 0.776950
0.544401 0.633837 0.945584
0.803183 0.745709 0.871893
0.940749 0.805368 0.965424
0.057774 0.902598 0.697077
0.171121 0.806384 0.944255
0.460021 0.869007 0.879757
0.569158 0.991948 0.938599
0.787687 0.984701 0.998957
1.000000 1.000000 1.000000
