mpv/oil_slick_warm.cube
TITLE "Oil Slick Iridescent - Warm"
LUT_3D_SIZE 16
DOMAIN_MIN 0.0 0.0 0.0
DOMAIN_MAX 1.0 1.0 1.0
0.000000 0.000000 0.000000
0.065732 0.036710 0.032866
0.131464 0.081023 0.065732
0.197196 0.132683 0.098598
0.262928 0.191283 0.131464
0.328660 0.256279 0.164330
0.394392 0.259661 0.000000
0.460124 0.345497 0.000000
0.525856 0.439915 0.000000
0.591588 0.541448 0.000000
0.657320 0.648736 0.000000
0.685499 0.723052 0.000000
0.701428 0.788784 0.000000
0.714284 0.854516 0.000000
0.724289 0.920248 0.000000
0.731268 0.985980 0.000000
0.066116 0.051617 0.033058
0.066515 0.050155 0.033257
0.132247 0.101455 0.066123
0.197979 0.159501 0.098989
0.263711 0.183670 0.000000
0.329443 0.257260 0.000000
0.395175 0.340360 0.000000
0.460907 0.431529 0.000000
0.523881 0.526639 0.000000
0.551995 0.592371 0.000000
0.575619 0.658103 0.000000
0.595450 0.723835 0.000000
0.611845 0.789567 0.000000
0.624780 0.855299 0.000000
0.633834 0.921031 0.000000
0.638194 0.986763 0.000000
0.132232 0.117695 0.066116
0.132631 0.119486 0.066315
0.133029 0.108794 0.000000
0.198761 0.170001 0.000000
0.264493 0.241681 0.000000
0.330225 0.322398 0.000000
0.381149 0.395957 0.000000
0.417855 0.461689 0.000000
0.449236 0.527421 0.000000
0.476096 0.593153 0.000000
0.498922 0.658885 0.000000
0.517842 0.724617 0.000000
0.532606 0.790349 0.000000
0.542576 0.856081 0.000000
0.546746 0.921813 0.000000
0.543770 0.987545 0.000000
0.198348 0.194535 0.000000
0.195070 0.198747 0.000000
0.189297 0.199145 0.000000
0.184896 0.199544 0.000000
0.237624 0.265276 0.000000
0.283019 0.331008 0.000000
0.322236 0.396740 0.000000
0.356189 0.462472 0.000000
0.385494 0.528204 0.000000
0.410436 0.593936 0.000000
0.430929 0.659668 0.000000
0.446518 0.725400 0.000000
0.456375 0.791132 0.000000
0.459339 0.856864 0.000000
0.453948 0.922596 0.000000
0.438511 0.988328 0.000000
0.222838 0.264464 0.000000
0.213086 0.264863 0.000000
0.205161 0.265261 0.000000
0.199006 0.265660 0.000000
0.194501 0.266059 0.000000
0.235650 0.331791 0.000000
0.271509 0.397523 0.000000
0.302521 0.463255 0.000000
0.328775 0.528987 0.000000
0.349995 0.594719 0.000000
0.365540 0.660451 0.000000
0.374425 0.726183 0.000000
0.375364 0.791915 0.000000
0.366822 0.857647 0.000000
0.347084 0.923379 0.000000
0.314338 0.989111 0.000000
0.229004 0.330580 0.000000
0.218392 0.330979 0.000000
0.209840 0.331377 0.000000
0.203126 0.331776 0.000000
0.197959 0.332175 0.000000
0.193994 0.332573 0.000000
0.226073 0.398305 0.000000
0.252959 0.464037 0.000000
0.274202 0.529769 0.000000
0.289003 0.595501 0.000000
0.296249 0.661233 0.000000
0.294565 0.726965 0.000000
0.282374 0.792697 0.000000
0.257978 0.858429 0.000000
0.219639 0.924161 0.000000
0.165668 0.989893 0.000000
0.225615 0.396696 0.000000
0.215224 0.397095 0.000000
0.206697 0.397493 0.000000
0.199622 0.397892 0.000000
0.193533 0.398291 0.000000
0.187924 0.398689 0.000000
0.182274 0.399088 0.000000
0.203009 0.464820 0.000000
0.216557 0.530552 0.000000
0.221707 0.596284 0.000000
0.217026 0.662016 0.000000
0.200931 0.727748 0.000000
0.171770 0.793480 0.000000
0.127911 0.859212 0.000000
0.067824 0.924944 0.000000
0.990676 0.011806 0.000000
0.215791 0.462812 0.000000
0.205609 0.463211 0.000000
0.196594 0.463609 0.000000
0.188161 0.464008 0.000000
0.179700 0.464407 0.000000
0.170603 0.464805 0.000000
0.160277 0.465204 0.000000
0.148175 0.465603 0.000000
0.150985 0.531335 0.000000
0.143155 0.597067 0.000000
0.123127 0.662799 0.000000
0.089324 0.728531 0.000000
0.040242 0.794263 0.000000
0.859995 0.027187 0.000000
0.925727 0.110764 0.000000
0.991459 0.212880 0.000000
0.199963 0.528928 0.000000
0.188714 0.529327 0.000000
0.177459 0.529725 0.000000
0.165502 0.530124 0.000000
0.152170 0.530523 0.000000
0.136833 0.530921 0.000000
0.118930 0.531320 0.000000
0.097990 0.531719 0.000000
0.073645 0.532117 0.000000
0.049861 0.597849 0.000000
0.011737 0.663581 0.000000
0.729313 0.043540 0.000000
0.795045 0.114338 0.000000
0.860777 0.202862 0.000000
0.926509 0.309656 0.000000
0.992241 0.434880 0.000000
0.175508 0.595044 0.000000
0.160710 0.595443 0.000000
0.144395 0.595841 0.000000
0.125854 0.596240 0.000000
0.104455 0.596639 0.000000
0.079664 0.597037 0.000000
0.051064 0.597436 0.000000
0.018370 0.597835 0.000000
0.598233 0.019758 0.000000
0.598632 0.060922 0.000000
0.664364 0.118977 0.000000
0.730096 0.193945 0.000000
0.795828 0.286473 0.000000
0.861560 0.396852 0.000000
0.927292 0.524983 0.000000
0.993024 0.670364 0.000000
0.136921 0.661160 0.000000
0.115203 0.661559 0.000000
0.090339 0.661957 0.000000
0.061734 0.662356 0.000000
0.028919 0.662755 0.000000
0.663153 0.009751 0.000000
0.663552 0.051790 0.000000
0.663951 0.098522 0.000000
0.664349 0.149786 0.000000
0.664748 0.205259 0.000000
0.665147 0.264474 0.000000
0.730879 0.360023 0.000000
0.796611 0.472890 0.000000
0.862343 0.602738 0.000000
0.928075 0.748841 0.000000
0.993807 0.910098 0.000000
0.076557 0.727276 0.000000
0.044171 0.727675 0.000000
0.007180 0.728073 0.000000
0.728472 0.036232 0.000000
0.728871 0.083336 0.000000
0.729269 0.135596 0.000000
0.729668 0.192838 0.000000
0.730067 0.254715 0.000000
0.730465 0.320717 0.000000
0.730864 0.390192 0.000000
0.731263 0.462365 0.000000
0.731661 0.536368 0.000000
0.797393 0.666829 0.000000
0.863125 0.812525 0.000000
0.885517 0.928857 0.000000
0.844883 0.994589 0.000000
0.793392 0.015762 0.000000
0.793791 0.062290 0.000000
0.794189 0.114422 0.000000
0.794588 0.172170 0.000000
0.794987 0.235353 0.000000
0.795385 0.303598 0.000000
0.795784 0.376356 0.000000
0.796183 0.452920 0.000000
0.796581 0.532451 0.000000
0.796980 0.614005 0.000000
0.797379 0.696571 0.000000
0.797777 0.779098 0.000000
0.735810 0.798176 0.000000
0.710103 0.863908 0.000000
0.673171 0.929640 0.000000
0.626806 0.995372 0.000000
0.859508 0.145063 0.000000
0.859907 0.208263 0.000000
0.860305 0.277350 0.000000
0.860704 0.351929 0.000000
0.861103 0.431412 0.000000
0.861501 0.515040 0.000000
0.861900 0.601907 0.000000
0.862299 0.690998 0.000000
0.862697 0.781218 0.000000
0.854759 0.863096 0.000000
0.766478 0.863495 0.000000
0.680426 0.863893 0.000000
0.597614 0.864292 0.000000
0.518940 0.864691 0.000000
0.477922 0.930423 0.000000
0.430324 0.996155 0.000000
0.925624 0.318845 0.000000
0.926023 0.399725 0.000000
0.926421 0.485904 0.000000
0.926820 0.576569 0.000000
0.927219 0.670754 0.000000
0.927617 0.767366 0.000000
0.928016 0.865232 0.000000
0.893697 0.928415 0.000000
0.797778 0.928813 0.000000
0.704220 0.929212 0.000000
0.614114 0.929611 0.000000
0.528431 0.930009 0.000000
0.447984 0.930408 0.000000
0.373400 0.930807 0.000000
0.305098 0.931205 0.000000
0.259546 0.996937 0.000000
0.991740 0.539841 0.000000
0.992139 0.637520 0.000000
0.992537 0.739002 0.000000
0.992936 0.843122 0.000000
0.993335 0.948627 0.000000
0.933256 0.993733 0.000000
0.829694 0.994132 0.000000
0.728620 0.994531 0.000000
0.631205 0.994929 0.000000
0.538492 0.995328 0.000000
0.451359 0.995727 0.000000
0.370483 0.996125 0.000000
0.296323 0.996524 0.000000
0.229096 0.996923 0.000000
0.168777 0.997321 0.000000
0.115094 0.997720 0.000000
0.065485 0.056012 0.032743
0.065884 0.065679 0.032942
0.118990 0.131616 0.065808
0.164649 0.197348 0.098674
0.203510 0.263080 0.131540
0.143481 0.328812 0.000000
0.131905 0.394544 0.000000
0.110658 0.460276 0.000000
0.081224 0.526008 0.000000
0.045035 0.591740 0.000000
0.003393 0.657472 0.000000
0.723204 0.044056 0.000000
0.788936 0.093736 0.000000
0.854668 0.146487 0.000000
0.920400 0.202210 0.000000
0.986132 0.261210 0.000000
0.066268 0.058695 0.033134
0.066667 0.066667 0.066667
0.132399 0.115571 0.099299
0.198131 0.117743 0.000000
0.263863 0.182327 0.000000
0.329595 0.257473 0.000000
0.395327 0.341747 0.000000
0.461059 0.433728 0.000000
0.521488 0.526791 0.000000
0.549351 0.592523 0.000000
0.572878 0.658255 0.000000
0.592664 0.723987 0.000000
0.608946 0.789719 0.000000
0.621580 0.855451 0.000000
0.630024 0.921183 0.000000
0.633349 0.986915 0.000000
0.132384 0.126029 0.066192
0.132783 0.124159 0.019917
0.133181 0.116659 0.019977
0.198913 0.171311 0.000000
0.264645 0.242687 0.000000
0.330377 0.323659 0.000000
0.379895 0.396109 0.000000
0.416391 0.461841 0.000000
0.447650 0.527573 0.000000
0.474419 0.593305 0.000000
0.497098 0.659037 0.000000
0.515715 0.724769 0.000000
0.529910 0.790501 0.000000
0.538939 0.856233 0.000000
0.541699 0.921965 0.000000
0.536764 0.987697 0.000000
0.184091 0.198500 0.000000
0.177462 0.198899 0.000000
0.177708 0.199297 0.000000
0.179357 0.199696 0.000000
0.234587 0.265428 0.000000
0.280922 0.331160 0.000000
0.320567 0.396892 0.000000
0.354721 0.462624 0.000000
0.384062 0.528356 0.000000
0.408841 0.594088 0.000000
0.428907 0.659820 0.000000
0.443720 0.725552 0.000000
0.452371 0.791284 0.000000
0.453619 0.857016 0.000000
0.445947 0.922748 0.000000
0.427626 0.988480 0.000000
0.203690 0.264616 0.000000
0.194614 0.265015 0.000000
0.191033 0.265413 0.000000
0.189195 0.265812 0.000000
0.188957 0.266211 0.000000
0.232100 0.331943 0.000000
0.268934 0.397675 0.000000
0.300361 0.463407 0.000000
0.326603 0.529139 0.000000
0.347393 0.594871 0.000000
0.362057 0.660603 0.000000
0.369561 0.726335 0.000000
0.368572 0.792067 0.000000
0.357522 0.857799 0.000000
0.334686 0.923531 0.000000
0.298263 0.989263 0.000000
0.209491 0.330732 0.000000
0.199668 0.331131 0.000000
0.194589 0.331529 0.000000
0.191250 0.331928 0.000000
0.189340 0.332327 0.000000
0.188493 0.332725 0.000000
0.221920 0.398457 0.000000
0.249258 0.464189 0.000000
0.270276 0.529921 0.000000
0.284246 0.595653 0.000000
0.290067 0.661385 0.000000
0.286360 0.727117 0.000000
0.271549 0.792849 0.000000
0.243953 0.858581 0.000000
0.201872 0.924313 0.000000
0.143681 0.990045 0.000000
0.206199 0.396848 0.000000
0.196548 0.397247 0.000000
0.190818 0.397645 0.000000
0.186372 0.398044 0.000000
0.182727 0.398443 0.000000
0.179370 0.398841 0.000000
0.175775 0.399240 0.000000
0.196867 0.464972 0.000000
0.209881 0.530704 0.000000
0.213746 0.596436 0.000000
0.207097 0.662168 0.000000
0.188404 0.727900 0.000000
0.156066 0.793632 0.000000
0.108518 0.859364 0.000000
0.044317 0.925096 0.000000
0.990828 0.039748 0.000000
0.196525 0.462964 0.000000
0.186842 0.463363 0.000000
0.179945 0.463761 0.000000
0.173402 0.464160 0.000000
0.166602 0.464559 0.000000
0.158939 0.464957 0.000000
0.149836 0.465356 0.000000
0.138764 0.465755 0.000000
0.140710 0.531487 0.000000
0.131176 0.597219 0.000000
0.108735 0.662951 0.000000
0.071919 0.728683 0.000000
0.019327 0.794415 0.000000
0.860147 0.051996 0.000000
0.925879 0.139729 0.000000
0.991611 0.246127 0.000000
0.180420 0.529080 0.000000
0.169240 0.529479 0.000000
0.159363 0.529877 0.000000
0.148526 0.530276 0.000000
0.136069 0.530675 0.000000
0.121386 0.531073 0.000000
0.103950 0.531472 0.000000
0.083324 0.531871 0.000000
0.059186 0.532269 0.000000
0.033396 0.598001 0.000000
0.663733 0.008734 0.000000
0.729465 0.065877 0.000000
0.795197 0.140234 0.000000
0.860929 0.232537 0.000000
0.926661 0.343182 0.000000
0.992393 0.472181 0.000000
0.154788 0.595196 0.000000
0.139489 0.595595 0.000000
0.123773 0.595993 0.000000
0.105582 0.596392 0.000000
0.084318 0.596791 0.000000
0.059491 0.597189 0.000000
0.030732 0.597588 0.000000
0.597987 0.003388 0.000000
0.598385 0.040563 0.000000
0.598784 0.081928 0.000000
0.664516 0.142692 0.000000
0.730248 0.220758 0.000000
0.795980 0.316591 0.000000
0.861712 0.430316 0.000000
0.927444 0.561679 0.000000
0.993176 0.710029 0.000000
0.113760 0.661312 0.000000
0.090911 0.661711 0.000000
0.065900 0.662109 0.000000
0.036954 0.662508 0.000000
0.003661 0.662907 0.000000
0.663305 0.035568 0.000000
0.663704 0.078184 0.000000
0.664103 0.125449 0.000000
0.664501 0.177139 0.000000
0.664900 0.232876 0.000000
0.665299 0.292139 0.000000
0.731031 0.390408 0.000000
0.796763 0.506042 0.000000
0.862495 0.638533 0.000000
0.928227 0.787005 0.000000
0.993959 0.950231 0.000000
0.049514 0.727428 0.000000
0.015417 0.727827 0.000000
0.728225 0.023796 0.000000
0.728624 0.066608 0.000000
0.729023 0.114591 0.000000
0.729421 0.167683 0.000000
0.729820 0.225643 0.000000
0.730219 0.288061 0.000000
0.730617 0.354370 0.000000
0.731016 0.423868 0.000000
0.731415 0.495742 0.000000
0.731813 0.569096 0.000000
0.797545 0.701560 0.000000
0.863277 0.849005 0.000000
0.847971 0.929009 0.000000
0.806437 0.994741 0.000000
0.793544 0.048058 0.000000
0.793943 0.096716 0.000000
0.794341 0.150004 0.000000
0.794740 0.208862 0.000000
0.795139 0.273032 0.000000
0.795537 0.342074 0.000000
0.795936 0.415376 0.000000
0.796335 0.492177 0.000000
0.796733 0.571595 0.000000
0.797132 0.652656 0.000000
0.797531 0.734329 0.000000
0.780297 0.797929 0.000000
0.701336 0.798328 0.000000
0.674852 0.864060 0.000000
0.637559 0.929792 0.000000
0.591298 0.995524 0.000000
0.859660 0.183656 0.000000
0.860059 0.249142 0.000000
0.860457 0.319469 0.000000
0.860856 0.395085 0.000000
0.861255 0.475333 0.000000
0.861653 0.559396 0.000000
0.862052 0.646321 0.000000
0.862451 0.735059 0.000000
0.862849 0.824495 0.000000
0.813004 0.863248 0.000000
0.726366 0.863647 0.000000
0.642354 0.864045 0.000000
0.561942 0.864444 0.000000
0.485973 0.864843 0.000000
0.445487 0.930575 0.000000
0.398804 0.996307 0.000000
0.925776 0.364221 0.000000
0.926175 0.447212 0.000000
0.926573 0.534365 0.000000
0.926972 0.625652 0.000000
0.927371 0.720054 0.000000
0.927769 0.816443 0.000000
0.928168 0.913623 0.000000
0.846764 0.928567 0.000000
0.752456 0.928965 0.000000
0.660937 0.929364 0.000000
0.573258 0.929763 0.000000
0.490333 0.930161 0.000000
0.412906 0.930560 0.000000
0.341528 0.930959 0.000000
0.276536 0.931357 0.000000
0.232416 0.997089 0.000000
0.991892 0.591774 0.000000
0.992291 0.691038 0.000000
0.992689 0.792888 0.000000
0.993088 0.896907 0.000000
0.985160 0.993487 0.000000
0.881470 0.993885 0.000000
0.779495 0.994284 0.000000
0.680468 0.994683 0.000000
0.585516 0.995081 0.000000
0.495622 0.995480 0.000000
0.411592 0.995879 0.000000
0.334023 0.996277 0.000000
0.263280 0.996676 0.000000
0.199492 0.997075 0.000000
0.142537 0.997473 0.000000
0.092051 0.997872 0.000000
0.130971 0.114944 0.065485
0.131369 0.128387 0.065685
0.121777 0.131768 0.065884
0.166151 0.197500 0.098750
0.203879 0.263232 0.131616
0.142157 0.328964 0.000000
0.129059 0.394696 0.000000
0.106690 0.460428 0.000000
0.076517 0.526160 0.000000
0.039930 0.591892 0.000000
0.657624 0.003147 0.000000
0.723356 0.049213 0.000000
0.789088 0.098742 0.000000
0.854820 0.151375 0.000000
0.920552 0.207141 0.000000
0.986284 0.266472 0.000000
0.131753 0.125019 0.065877
0.129130 0.132152 0.099114
0.120492 0.132551 0.099413
0.089696 0.198283 0.000000
0.087211 0.264015 0.000000
0.075467 0.329747 0.000000
0.055340 0.395479 0.000000
0.028036 0.461211 0.000000
0.526943 0.006306 0.000000
0.592675 0.044678 0.000000
0.658407 0.087217 0.000000
0.724139 0.133451 0.000000
0.789871 0.183269 0.000000
0.855603 0.236942 0.000000
0.921335 0.295134 0.000000
0.987067 0.358886 0.000000
0.130740 0.132536 0.066268
0.118495 0.132935 0.019940
0.133333 0.125942 0.106667
0.199065 0.175195 0.072991
0.264797 0.240383 0.039720
0.330529 0.319314 0.006611
0.383418 0.396261 0.000000
0.418992 0.461993 0.000000
0.449600 0.527725 0.000000
0.475849 0.593457 0.000000
0.498009 0.659189 0.000000
0.515977 0.724921 0.000000
0.529270 0.790653 0.000000
0.537032 0.856385 0.000000
0.538060 0.922117 0.000000
0.530850 0.987849 0.000000
0.166180 0.198652 0.000000
0.154502 0.199051 0.000000
0.171447 0.199449 0.073131
0.183485 0.199848 0.073278
0.236164 0.265580 0.005976
0.282791 0.331312 0.000000
0.322504 0.397044 0.000000
0.356474 0.462776 0.000000
0.385487 0.528508 0.000000
0.409764 0.594240 0.000000
0.429078 0.659972 0.000000
0.442798 0.725704 0.000000
0.449928 0.791436 0.000000
0.449156 0.857168 0.000000
0.438906 0.922900 0.000000
0.417420 0.988632 0.000000
0.184790 0.264768 0.000000
0.172708 0.265167 0.000000
0.171930 0.265565 0.005975
0.177943 0.265964 0.005984
0.185473 0.266363 0.005993
0.230597 0.332095 0.000000
0.268749 0.397827 0.000000
0.300536 0.463559 0.000000
0.326576 0.529291 0.000000
0.346697 0.595023 0.000000
0.360216 0.660755 0.000000
0.366067 0.726487 0.000000
0.362879 0.792219 0.000000
0.349059 0.857951 0.000000
0.322878 0.923683 0.000000
0.282559 0.989415 0.000000
0.190279 0.330884 0.000000
0.178462 0.331283 0.000000
0.174056 0.331681 0.000000
0.175887 0.332080 0.000000
0.179023 0.332479 0.000000
0.183084 0.332877 0.000000
0.218909 0.398609 0.000000
0.246984 0.464341 0.000000
0.267776 0.530073 0.000000
0.280789 0.595805 0.000000
0.285001 0.661537 0.000000
0.279063 0.727269 0.000000
0.261424 0.793001 0.000000
0.230430 0.858733 0.000000
0.184433 0.924465 0.000000
0.121880 0.990197 0.000000
0.187074 0.397000 0.000000
0.175904 0.397399 0.000000
0.170700 0.397797 0.000000
0.169915 0.398196 0.000000
0.169745 0.398595 0.000000
0.169669 0.398993 0.000000
0.169162 0.399392 0.000000
0.191247 0.465124 0.000000
0.203926 0.530856 0.000000
0.206511 0.596588 0.000000
0.197811 0.662320 0.000000
0.176398 0.728052 0.000000
0.140756 0.793784 0.000000
0.089405 0.859516 0.000000
0.021002 0.925248 0.000000
0.990980 0.067550 0.000000
0.177469 0.463116 0.000000
0.166365 0.463515 0.000000
0.159660 0.463913 0.000000
0.155653 0.464312 0.000000
0.151160 0.464711 0.000000
0.145584 0.465109 0.000000
0.138364 0.465508 0.000000
0.128995 0.465907 0.000000
0.130493 0.531639 0.000000
0.119408 0.597371 0.000000
0.094589 0.663103 0.000000
0.054741 0.728835 0.000000
0.794567 0.002981 0.000000
0.860299 0.076631 0.000000
0.926031 0.168514 0.000000
0.991763 0.279154 0.000000
0.160931 0.529232 0.000000
0.148143 0.529631 0.000000
0.137967 0.530029 0.000000
0.128677 0.530428 0.000000
0.117532 0.530827 0.000000
0.103954 0.531225 0.000000
0.087446 0.531624 0.000000
0.067615 0.532023 0.000000
0.044182 0.532421 0.000000
0.016705 0.598153 0.000000
0.663885 0.027940 0.000000
0.729617 0.088181 0.000000
0.795349 0.166025 0.000000
0.861081 0.262032 0.000000
0.926813 0.376433 0.000000
0.992545 0.509081 0.000000
0.133907 0.595348 0.000000
0.116621 0.595747 0.000000
0.100026 0.596145 0.000000
0.082491 0.596544 0.000000
0.061685 0.596943 0.000000
0.037161 0.597341 0.000000
0.008603 0.597740 0.000000
0.598139 0.025363 0.000000
0.598537 0.062377 0.000000
0.598936 0.103517 0.000000
0.664668 0.166690 0.000000
0.730400 0.247640 0.000000
0.796132 0.346604 0.000000
0.861864 0.463508 0.000000
0.927596 0.597926 0.000000
0.993328 0.749055 0.000000
0.090195 0.661464 0.000000
0.064894 0.661863 0.000000
0.038431 0.662261 0.000000
0.009390 0.662660 0.000000
0.663059 0.025440 0.000000
0.663457 0.063611 0.000000
0.663856 0.106488 0.000000
0.664255 0.153946 0.000000
0.664653 0.205700 0.000000
0.665052 0.261316 0.000000
0.665451 0.320226 0.000000
0.731183 0.420891 0.000000
0.796915 0.539022 0.000000
0.862647 0.673910 0.000000
0.928379 0.824513 0.000000
0.994111 0.989474 0.000000
0.021838 0.727580 0.000000
0.727979 0.016596 0.000000
0.728377 0.056264 0.000000
0.728776 0.099704 0.000000
0.729175 0.148311 0.000000
0.729573 0.201955 0.000000
0.729972 0.260329 0.000000
0.730371 0.322960 0.000000
0.730769 0.389228 0.000000
0.731168 0.458385 0.000000
0.731567 0.529583 0.000000
0.731965 0.601902 0.000000
0.797697 0.736020 0.000000
0.841947 0.863429 0.000000
0.811273 0.929161 0.000000
0.769092 0.994893 0.000000
0.793696 0.081161 0.000000
0.794095 0.132971 0.000000
0.794493 0.188408 0.000000
0.794892 0.248137 0.000000
0.795291 0.313031 0.000000
0.795689 0.382580 0.000000
0.796088 0.456115 0.000000
0.796487 0.532824 0.000000
0.796885 0.611786 0.000000
0.797284 0.692002 0.000000
0.797683 0.772428 0.000000
0.744149 0.798081 0.000000
0.667219 0.798480 0.000000
0.640297 0.864212 0.000000
0.602931 0.929944 0.000000
0.557019 0.995676 0.000000
0.859812 0.223134 0.000000
0.860211 0.291783 0.000000
0.860609 0.364201 0.000000
0.861008 0.440591 0.000000
0.861407 0.521319 0.000000
0.861805 0.605511 0.000000
0.862204 0.692174 0.000000
0.862603 0.780229 0.000000
0.857454 0.863001 0.000000
0.770804 0.863400 0.000000
0.686132 0.863799 0.000000
0.604470 0.864197 0.000000
0.526747 0.864596 0.000000
0.453751 0.864995 0.000000
0.414077 0.930727 0.000000
0.368523 0.996459 0.000000
0.925928 0.410434 0.000000
0.926327 0.496282 0.000000
0.926725 0.585130 0.000000
0.927124 0.676749 0.000000
0.927523 0.771063 0.000000
0.927921 0.866913 0.000000
0.893553 0.928320 0.000000
0.799076 0.928719 0.000000
0.706687 0.929117 0.000000
0.617502 0.929516 0.000000
0.532525 0.929915 0.000000
0.452607 0.930313 0.000000
0.378424 0.930712 0.000000
0.310444 0.931111 0.000000
0.248920 0.931509 0.000000
0.206400 0.997241 0.000000
0.992044 0.644361 0.000000
0.992443 0.745839 0.000000
0.992841 0.848670 0.000000
0.993240 0.952278 0.000000
0.931000 0.993639 0.000000
0.828718 0.994037 0.000000
0.728631 0.994436 0.000000
0.631936 0.994835 0.000000
0.539711 0.995233 0.000000
0.452876 0.995632 0.000000
0.372158 0.996031 0.000000
0.298069 0.996429 0.000000
0.230885 0.996828 0.000000
0.170639 0.997227 0.000000
0.117116 0.997625 0.000000
0.069863 0.998024 0.000000
0.196456 0.176782 0.098228
0.196855 0.193958 0.098427
0.183576 0.197253 0.098627
0.167721 0.197652 0.098826
0.145323 0.263384 0.000000
0.141128 0.329116 0.000000
0.126597 0.394848 0.000000
0.103188 0.460580 0.000000
0.072344 0.526312 0.000000
0.035409 0.592044 0.000000
0.657776 0.007769 0.000000
0.723508 0.053777 0.000000
0.789240 0.103201 0.000000
0.854972 0.155802 0.000000
0.920704 0.211734 0.000000
0.986436 0.271554 0.000000
0.197239 0.194093 0.098619
0.188911 0.197637 0.131758
0.134733 0.198036 0.000000
0.099000 0.198435 0.000000
0.092886 0.264167 0.000000
0.078821 0.329899 0.000000
0.057110 0.395631 0.000000
0.028738 0.461363 0.000000
0.527095 0.006296 0.000000
0.592827 0.045102 0.000000
0.658559 0.087939 0.000000
0.724291 0.134460 0.000000
0.790023 0.184679 0.000000
0.855755 0.238995 0.000000
0.921487 0.298190 0.000000
0.987219 0.363410 0.000000
0.173927 0.198021 0.000000
0.149243 0.198420 0.000000
0.145540 0.198819 0.072900
0.114074 0.199217 0.073046
0.076618 0.264949 0.039742
0.021421 0.330681 0.000000
0.396413 0.006199 0.000000
0.462145 0.038064 0.000000
0.527877 0.074390 0.000000
0.593609 0.114829 0.000000
0.659341 0.159304 0.000000
0.725073 0.208075 0.000000
0.790805 0.261764 0.000000
0.856537 0.321347 0.000000
0.922269 0.388128 0.000000
0.988001 0.463686 0.000000
0.148436 0.198804 0.000000
0.131710 0.199203 0.000000
0.146854 0.199601 0.073187
0.200000 0.199569 0.160000
0.257068 0.265732 0.105296
0.300556 0.331464 0.057012
0.332820 0.397196 0.008937
0.363626 0.462928 0.000000
0.391311 0.528660 0.000000
0.414345 0.594392 0.000000
0.432311 0.660124 0.000000
0.444432 0.725856 0.000000
0.449594 0.791588 0.000000
0.446394 0.857320 0.000000
0.433197 0.923052 0.000000
0.408211 0.988784 0.000000
0.166140 0.264920 0.000000
0.151043 0.265319 0.000000
0.144165 0.265717 0.005979
0.194850 0.266116 0.105448
0.213345 0.266515 0.105606
0.250808 0.332247 0.057146
0.275947 0.397979 0.008955
0.304670 0.463711 0.000000
0.329919 0.529443 0.000000
0.348847 0.595175 0.000000
0.360759 0.660907 0.000000
0.364539 0.726639 0.000000
0.358773 0.792371 0.000000
0.341842 0.858103 0.000000
0.312013 0.923835 0.000000
0.267533 0.989567 0.000000
0.171360 0.331036 0.000000
0.157515 0.331435 0.000000
0.149139 0.331833 0.000000
0.182569 0.332232 0.057144
0.193183 0.332631 0.057212
0.204452 0.333029 0.057281
0.222185 0.398761 0.008972
0.247210 0.464493 0.000000
0.267611 0.530225 0.000000
0.279379 0.595957 0.000000
0.281668 0.661689 0.000000
0.273193 0.727421 0.000000
0.252438 0.793153 0.000000
0.217791 0.858885 0.000000
0.167661 0.924617 0.000000
0.100572 0.990349 0.000000
0.168223 0.397152 0.000000
0.155473 0.397551 0.000000
0.147415 0.397949 0.000000
0.152560 0.398348 0.008963
0.157884 0.398747 0.008972
0.163115 0.399145 0.008981
0.167742 0.399544 0.008990
0.186673 0.465276 0.000000
0.199294 0.531008 0.000000
0.200565 0.596740 0.000000
0.189668 0.662472 0.000000
0.165356 0.728204 0.000000
0.126233 0.793936 0.000000
0.070926 0.859668 0.000000
0.925400 0.003647 0.000000
0.991132 0.094909 0.000000
0.158593 0.463268 0.000000
0.145983 0.463667 0.000000
0.136805 0.464065 0.000000
0.132666 0.464464 0.000000
0.131681 0.464863 0.000000
