mpv/oil_slick_warm.cube
TITLE "Oil Slick Iridescent - Warm"
LUT_3D_SIZE 6
DOMAIN_MIN 0.0 0.0 0.0
DOMAIN_MAX 1.0 1.0 1.0
0.000000 0.000000 0.000000
0.197196 0.132683 0.098598
0.394392 0.259661 0.000000
0.591588 0.541448 0.000000
0.701428 0.788784 0.000000
0.731268 0.985980 0.000000
0.198348 0.194535 0.000000
0.184896 0.199544 0.000000
0.322236 0.396740 0.000000
0.410436 0.593936 0.000000
0.456375 0.791132 0.000000
0.438511 0.988328 0.000000
0.225615 0.396696 0.000000
0.199622 0.397892 0.000000
0.182274 0.399088 0.000000
0.221707 0.596284 0.000000
0.171770 0.793480 0.000000
0.990676 0.011806 0.000000
0.175508 0.595044 0.000000
0.125854 0.596240 0.000000
0.051064 0.597436 0.000000
0.598632 0.060922 0.000000
0.795828 0.286473 0.000000
0.993024 0.670364 0.000000
0.793392 0.015762 0.000000
0.794588 0.172170 0.000000
0.795784 0.376356 0.000000
0.796980 0.614005 0.000000
0.735810 0.798176 0.000000
0.626806 0.995372 0.000000
0.991740 0.539841 0.000000
0.992936 0.843122 0.000000
0.829694 0.994132 0.000000
0.538492 0.995328 0.000000
0.296323 0.996524 0.000000
0.115094 0.997720 0.000000
0.196456 0.176782 0.098228
0.167721 0.197652 0.098826
0.126597 0.394848 0.000000
0.035409 0.592044 0.000000
0.789240 0.103201 0.000000
0.986436 0.271554 0.000000
0.148436 0.198804 0.000000
0.200000 0.199569 0.160000
0.332820 0.397196 0.008937
0.414345 0.594392 0.000000
0.449594 0.791588 0.000000
0.408211 0.988784 0.000000
0.168223 0.397152 0.000000
0.152560 0.398348 0.008963
0.167742 0.399544 0.008990
0.200565 0.596740 0.000000
0.126233 0.793936 0.000000
0.991132 0.094909 0.000000
0.112824 0.595500 0.000000
0.055367 0.596696 0.000000
0.597892 0.017118 0.000000
0.599088 0.125672 0.000000
0.796284 0.376262 0.000000
0.993480 0.787186 0.000000
0.793848 0.115082 0.000000
0.795044 0.290578 0.000000
0.796240 0.498928 0.000000
0.797436 0.732186 0.000000
0.633509 0.798632 0.000000
0.524097 0.995828 0.000000
0.992196 0.697544 0.000000
0.977255 0.993392 0.000000
0.676891 0.994588 0.000000
0.410107 0.995784 0.000000
0.199042 0.996980 0.000000
0.048490 0.998176 0.000000
0.392912 0.379448 0.196456
0.260964 0.394108 0.000000
0.121588 0.395304 0.000000
0.025206 0.592500 0.000000
0.789696 0.113755 0.000000
0.986892 0.286441 0.000000
0.223805 0.395260 0.000000
0.114022 0.396456 0.008920
0.397652 0.030600 0.008947
0.594848 0.159971 0.000000
0.792044 0.342104 0.000000
0.989240 0.611750 0.000000
0.113091 0.397608 0.000000
0.069000 0.398804 0.008973
0.355752 0.400000 0.308000
0.313721 0.597196 0.162238
0.111117 0.794392 0.017874
0.991588 0.169426 0.000000
0.047947 0.595956 0.000000
0.597152 0.037478 0.000000
0.598348 0.252069 0.162551
0.599544 0.305136 0.162876
0.796740 0.466183 0.017927
0.993936 0.892451 0.000000
0.794304 0.221798 0.000000
0.795500 0.426603 0.000000
0.796696 0.650717 0.017926
0.735991 0.797892 0.017953
0.541246 0.799088 0.017979
0.446493 0.996284 0.019926
0.992652 0.860050 0.000000
0.803586 0.993848 0.000000
0.512478 0.995044 0.000000
0.293267 0.996240 0.019925
0.123049 0.997436 0.019949
0.998632 0.032928 0.019973
0.571867 0.589368 0.294684
0.342173 0.590564 0.000000
0.163312 0.591760 0.000000
0.019634 0.592956 0.000000
0.790152 0.121113 0.000000
0.987348 0.302303 0.000000
0.266558 0.591716 0.000000
0.121883 0.592912 0.000000
0.594108 0.014035 0.000000
0.595304 0.139736 0.000000
0.792500 0.345824 0.000000
0.989696 0.650485 0.000000
0.105404 0.594064 0.000000
0.013001 0.595260 0.000000
0.596456 0.252528 0.162037
0.597652 0.408671 0.162362
0.794848 0.718023 0.017884
0.756108 0.992044 0.000000
0.596412 0.021351 0.000000
0.597608 0.134329 0.000000
0.598804 0.369622 0.162675
0.600000 0.500938 0.462000
0.797196 0.617014 0.315889
0.994392 0.972256 0.171035
0.794760 0.335866 0.000000
0.795956 0.568347 0.000000
0.774580 0.797152 0.017936
0.656800 0.798348 0.316345
0.583922 0.799544 0.316819
0.544918 0.996740 0.279087
0.960631 0.993108 0.000000
0.631953 0.994304 0.000000
0.340702 0.995500 0.000000
0.371905 0.996696 0.279075
0.283736 0.997892 0.279410
0.999088 0.328323 0.279745
0.714396 0.785824 0.392912
0.386705 0.787020 0.000000
0.177845 0.788216 0.000000
0.012977 0.789412 0.000000
0.790608 0.126736 0.000000
0.987804 0.321045 0.000000
0.281898 0.788172 0.000000
0.115793 0.789368 0.000000
0.790564 0.035299 0.000000
0.791760 0.182897 0.000000
0.792956 0.355089 0.000000
0.990152 0.698262 0.000000
0.079649 0.790520 0.000000
0.791716 0.046977 0.000000
0.792912 0.230604 0.017841
0.794108 0.461324 0.017867
0.795304 0.740722 0.017894
0.683793 0.992500 0.000000
0.792868 0.113310 0.000000
0.794064 0.292278 0.000000
0.795260 0.537870 0.017893
0.759700 0.796456 0.315596
0.512526 0.797652 0.316070
0.994848 0.185271 0.171114
0.795216 0.456909 0.000000
0.796412 0.714677 0.000000
0.605681 0.797608 0.017946
0.515713 0.798804 0.316526
0.737789 0.800000 0.640000
0.707577 0.997196 0.538486
0.794888 0.993564 0.000000
0.464199 0.994760 0.000000
0.176574 0.995956 0.000000
0.997152 0.309225 0.279203
0.998348 0.604885 0.539108
0.999544 0.594007 0.539754
0.690316 0.982280 0.000000
0.400124 0.983476 0.000000
0.169943 0.984672 0.000000
0.985868 0.013566 0.000000
0.987064 0.173126 0.000000
0.988260 0.344442 0.000000
0.274584 0.984628 0.000000
0.091774 0.985824 0.000000
0.987020 0.078080 0.000000
0.988216 0.256492 0.000000
0.989412 0.476119 0.000000
0.990608 0.755163 0.000000
0.035351 0.986976 0.000000
0.988172 0.127474 0.000000
0.989368 0.345014 0.000000
0.990564 0.635350 0.000000
0.991760 0.985528 0.000000
0.607919 0.992956 0.000000
0.989324 0.238712 0.000000
0.990520 0.488143 0.000000
0.991716 0.808644 0.000000
0.821574 0.992912 0.170781
0.466193 0.994108 0.170987
0.995304 0.215894 0.171192
0.991672 0.719896 0.000000
0.922683 0.992868 0.000000
0.562212 0.994064 0.000000
0.343264 0.995260 0.171185
0.996456 0.609924 0.538086
0.997652 0.787474 0.538732
0.629984 0.994020 0.000000
0.301987 0.995216 0.000000
0.040453 0.996412 0.019928
0.997608 0.424452 0.279330
0.998804 0.708101 0.539354
1.000000 0.800000 0.800000
