mpv/oil_slick_cold.cube
TITLE "Oil Slick Iridescent - Cold"
LUT_3D_SIZE 16
DOMAIN_MIN 0.0 0.0 0.0
DOMAIN_MAX 1.0 1.0 1.0
0.000000 0.000000 0.000000
0.032866 0.061888 0.065732
0.065732 0.116173 0.131464
0.098598 0.163111 0.197196
0.131464 0.203109 0.262928
0.164330 0.236711 0.328660
0.000000 0.134731 0.394392
0.000000 0.114627 0.460124
0.000000 0.085941 0.525856
0.000000 0.050140 0.591588
0.000000 0.008584 0.657320
0.037553 0.000000 0.723052
0.087356 0.000000 0.788784
0.140232 0.000000 0.854516
0.195959 0.000000 0.920248
0.254712 0.000000 0.985980
0.033058 0.047557 0.066116
0.033257 0.049617 0.066515
0.066123 0.096915 0.132247
0.098989 0.137467 0.197979
0.000000 0.080041 0.263711
0.000000 0.072183 0.329443
0.000000 0.054815 0.395175
0.000000 0.029378 0.460907
0.002758 0.000000 0.526639
0.040375 0.000000 0.592371
0.082484 0.000000 0.658103
0.128384 0.000000 0.723835
0.177722 0.000000 0.789567
0.230519 0.000000 0.855299
0.287196 0.000000 0.921031
0.348569 0.000000 0.986763
0.066116 0.080653 0.132232
0.066315 0.079460 0.132631
0.000000 0.024235 0.133029
0.000000 0.028761 0.198761
0.000000 0.022812 0.264493
0.000000 0.007828 0.330225
0.014808 0.000000 0.395957
0.043835 0.000000 0.461689
0.078186 0.000000 0.527421
0.117057 0.000000 0.593153
0.159964 0.000000 0.658885
0.206775 0.000000 0.724617
0.257744 0.000000 0.790349
0.313505 0.000000 0.856081
0.375068 0.000000 0.921813
0.443775 0.000000 0.987545
0.000000 0.003813 0.198348
0.003676 0.000000 0.198747
0.009849 0.000000 0.199145
0.014648 0.000000 0.199544
0.027652 0.000000 0.265276
0.047989 0.000000 0.331008
0.074504 0.000000 0.396740
0.106283 0.000000 0.462472
0.142710 0.000000 0.528204
0.183500 0.000000 0.593936
0.228739 0.000000 0.659668
0.278882 0.000000 0.725400
0.334757 0.000000 0.791132
0.397525 0.000000 0.856864
0.468648 0.000000 0.922596
0.549817 0.000000 0.988328
0.041626 0.000000 0.264464
0.051776 0.000000 0.264863
0.060100 0.000000 0.265261
0.066654 0.000000 0.265660
0.071558 0.000000 0.266059
0.096141 0.000000 0.331791
0.126014 0.000000 0.397523
0.160734 0.000000 0.463255
0.200211 0.000000 0.528987
0.244723 0.000000 0.594719
0.294911 0.000000 0.660451
0.351757 0.000000 0.726183
0.416550 0.000000 0.791915
0.490825 0.000000 0.857647
0.576295 0.000000 0.923379
0.674773 0.000000 0.989111
0.101576 0.000000 0.330580
0.112587 0.000000 0.330979
0.121537 0.000000 0.331377
0.128650 0.000000 0.331776
0.134215 0.000000 0.332175
0.138580 0.000000 0.332573
0.172232 0.000000 0.398305
0.211078 0.000000 0.464037
0.255567 0.000000 0.529769
0.306499 0.000000 0.595501
0.364984 0.000000 0.661233
0.432401 0.000000 0.726965
0.510323 0.000000 0.792697
0.600451 0.000000 0.858429
0.704522 0.000000 0.924161
0.824225 0.000000 0.989893
0.171081 0.000000 0.396696
0.181871 0.000000 0.397095
0.190796 0.000000 0.397493
0.198270 0.000000 0.397892
0.204758 0.000000 0.398291
0.210765 0.000000 0.398689
0.216814 0.000000 0.399088
0.261811 0.000000 0.464820
0.313995 0.000000 0.530552
0.374577 0.000000 0.596284
0.444990 0.000000 0.662016
0.526817 0.000000 0.727748
0.621710 0.000000 0.793480
0.731301 0.000000 0.859212
0.857120 0.000000 0.924944
0.000000 0.978870 0.990676
0.247021 0.000000 0.462812
0.257602 0.000000 0.463211
0.267015 0.000000 0.463609
0.275847 0.000000 0.464008
0.284706 0.000000 0.464407
0.294203 0.000000 0.464805
0.304927 0.000000 0.465204
0.317428 0.000000 0.465603
0.380350 0.000000 0.531335
0.453911 0.000000 0.597067
0.539672 0.000000 0.662799
0.639207 0.000000 0.728531
0.754021 0.000000 0.794263
0.000000 0.832808 0.859995
0.000000 0.814963 0.925727
0.000000 0.778579 0.991459
0.328965 0.000000 0.528928
0.340613 0.000000 0.529327
0.352266 0.000000 0.529725
0.364622 0.000000 0.530124
0.378353 0.000000 0.530523
0.394089 0.000000 0.530921
0.412390 0.000000 0.531320
0.433728 0.000000 0.531719
0.458473 0.000000 0.532117
0.547989 0.000000 0.597849
0.651845 0.000000 0.663581
0.000000 0.685773 0.729313
0.000000 0.680708 0.795045
0.000000 0.657916 0.860777
0.000000 0.616854 0.926509
0.000000 0.557361 0.992241
0.419536 0.000000 0.595044
0.434732 0.000000 0.595443
0.451446 0.000000 0.595841
0.470386 0.000000 0.596240
0.492184 0.000000 0.596639
0.517373 0.000000 0.597037
0.546372 0.000000 0.597436
0.579465 0.000000 0.597835
0.000000 0.578476 0.598233
0.000000 0.537710 0.598632
0.000000 0.545387 0.664364
0.000000 0.536151 0.730096
0.000000 0.509355 0.795828
0.000000 0.464708 0.861560
0.000000 0.402309 0.927292
0.000000 0.322660 0.993024
0.524239 0.000000 0.661160
0.546356 0.000000 0.661559
0.571618 0.000000 0.661957
0.600622 0.000000 0.662356
0.633835 0.000000 0.662755
0.000000 0.653402 0.663153
0.000000 0.611762 0.663552
0.000000 0.565428 0.663951
0.000000 0.514563 0.664349
0.000000 0.459489 0.664748
0.000000 0.400672 0.665147
0.000000 0.370856 0.730879
0.000000 0.323721 0.796611
0.000000 0.259604 0.862343
0.000000 0.179234 0.928075
0.000000 0.083709 0.993807
0.650719 0.000000 0.727276
0.683504 0.000000 0.727675
0.720893 0.000000 0.728073
0.000000 0.692240 0.728472
0.000000 0.645534 0.728871
0.000000 0.593673 0.729269
0.000000 0.536830 0.729668
0.000000 0.475352 0.730067
0.000000 0.409748 0.730465
0.000000 0.340672 0.730864
0.000000 0.268898 0.731263
0.000000 0.195293 0.731661
0.000000 0.130564 0.797393
0.000000 0.050600 0.863125
0.043340 0.000000 0.928857
0.149707 0.000000 0.994589
0.000000 0.777630 0.793392
0.000000 0.731501 0.793791
0.000000 0.679768 0.794189
0.000000 0.622418 0.794588
0.000000 0.559634 0.794987
0.000000 0.491788 0.795385
0.000000 0.419428 0.795784
0.000000 0.343263 0.796183
0.000000 0.264131 0.796581
0.000000 0.182975 0.796980
0.000000 0.100808 0.797379
0.000000 0.018679 0.797777
0.062366 0.000000 0.798176
0.153805 0.000000 0.863908
0.256469 0.000000 0.929640
0.368566 0.000000 0.995372
0.000000 0.714445 0.859508
0.000000 0.651644 0.859907
0.000000 0.582955 0.860305
0.000000 0.508775 0.860704
0.000000 0.429690 0.861103
0.000000 0.346462 0.861501
0.000000 0.259993 0.861900
0.000000 0.171300 0.862299
0.000000 0.081479 0.862697
0.008337 0.000000 0.863096
0.097017 0.000000 0.863495
0.183468 0.000000 0.863893
0.266678 0.000000 0.864292
0.345751 0.000000 0.864691
0.452501 0.000000 0.930423
0.565831 0.000000 0.996155
0.000000 0.606779 0.925624
0.000000 0.526298 0.926023
0.000000 0.440518 0.926421
0.000000 0.350251 0.926820
0.000000 0.256465 0.927219
0.000000 0.160251 0.927617
0.000000 0.062784 0.928016
0.034718 0.000000 0.928415
0.131035 0.000000 0.928813
0.224992 0.000000 0.929212
0.315496 0.000000 0.929611
0.401578 0.000000 0.930009
0.482424 0.000000 0.930408
0.557407 0.000000 0.930807
0.626107 0.000000 0.931205
0.737391 0.000000 0.996937
0.000000 0.451899 0.991740
0.000000 0.354618 0.992139
0.000000 0.253536 0.992537
0.000000 0.149814 0.992936
0.000000 0.044708 0.993335
0.060477 0.000000 0.993733
0.164438 0.000000 0.994132
0.265911 0.000000 0.994531
0.363725 0.000000 0.994929
0.456836 0.000000 0.995328
0.544368 0.000000 0.995727
0.625642 0.000000 0.996125
0.700201 0.000000 0.996524
0.767827 0.000000 0.996923
0.828544 0.000000 0.997321
0.882626 0.000000 0.997720
0.032743 0.042216 0.065485
0.032942 0.033147 0.065884
0.078434 0.065808 0.131616
0.131373 0.098674 0.197348
0.191110 0.131540 0.263080
0.185331 0.000000 0.328812
0.262639 0.000000 0.394544
0.349618 0.000000 0.460276
0.444784 0.000000 0.526008
0.546705 0.000000 0.591740
0.654079 0.000000 0.657472
0.000000 0.679148 0.723204
0.000000 0.695200 0.788936
0.000000 0.708181 0.854668
0.000000 0.718190 0.920400
0.000000 0.724922 0.986132
0.033134 0.040707 0.066268
0.066667 0.066667 0.066667
0.099299 0.116126 0.132399
0.000000 0.080388 0.198131
0.000000 0.081536 0.263863
0.000000 0.072122 0.329595
0.000000 0.053580 0.395327
0.000000 0.027330 0.461059
0.005303 0.000000 0.526791
0.043172 0.000000 0.592523
0.085377 0.000000 0.658255
0.131323 0.000000 0.723987
0.180773 0.000000 0.789719
0.233871 0.000000 0.855451
0.291159 0.000000 0.921183
0.353566 0.000000 0.986915
0.066192 0.072547 0.132384
0.019917 0.028541 0.132783
0.019977 0.036500 0.133181
0.000000 0.027603 0.198913
0.000000 0.021958 0.264645
0.000000 0.006718 0.330377
0.016214 0.000000 0.396109
0.045450 0.000000 0.461841
0.079924 0.000000 0.527573
0.118887 0.000000 0.593305
0.161939 0.000000 0.659037
0.209054 0.000000 0.724769
0.260592 0.000000 0.790501
0.317294 0.000000 0.856233
0.380266 0.000000 0.921965
0.450933 0.000000 0.987697
0.014409 0.000000 0.198500
0.021437 0.000000 0.198899
0.021590 0.000000 0.199297
0.020339 0.000000 0.199696
0.030841 0.000000 0.265428
0.050238 0.000000 0.331160
0.076325 0.000000 0.396892
0.107903 0.000000 0.462624
0.144294 0.000000 0.528356
0.185247 0.000000 0.594088
0.230913 0.000000 0.659820
0.281832 0.000000 0.725552
0.338913 0.000000 0.791284
0.403397 0.000000 0.857016
0.476801 0.000000 0.922748
0.560854 0.000000 0.988480
0.060926 0.000000 0.264616
0.070401 0.000000 0.265015
0.074380 0.000000 0.265413
0.076617 0.000000 0.265812
0.077254 0.000000 0.266211
0.099843 0.000000 0.331943
0.128741 0.000000 0.397675
0.163046 0.000000 0.463407
0.202536 0.000000 0.529139
0.247477 0.000000 0.594871
0.298546 0.000000 0.660603
0.356774 0.000000 0.726335
0.423494 0.000000 0.792067
0.500276 0.000000 0.857799
0.588845 0.000000 0.923531
0.690999 0.000000 0.989263
0.121241 0.000000 0.330732
0.131463 0.000000 0.331131
0.136940 0.000000 0.331529
0.140678 0.000000 0.331928
0.142987 0.000000 0.332327
0.144232 0.000000 0.332725
0.176538 0.000000 0.398457
0.214932 0.000000 0.464189
0.259645 0.000000 0.529921
0.311407 0.000000 0.595653
0.371318 0.000000 0.661385
0.440758 0.000000 0.727117
0.521300 0.000000 0.792849
0.614628 0.000000 0.858581
0.722441 0.000000 0.924313
0.846365 0.000000 0.990045
0.190649 0.000000 0.396848
0.200699 0.000000 0.397247
0.206827 0.000000 0.397645
0.211672 0.000000 0.398044
0.215715 0.000000 0.398443
0.219471 0.000000 0.398841
0.223465 0.000000 0.399240
0.268105 0.000000 0.464972
0.320823 0.000000 0.530704
0.382690 0.000000 0.596436
0.455071 0.000000 0.662168
0.539496 0.000000 0.727900
0.637566 0.000000 0.793632
0.750846 0.000000 0.859364
0.880779 0.000000 0.925096
0.000000 0.951080 0.990828
0.266439 0.000000 0.462964
0.276521 0.000000 0.463363
0.283817 0.000000 0.463761
0.290758 0.000000 0.464160
0.297957 0.000000 0.464559
0.306019 0.000000 0.464957
0.315520 0.000000 0.465356
0.326991 0.000000 0.465755
0.390777 0.000000 0.531487
0.466043 0.000000 0.597219
0.554215 0.000000 0.662951
0.656763 0.000000 0.728683
0.775087 0.000000 0.794415
0.000000 0.808150 0.860147
0.000000 0.786150 0.925879
0.000000 0.745483 0.991611
0.348660 0.000000 0.529080
0.360239 0.000000 0.529479
0.370514 0.000000 0.529877
0.381750 0.000000 0.530276
0.394606 0.000000 0.530675
0.409687 0.000000 0.531073
0.427522 0.000000 0.531472
0.448546 0.000000 0.531871
0.473084 0.000000 0.532269
0.564605 0.000000 0.598001
0.000000 0.654999 0.663733
0.000000 0.663589 0.729465
0.000000 0.654964 0.795197
0.000000 0.628392 0.860929
0.000000 0.583479 0.926661
0.000000 0.520213 0.992393
0.440408 0.000000 0.595196
0.456105 0.000000 0.595595
0.472220 0.000000 0.595993
0.490810 0.000000 0.596392
0.512472 0.000000 0.596791
0.537698 0.000000 0.597189
0.566856 0.000000 0.597588
0.000000 0.594599 0.597987
0.000000 0.557823 0.598385
0.000000 0.516856 0.598784
0.000000 0.521824 0.664516
0.000000 0.509490 0.730248
0.000000 0.479389 0.795980
0.000000 0.431396 0.861712
0.000000 0.365765 0.927444
0.000000 0.283147 0.993176
0.547552 0.000000 0.661312
0.570800 0.000000 0.661711
0.596209 0.000000 0.662109
0.625554 0.000000 0.662508
0.659245 0.000000 0.662907
0.000000 0.627737 0.663305
0.000000 0.585520 0.663704
0.000000 0.538654 0.664103
0.000000 0.487362 0.664501
0.000000 0.432024 0.664900
0.000000 0.373160 0.665299
0.000000 0.340622 0.731031
0.000000 0.290720 0.796763
0.000000 0.223962 0.862495
0.000000 0.141222 0.928227
0.000000 0.043728 0.993959
0.677914 0.000000 0.727428
0.712410 0.000000 0.727827
0.000000 0.704429 0.728225
0.000000 0.662016 0.728624
0.000000 0.614432 0.729023
0.000000 0.561739 0.729421
0.000000 0.504177 0.729820
0.000000 0.442158 0.730219
0.000000 0.376247 0.730617
0.000000 0.307148 0.731016
0.000000 0.235672 0.731415
0.000000 0.162718 0.731813
0.000000 0.095986 0.797545
0.000000 0.014272 0.863277
0.081039 0.000000 0.929009
0.188305 0.000000 0.994741
0.000000 0.745486 0.793544
0.000000 0.697226 0.793943
0.000000 0.644337 0.794341
0.000000 0.585878 0.794740
0.000000 0.522107 0.795139
0.000000 0.453464 0.795537
0.000000 0.380560 0.795936
0.000000 0.304158 0.796335
0.000000 0.225138 0.796733
0.000000 0.144476 0.797132
0.000000 0.063202 0.797531
0.017633 0.000000 0.797929
0.096992 0.000000 0.798328
0.189208 0.000000 0.864060
0.292233 0.000000 0.929792
0.404226 0.000000 0.995524
0.000000 0.676004 0.859660
0.000000 0.610917 0.860059
0.000000 0.540988 0.860457
0.000000 0.465771 0.860856
0.000000 0.385922 0.861255
0.000000 0.302258 0.861653
0.000000 0.215731 0.862052
0.000000 0.127392 0.862451
0.000000 0.038354 0.862849
0.050244 0.000000 0.863248
0.137280 0.000000 0.863647
0.221691 0.000000 0.864045
0.302502 0.000000 0.864444
0.378870 0.000000 0.864843
0.485087 0.000000 0.930575
0.597503 0.000000 0.996307
0.000000 0.561555 0.925776
0.000000 0.478962 0.926175
0.000000 0.392208 0.926573
0.000000 0.301320 0.926972
0.000000 0.207317 0.927371
0.000000 0.111326 0.927769
0.000000 0.014545 0.928168
0.081803 0.000000 0.928567
0.176510 0.000000 0.928965
0.268427 0.000000 0.929364
0.356505 0.000000 0.929763
0.439829 0.000000 0.930161
0.517654 0.000000 0.930560
0.589430 0.000000 0.930959
0.654821 0.000000 0.931357
0.764674 0.000000 0.997089
0.000000 0.400118 0.991892
0.000000 0.301252 0.992291
0.000000 0.199801 0.992689
0.000000 0.096181 0.993088
0.008327 0.000000 0.993487
0.112415 0.000000 0.993885
0.214789 0.000000 0.994284
0.314215 0.000000 0.994683
0.409566 0.000000 0.995081
0.499858 0.000000 0.995480
0.584286 0.000000 0.995879
0.662255 0.000000 0.996277
0.733396 0.000000 0.996676
0.797583 0.000000 0.997075
0.854937 0.000000 0.997473
0.905821 0.000000 0.997872
0.065485 0.081512 0.130971
0.065685 0.068667 0.131369
0.075875 0.065884 0.131768
0.130099 0.098750 0.197500
0.190969 0.131616 0.263232
0.186807 0.000000 0.328964
0.265637 0.000000 0.394696
0.353738 0.000000 0.460428
0.449643 0.000000 0.526160
0.551962 0.000000 0.591892
0.000000 0.654477 0.657624
0.000000 0.674143 0.723356
0.000000 0.690346 0.789088
0.000000 0.703445 0.854820
0.000000 0.713411 0.920552
0.000000 0.719812 0.986284
0.065877 0.072611 0.131753
0.102136 0.099114 0.132152
0.111472 0.099413 0.132551
0.108586 0.000000 0.198283
0.176804 0.000000 0.264015
0.254280 0.000000 0.329747
0.340139 0.000000 0.395479
0.433175 0.000000 0.461211
0.000000 0.520636 0.526943
0.000000 0.547997 0.592675
0.000000 0.571190 0.658407
0.000000 0.590688 0.724139
0.000000 0.606602 0.789871
0.000000 0.618661 0.855603
0.000000 0.626201 0.921335
0.000000 0.628181 0.987067
0.068064 0.066268 0.132536
0.034380 0.019940 0.132935
0.106667 0.114058 0.133333
0.072991 0.096861 0.199065
0.039720 0.064134 0.264797
0.006611 0.017826 0.330529
0.012844 0.000000 0.396261
0.043001 0.000000 0.461993
0.078126 0.000000 0.527725
0.117608 0.000000 0.593457
0.161180 0.000000 0.659189
0.208944 0.000000 0.724921
0.261383 0.000000 0.790653
0.319353 0.000000 0.856385
0.384057 0.000000 0.922117
0.456999 0.000000 0.987849
0.032472 0.000000 0.198652
0.044548 0.000000 0.199051
0.101133 0.073131 0.199449
0.089641 0.073278 0.199848
0.035392 0.005976 0.265580
0.048521 0.000000 0.331312
0.074540 0.000000 0.397044
0.106302 0.000000 0.462776
0.143021 0.000000 0.528508
0.184476 0.000000 0.594240
0.230894 0.000000 0.659972
0.282906 0.000000 0.725704
0.341508 0.000000 0.791436
0.408012 0.000000 0.857168
0.483994 0.000000 0.922900
0.571212 0.000000 0.988632
0.079978 0.000000 0.264768
0.092458 0.000000 0.265167
0.099610 0.005975 0.265565
0.094005 0.005984 0.265964
0.086883 0.005993 0.266363
0.101498 0.000000 0.332095
0.129078 0.000000 0.397827
0.163022 0.000000 0.463559
0.202714 0.000000 0.529291
0.248326 0.000000 0.595023
0.300538 0.000000 0.660755
0.360420 0.000000 0.726487
0.429340 0.000000 0.792219
0.508892 0.000000 0.857951
0.600805 0.000000 0.923683
0.706856 0.000000 0.989415
0.140605 0.000000 0.330884
0.152821 0.000000 0.331283
0.157625 0.000000 0.331681
0.156193 0.000000 0.332080
0.153455 0.000000 0.332479
0.149793 0.000000 0.332877
0.179700 0.000000 0.398609
0.217358 0.000000 0.464341
0.262297 0.000000 0.530073
0.315017 0.000000 0.595805
0.376537 0.000000 0.661537
0.448206 0.000000 0.727269
0.531578 0.000000 0.793001
0.628303 0.000000 0.858733
0.740032 0.000000 0.924465
0.868317 0.000000 0.990197
0.209926 0.000000 0.397000
0.221495 0.000000 0.397399
0.227098 0.000000 0.397797
0.228281 0.000000 0.398196
0.228850 0.000000 0.398595
0.229324 0.000000 0.398993
0.230230 0.000000 0.399392
0.273877 0.000000 0.465124
0.326930 0.000000 0.530856
0.390077 0.000000 0.596588
0.464509 0.000000 0.662320
0.551654 0.000000 0.728052
0.653028 0.000000 0.793784
0.770111 0.000000 0.859516
0.904246 0.000000 0.925248
0.000000 0.923430 0.990980
0.285647 0.000000 0.463116
0.297149 0.000000 0.463515
0.304254 0.000000 0.463913
0.308659 0.000000 0.464312
0.313551 0.000000 0.464711
0.319525 0.000000 0.465109
0.327144 0.000000 0.465508
0.336911 0.000000 0.465907
0.401145 0.000000 0.531639
0.477962 0.000000 0.597371
0.568514 0.000000 0.663103
0.674094 0.000000 0.728835
0.000000 0.791586 0.794567
0.000000 0.783668 0.860299
0.000000 0.757517 0.926031
0.000000 0.712608 0.991763
0.368301 0.000000 0.529232
0.381487 0.000000 0.529631
0.392062 0.000000 0.530029
0.401751 0.000000 0.530428
0.413294 0.000000 0.530827
0.427272 0.000000 0.531225
0.444178 0.000000 0.531624
0.464407 0.000000 0.532023
0.488239 0.000000 0.532421
0.581448 0.000000 0.598153
0.000000 0.635945 0.663885
0.000000 0.641436 0.729617
0.000000 0.629324 0.795349
0.000000 0.599049 0.861081
0.000000 0.550381 0.926813
0.000000 0.483465 0.992545
0.461441 0.000000 0.595348
0.479126 0.000000 0.595747
0.496119 0.000000 0.596145
0.514053 0.000000 0.596544
0.535258 0.000000 0.596943
0.560180 0.000000 0.597341
0.589137 0.000000 0.597740
0.000000 0.572776 0.598139
0.000000 0.536160 0.598537
0.000000 0.495419 0.598936
0.000000 0.497978 0.664668
0.000000 0.482760 0.730400
0.000000 0.449528 0.796132
0.000000 0.398356 0.861864
0.000000 0.329670 0.927596
0.000000 0.244273 0.993328
0.571269 0.000000 0.661464
0.596969 0.000000 0.661863
0.623831 0.000000 0.662261
0.653270 0.000000 0.662660
0.000000 0.637619 0.663059
0.000000 0.599846 0.663457
0.000000 0.557368 0.663856
0.000000 0.510309 0.664255
0.000000 0.458953 0.664653
0.000000 0.403736 0.665052
0.000000 0.345225 0.665451
0.000000 0.310292 0.731183
0.000000 0.257892 0.796915
0.000000 0.188737 0.862647
0.000000 0.103866 0.928379
0.000000 0.004637 0.994111
0.705742 0.000000 0.727580
0.000000 0.711383 0.727979
0.000000 0.672113 0.728377
0.000000 0.629072 0.728776
0.000000 0.580863 0.729175
0.000000 0.527618 0.729573
0.000000 0.469643 0.729972
0.000000 0.407411 0.730371
0.000000 0.341541 0.730769
0.000000 0.272783 0.731168
0.000000 0.201983 0.731567
0.000000 0.130063 0.731965
0.000000 0.061677 0.797697
0.021482 0.000000 0.863429
0.117888 0.000000 0.929161
0.225801 0.000000 0.994893
0.000000 0.712535 0.793696
0.000000 0.661124 0.794095
0.000000 0.606085 0.794493
0.000000 0.546755 0.794892
0.000000 0.482260 0.795291
0.000000 0.413109 0.795689
0.000000 0.339973 0.796088
0.000000 0.263663 0.796487
0.000000 0.185099 0.796885
0.000000 0.105282 0.797284
0.000000 0.025255 0.797683
0.053933 0.000000 0.798081
0.131261 0.000000 0.798480
0.223915 0.000000 0.864212
0.327013 0.000000 0.929944
0.438657 0.000000 0.995676
0.000000 0.636678 0.859812
0.000000 0.568427 0.860211
0.000000 0.496408 0.860609
0.000000 0.420417 0.861008
0.000000 0.340088 0.861407
0.000000 0.256294 0.861805
0.000000 0.170030 0.862204
0.000000 0.082373 0.862603
0.005547 0.000000 0.863001
0.092596 0.000000 0.863400
0.177667 0.000000 0.863799
0.259727 0.000000 0.864197
0.337849 0.000000 0.864596
0.411244 0.000000 0.864995
0.516650 0.000000 0.930727
0.627936 0.000000 0.996459
0.000000 0.515494 0.925928
0.000000 0.430045 0.926327
0.000000 0.341595 0.926725
0.000000 0.250375 0.927124
0.000000 0.156460 0.927523
0.000000 0.061009 0.927921
0.034767 0.000000 0.928320
0.129643 0.000000 0.928719
0.222431 0.000000 0.929117
0.312014 0.000000 0.929516
0.397390 0.000000 0.929915
0.477706 0.000000 0.930313
0.552288 0.000000 0.930712
0.620667 0.000000 0.931111
0.682590 0.000000 0.931509
0.790841 0.000000 0.997241
0.000000 0.347683 0.992044
0.000000 0.246603 0.992443
0.000000 0.144172 0.992841
0.000000 0.040962 0.993240
0.062638 0.000000 0.993639
0.165319 0.000000 0.994037
0.265805 0.000000 0.994436
0.362899 0.000000 0.994835
0.455522 0.000000 0.995233
0.542756 0.000000 0.995632
0.623873 0.000000 0.996031
0.698361 0.000000 0.996429
0.765943 0.000000 0.996828
0.826588 0.000000 0.997227
0.880509 0.000000 0.997625
0.928161 0.000000 0.998024
0.098228 0.117902 0.196456
0.098427 0.101324 0.196855
0.112304 0.098627 0.197253
0.128757 0.098826 0.197652
0.118061 0.000000 0.263384
0.187988 0.000000 0.329116
0.268251 0.000000 0.394848
0.357392 0.000000 0.460580
0.453968 0.000000 0.526312
0.556635 0.000000 0.592044
0.000000 0.650007 0.657776
0.000000 0.669731 0.723508
0.000000 0.686039 0.789240
0.000000 0.699170 0.854972
0.000000 0.708970 0.920704
0.000000 0.714882 0.986436
0.098619 0.101765 0.197239
0.140484 0.131758 0.197637
0.063303 0.000000 0.198036
0.099435 0.000000 0.198435
0.171280 0.000000 0.264167
0.251078 0.000000 0.329899
0.338521 0.000000 0.395631
0.432625 0.000000 0.461363
0.000000 0.520799 0.527095
0.000000 0.547725 0.592827
0.000000 0.570620 0.658559
0.000000 0.589831 0.724291
0.000000 0.605343 0.790023
0.000000 0.616760 0.855755
0.000000 0.623297 0.921487
0.000000 0.623808 0.987219
0.024095 0.000000 0.198021
0.049177 0.000000 0.198420
0.126179 0.072900 0.198819
0.158190 0.073046 0.199217
0.228073 0.039742 0.264949
0.309260 0.000000 0.330681
0.000000 0.390215 0.396413
0.000000 0.424081 0.462145
0.000000 0.453487 0.527877
0.000000 0.478780 0.593609
0.000000 0.500037 0.659341
0.000000 0.516999 0.725073
0.000000 0.529042 0.790805
0.000000 0.535190 0.856537
0.000000 0.534142 0.922269
0.000000 0.524315 0.988001
0.050368 0.000000 0.198804
0.067493 0.000000 0.199203
0.125934 0.073187 0.199601
0.160000 0.160431 0.200000
0.113960 0.105296 0.265732
0.087919 0.057012 0.331464
0.073313 0.008937 0.397196
0.099302 0.000000 0.462928
0.137349 0.000000 0.528660
0.180047 0.000000 0.594392
0.227813 0.000000 0.660124
0.281424 0.000000 0.725856
0.341994 0.000000 0.791588
0.410926 0.000000 0.857320
0.489855 0.000000 0.923052
0.580573 0.000000 0.988784
0.098780 0.000000 0.264920
0.114276 0.000000 0.265319
0.127531 0.005979 0.265717
0.176714 0.105448 0.266116
0.158776 0.105606 0.266515
0.138586 0.057146 0.332247
0.130986 0.008955 0.397979
0.159041 0.000000 0.463711
0.199523 0.000000 0.529443
0.246327 0.000000 0.595175
0.300148 0.000000 0.660907
0.362100 0.000000 0.726639
0.433598 0.000000 0.792371
0.516261 0.000000 0.858103
0.611822 0.000000 0.923835
0.722034 0.000000 0.989567
0.159676 0.000000 0.331036
0.173920 0.000000 0.331435
0.182694 0.000000 0.331833
0.206807 0.057144 0.332232
0.196660 0.057212 0.332631
0.185859 0.057281 0.333029
0.185548 0.008972 0.398761
0.217284 0.000000 0.464493
0.262614 0.000000 0.530225
0.316578 0.000000 0.595957
0.380021 0.000000 0.661689
0.454228 0.000000 0.727421
0.540716 0.000000 0.793153
0.641094 0.000000 0.858885
0.756956 0.000000 0.924617
0.889777 0.000000 0.990349
0.228929 0.000000 0.397152
0.242077 0.000000 0.397551
0.250534 0.000000 0.397949
0.254751 0.008963 0.398348
0.249835 0.008972 0.398747
0.245011 0.008981 0.399145
0.240792 0.008990 0.399544
0.278603 0.000000 0.465276
0.331714 0.000000 0.531008
0.396175 0.000000 0.596740
0.472804 0.000000 0.662472
0.562848 0.000000 0.728204
0.667703 0.000000 0.793936
0.788742 0.000000 0.859668
0.000000 0.921753 0.925400
0.000000 0.896223 0.991132
0.304675 0.000000 0.463268
0.317684 0.000000 0.463667
0.327260 0.000000 0.464065
0.331798 0.000000 0.464464
0.333182 0.000000 0.464863
