mpv/oil_slick_h.cube
TITLE "Oil Slick Iridescent Effect"
LUT_3D_SIZE 6
DOMAIN_MIN 0.0 0.0 0.0
DOMAIN_MAX 1.0 1.0 1.0
0.000000 0.000000 0.000000
0.145162 0.178970 0.089485
0.000000 0.357940 0.217232
0.000000 0.223072 0.536910
0.204575 0.000000 0.715880
0.690081 0.000000 0.894850
0.000000 0.156521 0.187610
0.000000 0.028785 0.196580
0.155629 0.000000 0.375550
0.474558 0.000000 0.554520
0.733490 0.000000 0.566091
0.912460 0.000000 0.300012
0.316210 0.000000 0.375220
0.384190 0.000000 0.311079
0.393160 0.000000 0.220768
0.572130 0.000000 0.119249
0.751100 0.290590 0.000000
0.676830 0.930070 0.000000
0.562830 0.000000 0.155448
0.571800 0.041284 0.000000
0.580770 0.353457 0.000000
0.345812 0.589740 0.000000
0.000000 0.768710 0.391872
0.000000 0.173168 0.947680
0.750440 0.585860 0.000000
0.303514 0.759410 0.000000
0.000000 0.768380 0.528450
0.000000 0.030443 0.777350
0.786320 0.000000 0.566096
0.965290 0.489048 0.000000
0.000000 0.938050 0.741971
0.070523 0.000000 0.947020
0.955990 0.000000 0.564238
0.964960 0.620260 0.000000
0.339934 0.973930 0.000000
0.000000 0.982900 0.374863
0.109783 0.173420 0.086710
0.091195 0.148558 0.182390
0.239424 0.000000 0.361360
0.540330 0.000000 0.225317
0.719300 0.155016 0.000000
0.898270 0.597023 0.000000
0.000000 0.023851 0.191030
0.120000 0.131524 0.200000
0.178869 0.000000 0.378970
0.507818 0.000000 0.557940
0.736910 0.000000 0.506692
0.915880 0.000000 0.154085
0.378640 0.000000 0.301693
0.387610 0.000000 0.195493
0.396580 0.000000 0.160052
0.575550 0.000000 0.023573
0.754520 0.492256 0.000000
0.327613 0.933490 0.000000
0.566250 0.000000 0.010994
0.575220 0.222404 0.000000
0.584190 0.566761 0.000000
0.099815 0.593160 0.000000
0.000000 0.772130 0.761226
0.306401 0.000000 0.951100
0.630749 0.753860 0.000000
0.000000 0.762830 0.068455
0.000000 0.589234 0.771800
0.406411 0.000000 0.780770
0.789740 0.000000 0.165023
0.968710 0.897629 0.000000
0.000000 0.614400 0.941470
0.635729 0.000000 0.950440
0.959410 0.000000 0.031030
0.860637 0.968380 0.000000
0.000000 0.977350 0.000202
0.000000 0.986320 0.605391
0.173420 0.346840 0.218335
0.000000 0.112050 0.355810
0.320245 0.000000 0.364780
0.543750 0.000000 0.140083
0.722720 0.230886 0.000000
0.901690 0.679525 0.000000
0.143762 0.000000 0.364450
0.373420 0.000000 0.254314
0.382390 0.058553 0.000000
0.561360 0.398109 0.000000
0.600400 0.740330 0.000000
0.172732 0.919300 0.000000
0.382060 0.000000 0.177046
0.391030 0.000000 0.021587
0.400000 0.192000 0.302033
0.578970 0.035217 0.000000
0.757940 0.689204 0.000000
0.000000 0.936910 0.029470
0.569670 0.144242 0.000000
0.578640 0.454180 0.000000
0.309627 0.587610 0.000000
0.000000 0.596580 0.170562
0.000000 0.421415 0.775550
0.767604 0.000000 0.954520
0.312591 0.757280 0.000000
0.000000 0.766250 0.490886
0.000000 0.111831 0.775220
0.784190 0.000000 0.703253
0.793160 0.220683 0.000000
0.682040 0.972130 0.000000
0.000000 0.070890 0.944890
0.953860 0.000000 0.689503
0.962830 0.512662 0.000000
0.425775 0.971800 0.000000
0.000000 0.980770 0.312374
0.000000 0.989740 0.806470
0.260130 0.520260 0.459606
0.034135 0.000000 0.529230
0.538200 0.000000 0.483374
0.547170 0.000000 0.073073
0.726140 0.294191 0.000000
0.905110 0.766606 0.000000
0.415454 0.000000 0.537870
0.546840 0.000000 0.248138
0.555810 0.091826 0.000000
0.564780 0.401978 0.000000
0.527590 0.743750 0.000000
0.000000 0.922720 0.028807
0.555480 0.000000 0.110997
0.564450 0.139207 0.000000
0.573420 0.498818 0.000000
0.086733 0.582390 0.000000
0.000000 0.761360 0.728552
0.206123 0.000000 0.940330
0.573090 0.314887 0.000000
0.453243 0.582060 0.000000
0.000000 0.591030 0.098600
0.288000 0.600000 0.434950
0.000000 0.125573 0.778970
0.957940 0.000000 0.742785
0.000000 0.760700 0.039636
0.000000 0.598025 0.769670
0.418276 0.000000 0.778640
0.787610 0.000000 0.177115
0.796580 0.585455 0.000000
0.385866 0.975550 0.000000
0.488960 0.000000 0.948310
0.957280 0.000000 0.119212
0.876992 0.966250 0.000000
0.000000 0.975220 0.021371
0.000000 0.984190 0.613233
0.000000 0.993160 0.984217
0.346840 0.607044 0.693680
0.302285 0.000000 0.702650
0.711620 0.000000 0.473042
0.720590 0.000000 0.010335
0.729560 0.350830 0.000000
0.908530 0.866196 0.000000
0.711290 0.000000 0.651098
0.720260 0.000000 0.185077
0.729230 0.194358 0.000000
0.738200 0.573246 0.000000
0.430566 0.747170 0.000000
0.000000 0.926140 0.269792
0.728900 0.001570 0.000000
0.737870 0.339330 0.000000
0.672363 0.746840 0.000000
0.000000 0.755810 0.024311
0.000000 0.579212 0.764780
0.595115 0.000000 0.943750
0.746510 0.635313 0.000000
0.265620 0.755480 0.000000
0.000000 0.764450 0.572605
0.139540 0.000000 0.773420
0.782390 0.000000 0.098860
0.600639 0.961360 0.000000
0.000000 0.764120 0.424669
0.000000 0.131109 0.773090
0.782060 0.000000 0.608313
0.791030 0.457206 0.000000
0.800000 0.753904 0.480000
0.406713 0.978970 0.234953
0.951730 0.000000 0.846434
0.960700 0.437607 0.000000
0.371383 0.969670 0.000000
0.000000 0.978640 0.480086
0.237026 0.987610 0.982343
0.239179 0.883037 0.996580
0.000000 0.258929 0.867100
0.670164 0.000000 0.876070
0.885040 0.000000 0.397575
0.894010 0.099938 0.000000
0.902980 0.515121 0.000000
0.838108 0.911950 0.000000
0.884710 0.000000 0.576271
0.893680 0.000000 0.075008
0.902650 0.352789 0.000000
0.911620 0.831166 0.000000
0.351362 0.920590 0.000000
0.000000 0.929560 0.550939
0.902320 0.163565 0.000000
0.911290 0.608540 0.000000
0.583794 0.920260 0.000000
0.000000 0.929230 0.329505
0.000000 0.363834 0.938200
0.947170 0.000000 0.892415
0.774323 0.919930 0.000000
0.000000 0.928900 0.062130
0.000000 0.688800 0.937870
0.668922 0.000000 0.946840
0.955810 0.241150 0.000000
0.290656 0.964780 0.000000
0.000000 0.863282 0.937540
0.407210 0.000000 0.946510
0.955480 0.000000 0.141602
0.767313 0.964450 0.000000
0.233621 0.973420 0.557334
0.235774 0.576447 0.982390
0.955150 0.000000 0.285428
0.954703 0.964120 0.000000
0.000000 0.973090 0.099768
0.000000 0.982060 0.902409
0.237847 0.626632 0.991030
0.600000 1.000000 1.000000
