mpv/oil_slick_hf-full-180.cube
TITLE "Oil Slick - Intense 180°"
LUT_3D_SIZE 6
DOMAIN_MIN 0.0 0.0 0.0
DOMAIN_MAX 1.0 1.0 1.0
0.00000000 0.00000000 0.00000000
0.19417100 0.00000000 0.13691274
0.38884200 0.26288566 0.00005800
0.18359558 0.58351300 0.00033700
0.00000000 0.77718400 0.62903629
0.39137093 0.00000000 0.97185500
0.11183029 0.19718500 0.00048900
0.00000000 0.19882200 0.00967972
0.00000000 0.39311900 0.37759497
0.27648600 0.00040400 0.58827600
0.78208500 0.24760281 0.00000000
0.02536690 0.97623400 0.00000000
0.00047800 0.19232691 0.39387000
0.34408451 0.00000000 0.39542500
0.39814400 0.21818124 0.00000000
0.00000000 0.59228300 0.06312734
0.00000000 0.58708967 0.78673800
0.19741707 0.00000000 0.98117300
0.59055500 0.51917521 0.00046700
0.00000000 0.59209200 0.26803079
0.00000000 0.26774555 0.59458100
0.24042506 0.00000000 0.59713400
0.79170300 0.00004700 0.34960597
0.76082968 0.98572800 0.00000000
0.00045600 0.17503189 0.78724000
0.52454776 0.00007900 0.78925500
0.79135000 0.00000000 0.15543163
0.46113637 0.79357300 0.00000000
0.00043600 0.64485539 0.79678800
0.63503310 0.00011500 0.99085900
0.98392500 0.00044500 0.05059978
0.42440726 0.98593000 0.00005800
0.00027500 0.62730398 0.98853900
0.82570906 0.00000000 0.99046400
0.99316100 0.00011300 0.15393290
0.99526200 0.78844762 0.00000000
0.19278500 0.00000000 0.03803140
0.02318959 0.19551800 0.00021400
0.00024700 0.27962588 0.38994300
0.19755975 0.00000000 0.58380400
0.77844500 0.00000000 0.26566123
0.55228757 0.97316200 0.00029000
0.00000000 0.19750800 0.04846169
0.16004300 0.20004300 0.16136821
0.14964529 0.32014973 0.39404200
0.58902500 0.10894236 0.56843617
0.78329600 0.71513637 0.05690222
0.02454669 0.97787100 0.40919465
0.09762272 0.00034700 0.39465100
0.39642800 0.13267177 0.19245301
0.33179451 0.39883700 0.12162053
0.08793052 0.59298200 0.36951034
0.05610536 0.37667109 0.78774300
0.57068959 0.02410415 0.98200800
0.17139995 0.59119800 0.00019800
0.08801641 0.53698935 0.59299300
0.08865182 0.09216186 0.59566400
0.51034618 0.08960322 0.59865100
0.79233000 0.15711468 0.05663958
0.13773241 0.98668500 0.05772267
0.20268571 0.00000000 0.78750100
0.78965800 0.05596253 0.65534003
0.79289100 0.40627016 0.05716338
0.08035296 0.79448800 0.20683312
0.13207104 0.24291844 0.79738500
0.99129400 0.15027578 0.93067854
0.98482400 0.61704631 0.00043200
0.05311270 0.98629500 0.40175971
0.18448155 0.11988659 0.98888600
0.99119700 0.15016447 0.71259034
0.99378800 0.34794515 0.15090992
0.76286618 0.99589900 0.15099250
0.38607000 0.19029045 0.00024600
0.00011300 0.38832900 0.07534473
0.00000000 0.21225866 0.39053600
0.37378670 0.00000000 0.58490700
0.77938600 0.14212923 0.00000000
0.00000000 0.97375700 0.07683097
0.00000000 0.39004300 0.32014195
0.16946612 0.15489018 0.39304400
0.39556500 0.14420404 0.16450572
0.11252463 0.58945400 0.09728217
0.05593928 0.19868968 0.78406300
0.97821600 0.02400230 0.84103250
0.39551600 0.00030000 0.37311154
0.39719500 0.36984713 0.12639599
0.35547718 0.39958600 0.30758600
0.27293212 0.59420100 0.53118795
0.23978753 0.35024028 0.78858400
0.95752436 0.20768345 0.98331100
0.00025700 0.59216900 0.28886524
0.08809330 0.20772325 0.59384600
0.45543581 0.27408481 0.59659900
0.59866800 0.27486094 0.49647329
0.79394100 0.65413029 0.24526501
0.25666431 0.98821800 0.66814214
0.57280549 0.00019400 0.78880200
0.79103700 0.05649462 0.20450181
0.64079814 0.79335600 0.24422544
0.27449608 0.79570300 0.77561861
0.50691767 0.30936069 0.79817400
0.99300900 0.31210735 0.69635431
0.62003207 0.98543900 0.00013500
0.07839525 0.81180949 0.98769600
0.81916259 0.30103359 0.98963300
0.99214600 0.31130472 0.44812413
0.99513900 0.76172424 0.31265681
0.42585729 0.99705200 0.31292890
0.50597233 0.57835500 0.00000000
0.00000000 0.58067600 0.33002110
0.00016500 0.17855306 0.58368500
0.58559800 0.00000000 0.58116787
0.78004700 0.59790024 0.00000000
0.00000000 0.97446400 0.69096680
0.00000000 0.43306634 0.58339000
0.39042368 0.14650754 0.58532900
0.58779200 0.30436648 0.11656719
0.09109053 0.59108300 0.33217835
0.22285109 0.05652737 0.78549800
0.97901300 0.02390992 0.56459767
0.58839300 0.00026500 0.08013541
0.18319982 0.59015800 0.09070925
0.27293806 0.38689800 0.59340700
0.59517200 0.27341019 0.53156095
0.78954900 0.45798851 0.24011801
0.35822383 0.98376200 0.20741630
0.00010800 0.47837104 0.59293200
0.27217661 0.08918618 0.59571500
0.59724200 0.27423488 0.48220688
0.59988100 0.46188100 0.53356424
0.70015386 0.79409600 0.43415002
0.44536821 0.93232672 0.98843100
0.78925500 0.00000000 0.61853395
0.79142400 0.41592374 0.05603472
0.25276938 0.79476900 0.35627494
0.46006706 0.51373349 0.79709800
0.76681597 0.47719596 0.79942700
0.99303600 0.47245248 0.60832749
0.00033800 0.98655400 0.15919065
0.10546736 0.12522999 0.98903700
0.99078800 0.30932509 0.72668291
0.99383100 0.63132362 0.47329359
0.90907828 0.99580600 0.47401518
0.47557278 0.99861700 0.72006053
0.24368539 0.77164000 0.00000000
0.00000000 0.77399900 0.71690209
0.02203491 0.00000000 0.77615800
0.77894900 0.00012500 0.40069954
0.47971859 0.78157200 0.00035600
0.00000000 0.68869173 0.97513900
0.00026900 0.24254570 0.77661300
0.77897800 0.12912559 0.69670072
0.74651248 0.78129100 0.07950395
0.05615073 0.76986444 0.78356000
0.47706076 0.05600747 0.78582500
0.98013400 0.02414154 0.30860875
0.78058600 0.50419787 0.00000000
0.05636295 0.78357300 0.46124500
0.31182427 0.23885095 0.78558800
0.78781500 0.23941372 0.58659396
0.79063000 0.59761011 0.24056448
0.20938550 0.98482500 0.45469461
0.00015100 0.16563152 0.78588700
0.68940535 0.05646864 0.78834400
0.79049700 0.24185289 0.24049271
0.52945037 0.79260200 0.42617635
0.44334487 0.44804013 0.79513900
0.98953200 0.45945171 0.50541092
0.79053200 0.00010000 0.19255494
0.60641294 0.79306700 0.05772472
0.26477661 0.73280631 0.79489000
0.75092995 0.46891016 0.79773700
0.78797117 0.63967200 0.79967200
0.99435900 0.63438910 0.66525565
0.00000000 0.98700100 0.95481048
0.73271806 0.12866206 0.98999800
0.99187900 0.31142603 0.34231122
0.99434800 0.93021879 0.47333270
0.68025297 0.99690900 0.63610505
0.63741214 0.94200973 0.99908200
0.00036500 0.96492500 0.16218130
0.00045800 0.70159804 0.96741000
0.43254188 0.00000000 0.96925900
0.97130400 0.07193822 0.00000000
0.00000000 0.97392900 0.02944408
0.00000000 0.18424296 0.97619800
0.15396128 0.00000000 0.96896000
0.97129500 0.09568464 0.29776302
0.27935730 0.97447000 0.03676692
0.02460451 0.44678439 0.97682100
0.87913146 0.02440684 0.97895600
0.98128300 0.02440116 0.04173468
0.57320918 0.97439900 0.00044700
0.02440533 0.78463014 0.97653600
0.63655770 0.20630017 0.97842500
0.98148200 0.20747012 0.45728618
0.95199760 0.98325900 0.20736007
0.21713742 0.98556400 0.89409407
0.27276542 0.00006600 0.97871400
0.98121300 0.02450279 0.68816850
0.98312400 0.66217929 0.20729450
0.39768690 0.98541500 0.63981200
0.70587427 0.43518852 0.98792600
0.99016100 0.59731064 0.46797668
0.98300100 0.34029258 0.00000000
0.03312014 0.98540600 0.07430688
0.26268828 0.29386407 0.98833500
0.99078000 0.46808474 0.67744867
0.99250900 0.96017560 0.63307486
0.63545395 0.99575400 0.75293256
0.00007600 0.23994207 0.98811600
0.99040300 0.14360095 0.69357601
0.99298600 0.63490439 0.31190874
0.74330728 0.99569700 0.47420382
0.63613790 0.99727200 0.94868123
0.79999900 0.90399900 0.99999900
