mpv/oil_slick_hf-full-270.cube
TITLE "Oil Slick - Intense 270°"
LUT_3D_SIZE 16
DOMAIN_MIN 0.0 0.0 0.0
DOMAIN_MAX 1.0 1.0 1.0
0.00000000 0.00000000 0.00000000
0.06439033 0.00000000 0.02470058
0.12928067 0.02865551 0.00000000
0.19417100 0.15423326 0.00000000
0.17803010 0.25906133 0.00000000
0.07375253 0.32395167 0.00000000
0.00005800 0.38884200 0.06849366
0.00015100 0.45373233 0.24252953
0.00024400 0.51862267 0.44813677
0.00033700 0.47518358 0.58351300
0.00043000 0.31053742 0.64840333
0.00000000 0.07726712 0.71229367
0.24025229 0.00000000 0.77718400
0.66131014 0.00000000 0.84207433
0.90696467 0.00000000 0.61750891
0.97185500 0.00000000 0.09439907
0.06561884 0.06572833 0.00016300
0.05448152 0.06605667 0.00000000
0.06620130 0.13107300 0.00000000
0.02121698 0.19556133 0.00000000
0.00007900 0.26083367 0.06841250
0.00042600 0.32597800 0.19634617
0.00031700 0.39066633 0.35898541
0.00000000 0.34956694 0.45468267
0.00039500 0.22990770 0.52033900
0.00012600 0.04633045 0.58486733
0.21682523 0.00047300 0.65001167
0.57327512 0.00000000 0.71384400
0.77937233 0.00023900 0.52083900
0.84434867 0.00041800 0.07524812
0.90857300 0.47890993 0.00000000
0.81769285 0.97327733 0.00000000
0.00000000 0.13095667 0.00985566
0.00028700 0.13221500 0.04519748
0.00000000 0.13261333 0.07262589
0.00000000 0.19724767 0.15297859
0.00032600 0.25207251 0.26264600
0.00020300 0.22203014 0.32732033
0.00000000 0.14506011 0.39162267
0.00044900 0.01118051 0.45716100
0.19615091 0.00000000 0.52116733
0.49063018 0.00000000 0.58604167
0.65145600 0.00035200 0.41838183
0.71564233 0.00000000 0.04904415
0.78083267 0.42336443 0.00013400
0.70086386 0.84569900 0.00020300
0.18460598 0.90986533 0.00000000
0.00016900 0.97525967 0.38740887
0.00048900 0.19718500 0.18419171
0.00000000 0.16514652 0.19738533
0.00009900 0.12665552 0.19838967
0.00000000 0.08933228 0.19882200
0.00022100 0.05747300 0.26410633
0.02876732 0.00000000 0.32853867
0.18085497 0.00000000 0.39311900
0.41280189 0.00000000 0.45798333
0.52325967 0.00018500 0.31009806
0.58827600 0.00040400 0.01825800
0.65242433 0.37328740 0.00000000
0.57681853 0.71705667 0.00000000
0.14317119 0.78208500 0.00000000
0.00000000 0.84679733 0.35088609
0.00000000 0.91152167 0.88492709
0.00000000 0.51369490 0.97623400
0.00015200 0.10071958 0.26241333
0.00004500 0.04264585 0.26310367
0.01863313 0.00007400 0.26393000
0.08855653 0.00022300 0.26487633
0.17133086 0.00027600 0.26572667
0.32997700 0.00000000 0.31951973
0.39499533 0.00000000 0.19597055
0.45950967 0.01935312 0.00000000
0.52479200 0.33025742 0.00015200
0.44739738 0.58930633 0.00000000
0.09550505 0.65414067 0.00000000
0.00003900 0.71907100 0.32078759
0.00000000 0.78374533 0.78269428
0.00000000 0.42468100 0.84814767
0.00039800 0.05317439 0.91382200
0.32422809 0.00000000 0.97796833
0.08428830 0.00000000 0.32764167
0.17780624 0.00046600 0.32909000
0.28611183 0.00006900 0.32949033
0.33054667 0.00032800 0.24686007
0.33124300 0.00022700 0.10058259
0.33205133 0.06402380 0.00023800
0.39633167 0.29299537 0.00000000
0.31118492 0.46127600 0.00000000
0.04138483 0.52600433 0.00000000
0.00045000 0.59145267 0.29664874
0.00018900 0.62617834 0.65598900
0.00000000 0.33106308 0.72018133
0.00000000 0.01606186 0.78495767
0.31021112 0.00000000 0.84996600
0.64916322 0.00042500 0.91541433
0.97967867 0.00000000 0.95274898
0.39387000 0.00047800 0.38902291
0.39439233 0.00020300 0.23332503
0.39527067 0.00028400 0.05429714
0.39542500 0.14619251 0.00000000
0.39627933 0.36312230 0.00000000
0.20538000 0.39724967 0.00000000
0.00000000 0.39814400 0.01909324
0.00000000 0.46285033 0.27770110
0.00000000 0.46146980 0.52771267
0.00000000 0.23258666 0.59228300
0.02429869 0.00021200 0.65757733
0.30028340 0.00010500 0.72226767
0.59290633 0.00000000 0.78673800
0.85205233 0.00029500 0.79503617
0.91646667 0.00000000 0.57212210
0.98117300 0.00000000 0.29290093
0.45909833 0.00014100 0.01096349
0.45931467 0.22540977 0.00000000
0.43900398 0.46007100 0.00000000
0.17512140 0.46177533 0.00042600
0.00000000 0.46189967 0.09056086
0.00000000 0.46289200 0.34703139
0.00000000 0.34163453 0.46343233
0.00000000 0.12852113 0.46412067
0.06918867 0.00000000 0.52924500
0.29390161 0.00000000 0.59410133
0.54119213 0.00007900 0.65900967
0.72389800 0.00017000 0.63340848
0.78849433 0.00000000 0.45288381
0.85310267 0.00000000 0.21837919
0.91825900 0.09085226 0.00013900
0.98252333 0.49608848 0.00000000
0.45245303 0.52432667 0.00000000
0.14765024 0.52554500 0.00022500
0.00000000 0.52570733 0.15851089
0.00000000 0.52657367 0.45470541
0.00000000 0.32397430 0.52736000
0.00000000 0.07658756 0.52817033
0.14023508 0.00000000 0.52925267
0.32802460 0.00000000 0.52963100
0.49308062 0.00005200 0.53095333
0.59585967 0.00016100 0.46826380
0.66045400 0.00000000 0.32999271
0.72569633 0.00040300 0.14075625
0.79049067 0.11973937 0.00040000
0.85446900 0.46820364 0.00000000
0.91442766 0.91951933 0.00000000
0.46995398 0.98488167 0.00039900
0.00046700 0.59055500 0.22413121
0.00000000 0.59067533 0.55951621
0.00045700 0.31028520 0.59213967
0.00000000 0.02743321 0.59209200
0.22076142 0.00044700 0.59372433
0.43618599 0.00045000 0.59452467
0.59458100 0.00000000 0.56518155
0.59554933 0.00000000 0.39560099
0.59618167 0.00000000 0.23065241
0.59713400 0.00000000 0.05794694
0.66215833 0.15238473 0.00009700
0.72680667 0.44546584 0.00000000
0.74543397 0.79170300 0.00004700
0.37149431 0.85631133 0.00000000
0.00000000 0.92081567 0.11714149
0.00000000 0.98572800 0.71760232
0.00013000 0.29844092 0.65578333
0.01812806 0.00000000 0.65604967
0.29825635 0.00043200 0.65768000
0.54056685 0.00000000 0.65793833
0.65848067 0.00000000 0.56395504
0.65975500 0.00011500 0.37287094
0.66059333 0.00015600 0.18742020
0.66086767 0.00623867 0.00000000
0.66198600 0.22221729 0.00000000
0.66309233 0.47046762 0.00026300
0.57069082 0.66360267 0.00000000
0.26823893 0.72882100 0.00039700
0.00000000 0.79316333 0.14405609
0.00000000 0.85779767 0.66270467
0.00023600 0.56790995 0.92305200
0.00000000 0.00405574 0.98759833
0.37271383 0.00000000 0.72101167
0.64332637 0.00000000 0.72191600
0.72259233 0.00000000 0.56495583
0.72351267 0.00000000 0.35162418
0.72409300 0.00000000 0.14522541
0.72482133 0.06883252 0.00000000
0.72637767 0.30770724 0.00037500
0.72697800 0.58063654 0.00017800
0.55949877 0.72738233 0.00000000
0.20317516 0.72832667 0.00000000
0.00036300 0.72955500 0.19186885
0.00038200 0.73037133 0.61489190
0.00000000 0.44293451 0.79455167
0.03898922 0.00046400 0.86004800
0.57978356 0.00046300 0.92484433
0.98886067 0.00000000 0.82122909
0.78724000 0.00045600 0.56842389
0.78714633 0.00000000 0.33208751
0.78828467 0.00000000 0.10556088
0.78925500 0.12995976 0.00007900
0.79004133 0.39032157 0.00006800
0.79109967 0.68862451 0.00032900
0.55121563 0.79135000 0.00000000
0.16265719 0.79224033 0.00000000
0.00000000 0.79305867 0.26763888
0.00000000 0.79357300 0.72902963
0.00024200 0.38251552 0.79499933
0.09268937 0.00000000 0.79532167
0.55054461 0.00043600 0.79678800
0.86153433 0.00038500 0.66731553
0.92620067 0.00025400 0.26810768
0.99085900 0.13966110 0.00011500
0.85246833 0.00011900 0.06764920
0.85348467 0.18902518 0.00033800
0.85420500 0.47138762 0.00026100
0.85430933 0.79339199 0.00000000
0.54536163 0.85514167 0.00000000
0.12526715 0.85638200 0.00004600
0.00000000 0.85690233 0.34059404
0.00000000 0.85757467 0.84062967
0.00011100 0.35838642 0.85883900
0.15781610 0.00000000 0.85951133
0.65552323 0.00047700 0.86079967
0.86158400 0.00046400 0.60502212
0.86150433 0.00000000 0.18847568
0.86251267 0.17683230 0.00000000
0.92732900 0.53448269 0.00000000
0.99257733 0.90045406 0.00026800
0.91769667 0.54980757 0.00000000
0.91842700 0.89684055 0.00000000
0.54222168 0.91912933 0.00000000
0.09027039 0.92010767 0.00000000
0.00000000 0.92064200 0.41038270
0.00000000 0.89400392 0.92141233
0.00035200 0.33796316 0.92305067
0.21904734 0.00000000 0.92312500
0.75678315 0.00000600 0.92429933
0.92488567 0.00000000 0.59251664
0.92628400 0.00039600 0.14251900
0.92653433 0.25487365 0.00000000
0.92736467 0.60119748 0.00000000
0.92860700 0.90687733 0.00032700
0.67143820 0.92874133 0.00000000
0.42530557 0.99395167 0.00007700
0.54233978 0.98392500 0.00044500
0.05863257 0.98445333 0.00017600
0.00000000 0.98480167 0.47759967
0.00005800 0.91734326 0.98593000
0.00000000 0.32013356 0.98659033
0.27777362 0.00002000 0.98748667
0.85564202 0.00027500 0.98853900
0.98900333 0.00000000 0.58377496
0.98966367 0.00000000 0.09786486
0.99046400 0.33038106 0.00000000
0.99139633 0.70449415 0.00000000
0.94995102 0.99179667 0.00000000
0.65045690 0.99316100 0.00011300
0.35744298 0.99368133 0.00000000
0.05046768 0.99463767 0.00000000
0.00000000 0.99526200 0.29072762
0.06459500 0.05317218 0.00029100
0.00959637 0.06487533 0.00000000
0.00000000 0.12976367 0.08388550
0.00018800 0.14319879 0.19488400
0.00000000 0.05278128 0.25902833
0.08171868 0.00000000 0.32416467
0.25310248 0.00000000 0.38906900
0.45377333 0.00000000 0.45140022
0.51892567 0.00024300 0.34442354
0.58361400 0.00013400 0.19472885
0.64820633 0.01117978 0.00000000
0.71351067 0.29118331 0.00043600
0.77807100 0.66188064 0.00019900
0.54629456 0.84253533 0.00000000
0.08326962 0.90707967 0.00000000
0.00000000 0.97180000 0.49435464
0.02417266 0.06537733 0.00000000
0.06632367 0.06604958 0.05299033
0.08733029 0.13137400 0.03915596
0.05313544 0.19606433 0.04024541
0.04712743 0.26111467 0.11215001
0.04951635 0.32586100 0.22918825
0.04840167 0.39022333 0.38155437
0.04849864 0.33412543 0.45580167
0.04766447 0.21598229 0.52046000
0.06147992 0.04583401 0.58554233
0.32405998 0.03873397 0.65003267
0.68881304 0.02462704 0.71436300
0.77957333 0.00419831 0.38016618
0.84408767 0.09519802 0.00000000
0.90861800 0.67205172 0.00000000
0.60832204 0.97338833 0.00000000
0.00027700 0.13171167 0.06077917
0.04715460 0.13272800 0.10723550
0.05173796 0.13339633 0.10811910
0.05139650 0.19780467 0.17407853
0.05066012 0.24233277 0.26272900
0.04970004 0.22002239 0.32735333
0.04890025 0.14819236 0.39210167
0.08045772 0.04742642 0.45715800
0.28461767 0.04141000 0.52133033
0.58354860 0.03122547 0.58706667
0.65115100 0.01301826 0.30761087
0.71612733 0.09325205 0.00000000
0.78067567 0.58759814 0.00000000
0.52057033 0.84616400 0.00036400
0.00015500 0.91075233 0.00453273
0.00000000 0.97524067 0.57742678
0.00003000 0.15559732 0.19703000
0.05174024 0.13581751 0.19813633
0.05120661 0.11718469 0.19816667
0.05136292 0.09940215 0.19891300
0.05064635 0.07537152 0.26398333
0.10472705 0.04908598 0.32871367
0.25214511 0.04560564 0.39415200
0.45888233 0.03682525 0.43448960
0.52295267 0.02188420 0.22880065
0.58854700 0.10162618 0.00349706
0.65272933 0.51036733 0.00000000
0.42490507 0.71800367 0.00023300
0.00043400 0.78300200 0.01947965
0.00000000 0.84703633 0.51600268
0.00000000 0.77737306 0.91177867
0.00000000 0.36191565 0.97655700
0.00007100 0.04227882 0.26263633
0.06383720 0.05058731 0.26325267
0.10893613 0.05114932 0.26446100
0.16108778 0.05014832 0.26455733
0.22605247 0.04908770 0.26606167
0.33083800 0.04257862 0.27164982
0.39583833 0.03173755 0.14399570
0.45991867 0.12441471 0.01543347
0.52484700 0.44148755 0.00000000
0.32157865 0.58994333 0.00020200
0.00030900 0.65484767 0.04119877
0.00048800 0.71982400 0.46208382
0.00004300 0.64625054 0.78417633
0.00045400 0.29320435 0.84938467
0.07141265 0.00044900 0.91417700
0.44005007 0.00000000 0.97838533
0.15429068 0.00000000 0.32784267
0.26447103 0.04948134 0.32895700
0.32933533 0.04676470 0.30144187
0.33045767 0.04244078 0.19040220
0.33137200 0.03592909 0.05641260
0.33245433 0.15699732 0.02853509
0.39693667 0.38405819 0.01280413
0.20837703 0.46158700 0.00000000
0.00000000 0.52646133 0.07113277
0.00031700 0.59162367 0.41462083
0.00033000 0.50848250 0.65643400
0.00000000 0.21704611 0.72040433
0.09106524 0.00000000 0.78565467
0.41153879 0.00000000 0.85013700
0.74707992 0.00000000 0.91515533
0.98036567 0.00027500 0.85222234
0.39403300 0.00033700 0.29617237
0.39436133 0.03991911 0.15784253
0.39554967 0.07931188 0.03217563
0.39643800 0.26201240 0.02279585
0.32702586 0.39733033 0.01354896
0.10793228 0.39765867 0.00530320
0.00048711 0.39881500 0.11363797
0.00042600 0.46370333 0.37701867
0.00000000 0.36163420 0.52759567
0.00000000 0.13539215 0.59263600
0.11710793 0.00017100 0.65784033
0.38835316 0.00000000 0.72231267
0.67913769 0.00000000 0.78700500
0.85204533 0.00000000 0.70606231
0.91638567 0.00000000 0.47290263
0.98156200 0.00000000 0.17565300
0.45965533 0.11336163 0.00039400
0.46003367 0.36157795 0.01690454
0.30903192 0.46068800 0.00561151
0.04572517 0.46202633 0.00037300
0.00000000 0.46230467 0.21325908
0.00009100 0.46333900 0.45950388
0.00014800 0.24331162 0.46419333
0.00025700 0.04480924 0.46509967
0.14987054 0.00000000 0.52938600
0.37091675 0.00000000 0.59414033
0.61694417 0.00011200 0.65934667
0.72427700 0.00024500 0.55567399
0.78884333 0.00001400 0.36619924
0.85393367 0.00030700 0.11583204
0.91853200 0.21776519 0.00010800
0.98353433 0.65397173 0.00031300
0.30106165 0.52498967 0.00016300
0.00000000 0.52536600 0.00591762
0.00019300 0.52661433 0.30640357
0.00000000 0.46214611 0.52692667
0.00000000 0.20092161 0.52754300
0.03070635 0.00000000 0.52862333
0.23325275 0.00032500 0.52993567
0.40725455 0.00000000 0.53015200
0.53137633 0.00017100 0.50118773
0.59608067 0.00007800 0.39876075
0.66046500 0.00000000 0.25308259
0.72604133 0.00044400 0.05031054
0.79040967 0.23062745 0.00001500
0.85526600 0.60680237 0.00007400
0.74619029 0.91997033 0.00000000
0.26908561 0.98473867 0.00000000
0.00000000 0.59003600 0.38965226
0.00000000 0.46346879 0.59108633
0.00000000 0.16489101 0.59148867
0.10039292 0.00000000 0.59254700
0.33291448 0.00028000 0.59386133
0.53359820 0.00000000 0.59435967
0.59518600 0.00001000 0.47935353
0.59581233 0.00000000 0.31613532
0.59713467 0.00036400 0.15361455
0.59776100 0.02286450 0.00019300
0.66203533 0.24984548 0.00000000
0.72749367 0.56675987 0.00033100
0.59794650 0.79204800 0.00008800
0.19535079 0.85688233 0.00012500
0.00025800 0.92181267 0.32169766
0.00034300 0.98669500 0.94499251
0.00041300 0.13740729 0.65637033
0.16531044 0.00000000 0.65627467
0.42784803 0.00000000 0.65751100
0.65540274 0.00005000 0.65839933
0.65880367 0.00000000 0.46169007
0.65969200 0.00000000 0.27711951
0.66073633 0.00000000 0.09327905
0.66105667 0.10403544 0.00000000
0.66202900 0.32822943 0.00000000
0.66350133 0.58810866 0.00036800
0.44178355 0.66415367 0.00022300
0.11378498 0.72904200 0.00031400
0.00000000 0.79315033 0.32283897
0.00000000 0.85310506 0.85809467
0.00015500 0.35281817 0.92327500
0.21879188 0.00047000 0.98838733
0.51680760 0.00001400 0.72153667
0.72268300 0.00036300 0.67151025
0.72341733 0.00030000 0.44855782
0.72350767 0.00000000 0.24160878
0.72490600 0.00019400 0.03721963
0.72520433 0.18210966 0.00000000
0.72607467 0.42988888 0.00000000
0.72706900 0.71605357 0.00000000
0.41031225 0.72749933 0.00000000
0.04184398 0.72913367 0.00043500
0.00000000 0.72902000 0.36243073
0.00000000 0.66981221 0.73005433
0.00000000 0.25284001 0.79461267
0.23616761 0.00000000 0.85981500
0.77756643 0.00005600 0.92474133
0.98899167 0.01707754 0.63628872
0.78687100 0.00000000 0.43966192
0.78801533 0.00013000 0.20979903
0.78828767 0.01572663 0.00000000
0.78946400 0.25698075 0.00000000
0.79065633 0.52848016 0.00037900
0.74207672 0.79148867 0.00041400
0.38397708 0.79166500 0.00000000
0.00000000 0.79236933 0.01867772
0.00005500 0.79352167 0.46058884
0.00032200 0.66093331 0.79458600
0.00007700 0.18517499 0.79513833
0.28255463 0.00000000 0.79566667
0.72751766 0.00678555 0.79693900
0.86102733 0.02159212 0.50442913
0.92608367 0.03446912 0.13617135
0.99055600 0.31921440 0.04112637
0.85307733 0.06479457 0.00042400
0.85336767 0.32860604 0.00000000
0.85380200 0.62248183 0.00000000
0.74834463 0.85470833 0.00000000
0.36174187 0.85611067 0.00026800
0.00000000 0.85616900 0.07474557
0.00038200 0.85781933 0.55412005
0.00000000 0.65529461 0.85774167
0.00000000 0.13885646 0.85856800
0.36911996 0.00000000 0.85947433
0.85310403 0.00166973 0.86077267
0.86109500 0.02105022 0.43629324
0.86191333 0.03541504 0.06529222
0.86334767 0.34176974 0.04360330
0.92825400 0.67576867 0.04482505
0.96372358 0.99280033 0.04386199
0.91842767 0.71310766 0.00020900
0.75911918 0.91929200 0.00027600
0.34179042 0.91936833 0.00000000
0.00000000 0.92040067 0.12745911
0.00024500 0.92165300 0.64313765
0.00000000 0.65490013 0.92190933
0.00006300 0.09792200 0.92306567
0.45169234 0.00000000 0.92358600
0.92470233 0.00010500 0.87425931
0.92569467 0.01833185 0.40516445
0.92577900 0.06597721 0.03335094
0.92689933 0.43236196 0.04208391
0.92809567 0.74546261 0.04468609
0.83412211 0.92820800 0.04406338
0.57616569 0.92950833 0.04460454
0.33250580 0.99373267 0.04329786
0.32819552 0.98389000 0.00010600
0.00011900 0.98470033 0.17671646
0.00000800 0.98538667 0.72827512
0.00022900 0.65879018 0.98640500
0.00030200 0.06073414 0.98727533
0.53082738 0.00049900 0.98826967
0.98826800 0.00000000 0.88358996
0.98939833 0.01462451 0.37614198
0.98990867 0.12385288 0.03149363
0.99068700 0.52065501 0.04078436
0.99135733 0.85983451 0.04319941
0.82339410 0.99207167 0.04318941
0.54434339 0.99373400 0.04408949
0.26291637 0.99396033 0.04355357
0.04426965 0.99543867 0.12715797
0.04392574 0.99585700 0.46799070
0.12052392 0.12869000 0.00008200
0.01537946 0.12944433 0.00003900
0.00004800 0.13025067 0.08642185
0.00000000 0.13086132 0.19485300
0.00023000 0.03441937 0.26002733
0.10582833 0.00041100 0.32500567
0.27994603 0.00000000 0.38926800
0.45438233 0.00019300 0.42122942
0.51855667 0.00000000 0.30634029
0.58331100 0.00000000 0.14521292
0.64882933 0.07756674 0.00024800
0.71332767 0.37971451 0.00000000
0.77834460 0.77863800 0.00046200
0.40015201 0.84344833 0.00047500
0.00027600 0.90804667 0.09393791
0.00000000 0.97237700 0.69933254
0.00000000 0.13017033 0.00556797
0.03360024 0.13084267 0.10908772
0.04267953 0.07376649 0.13201500
0.08562970 0.04453283 0.19652733
0.19862306 0.04877421 0.26089967
0.32610800 0.04952432 0.30527307
0.39115233 0.04906467 0.24848437
0.45562467 0.04804978 0.14582412
0.52046100 0.10782410 0.04719973
0.58508533 0.33556408 0.04360243
0.64703739 0.64984167 0.03464045
0.34838073 0.71533000 0.01939647
0.00035300 0.78009433 0.07995121
0.00000000 0.84430267 0.60465324
0.00000000 0.58958002 0.90908300
0.00046200 0.01406004 0.97459533
0.00000000 0.13125467 0.10959176
0.04933526 0.11158804 0.13300100
0.10648067 0.13314733 0.11786386
0.10503625 0.19815767 0.17612150
0.10417656 0.24969393 0.26324800
0.10304675 0.23473428 0.32786633
0.10205199 0.16849693 0.39262867
0.16139886 0.09934615 0.45724700
0.36338265 0.09255685 0.52172933
0.58734767 0.08136832 0.51286026
0.65122200 0.06269763 0.22946962
0.71620833 0.26133863 0.04074506
0.78094667 0.74940392 0.01678786
0.34507409 0.84562900 0.00000000
0.00020200 0.91110333 0.18571652
0.00035100 0.97604967 0.75774237
0.00000000 0.10201280 0.19683900
0.05104435 0.08749195 0.19763933
0.10534129 0.11717860 0.19882367
0.10553488 0.12414022 0.19939200
0.10468266 0.11148754 0.26475233
0.16800120 0.10195051 0.32894467
0.30899889 0.09742141 0.39409700
0.45872133 0.08794348 0.38188681
0.52393767 0.07404631 0.18133215
0.58807400 0.24721208 0.05483911
0.65355433 0.64446947 0.03478906
0.28687199 0.71824267 0.01454203
0.00000000 0.78250700 0.17323053
0.00031000 0.84797933 0.67202496
0.00000000 0.62805426 0.91225967
0.00000000 0.22196322 0.97703600
0.01623337 0.00005400 0.26292333
0.11956807 0.05087083 0.26378167
0.19192854 0.10491243 0.26495600
0.22360242 0.10398079 0.26519833
0.26553339 0.10263742 0.26629267
0.33060700 0.09526002 0.24259284
0.39610933 0.08491758 0.12439069
0.46029567 0.24160081 0.06928290
0.50353796 0.52495800 0.05157325
0.22362759 0.59048033 0.03445400
0.01861042 0.65520667 0.18397916
0.00600322 0.71990500 0.59474805
0.00026600 0.51803407 0.78470333
0.00007100 0.17113092 0.84930567
0.18432030 0.00000000 0.91381600
0.54778753 0.00036500 0.97919433
0.22642950 0.00000000 0.32825167
0.32934800 0.04896131 0.32194387
0.33010433 0.10005621 0.24322893
0.33108067 0.09595096 0.15376131
0.33148500 0.13456901 0.08991840
0.33208533 0.24705016 0.08358827
0.33568165 0.39748167 0.06965825
0.15087447 0.46208200 0.05388485
0.03973702 0.52730233 0.20441031
0.02742511 0.59203867 0.52817510
0.01578592 0.40518690 0.65591500
0.00596530 0.11825086 0.72149933
0.18953188 0.00004500 0.78604767
0.50588475 0.00039200 0.85119200
0.84035208 0.00018300 0.91578033
0.98018867 0.00000000 0.75328155
0.39356000 0.00000000 0.19918667
0.39516233 0.03755567 0.05625853
0.39577267 0.21873029 0.08522019
0.39631900 0.37554273 0.07697252
0.24448352 0.39683333 0.06928480
0.06439421 0.39818767 0.06415197
0.06018244 0.39832600 0.23455309
0.04880911 0.45756063 0.46380833
0.03780103 0.28803825 0.52846667
0.02725851 0.07134654 0.59344500
0.21317177 0.01627174 0.65792733
0.47196068 0.00577861 0.72286567
0.76080005 0.00023600 0.78780400
0.85198233 0.00000000 0.61953864
0.91726467 0.00010200 0.37415822
0.98235500 0.00039500 0.05538156
0.46004033 0.24067285 0.00047500
0.42512279 0.46040067 0.01260730
0.20476994 0.46134500 0.06152844
0.05440498 0.46212933 0.13437202
0.05033518 0.46307367 0.35309709
0.04898867 0.36660601 0.46394600
0.04886784 0.17986807 0.46462633
0.08066013 0.04846628 0.46493867
0.24736529 0.03776375 0.52988300
0.45006663 0.02698673 0.59466733
0.65917167 0.01598956 0.63100690
0.72460400 0.00596391 0.48199218
0.78921233 0.00007900 0.27927232
0.85430067 0.00037000 0.01003921
0.91863700 0.34942904 0.00000000
0.98358933 0.81714153 0.00006400
0.14754553 0.52477267 0.00000000
0.00020700 0.52613500 0.16329995
0.03987825 0.52700533 0.46434522
0.03754880 0.33758450 0.52729567
0.03781084 0.10989400 0.52842200
0.16599391 0.03776875 0.52912033
0.33847153 0.03752266 0.52961467
0.48821249 0.03804857 0.53088100
0.53162333 0.03805048 0.44186716
0.59672167 0.02754695 0.34265766
0.66117600 0.01646738 0.18820483
0.72610633 0.04877981 0.00591322
0.79117667 0.34668115 0.00047800
0.85523500 0.75002197 0.00000000
0.57223657 0.92033733 0.00004400
0.06399711 0.98504367 0.00000000
0.00026900 0.59096500 0.55436066
0.00000000 0.30548300 0.59142133
0.02680423 0.04499447 0.59214567
0.24640288 0.02709150 0.59319400
0.45165295 0.02676678 0.59363033
0.59445467 0.02683006 0.55899385
0.59513100 0.02674534 0.40112947
0.59665133 0.02750462 0.25177578
0.59708767 0.02717990 0.09658313
0.59828800 0.12971903 0.02761918
0.66289233 0.36045008 0.01665720
0.72756467 0.69287746 0.00581853
0.44525594 0.79238500 0.00012100
0.01441254 0.85696133 0.00000000
0.00000000 0.92146167 0.52732095
0.00038200 0.80265817 0.98703800
0.01906160 0.00000000 0.65618533
0.31090046 0.00044100 0.65749967
0.56076227 0.01587283 0.65741400
0.65880033 0.01648160 0.54896392
0.65917067 0.01607438 0.36468788
0.66018900 0.01631515 0.19027221
0.66141533 0.02229094 0.01676392
0.66229767 0.22020005 0.01686870
0.66224400 0.44655235 0.01603747
0.61646242 0.66363033 0.01664625
0.31584660 0.66440867 0.01666742
0.00771744 0.72936300 0.05266349
0.00315806 0.79337333 0.50584705
0.00713499 0.65486835 0.85828767
0.01944093 0.15706822 0.92367400
0.45560130 0.03716139 0.98846833
0.65474588 0.00000000 0.72149767
0.72213800 0.00000000 0.54289020
0.72295433 0.00522172 0.33113279
0.72373067 0.00520699 0.13198796
0.72509900 0.08290845 0.00578426
0.72541933 0.30623213 0.00531353
0.72689967 0.56307021 0.00600280
0.59553221 0.72748400 0.00579607
0.25734555 0.72802833 0.00556467
0.00688429 0.72862867 0.13237938
0.01284557 0.72945300 0.54144554
0.02405419 0.50097002 0.73026133
0.03231502 0.09480270 0.79506967
0.45248216 0.04647409 0.86006200
0.92496633 0.06334062 0.88459092
0.98947067 0.07878986 0.49150812
0.78756600 0.00017400 0.31468782
0.78820833 0.00001900 0.08471750
0.78922267 0.14515632 0.00023600
0.78928900 0.39238817 0.00000000
0.79059933 0.67588347 0.00001800
0.57942145 0.79095367 0.00000000
0.20752730 0.79237600 0.00020000
0.00006100 0.79303433 0.20885617
0.00330687 0.79416067 0.65994156
0.01531876 0.46644126 0.79483500
0.04385501 0.03240720 0.79581733
0.49068763 0.05136469 0.79627567
0.79713000 0.07013659 0.70512003
0.86154033 0.08275358 0.38235812
0.92690667 0.13607772 0.09281534
0.99092500 0.48668443 0.09609648
0.85291033 0.19854252 0.00000000
0.85343867 0.47530361 0.00000000
0.85472300 0.78580249 0.00017100
0.57075962 0.85580333 0.00045400
