mpv/oil_slick_hf-full-000.cube
TITLE "Oil Slick - Intense"
LUT_3D_SIZE 6
DOMAIN_MIN 0.0 0.0 0.0
DOMAIN_MAX 1.0 1.0 1.0
0.00000000 0.00000000 0.00000000
0.00000000 0.19417100 0.05703726
0.00005800 0.12601434 0.38884200
0.40025442 0.00033700 0.58351300
0.77718400 0.00000000 0.14776371
0.58037907 0.97185500 0.00000000
0.08584371 0.00048900 0.19718500
0.19882200 0.00000000 0.18887628
0.39311900 0.00000000 0.01516303
0.31219400 0.58827600 0.00040400
0.00000000 0.53430319 0.78208500
0.95044510 0.00000000 0.97623400
0.39387000 0.20202109 0.00047800
0.05098149 0.39542500 0.00000000
0.00000000 0.17993076 0.39814400
0.59228300 0.00000000 0.52887066
0.78673800 0.19942633 0.00000000
0.78357693 0.98117300 0.00000000
0.00046700 0.07184679 0.59055500
0.59209200 0.00000000 0.32367321
0.59458100 0.32654445 0.00000000
0.35657894 0.59713400 0.00000000
0.00004700 0.79170300 0.44214403
0.22457832 0.00000000 0.98572800
0.78724000 0.61266411 0.00045600
0.26478624 0.78925500 0.00007900
0.00000000 0.79135000 0.63570037
0.33204963 0.00000000 0.79357300
0.79678800 0.15236861 0.00043600
0.35594090 0.99085900 0.00011500
0.00044500 0.98392500 0.93377022
0.56158074 0.00005800 0.98593000
0.98853900 0.36151002 0.00027500
0.16456294 0.99046400 0.00000000
0.00011300 0.99316100 0.83934110
0.00000000 0.20663638 0.99526200
0.00000000 0.19278500 0.15462660
0.17254241 0.00021400 0.19551800
0.38994300 0.11056412 0.00024700
0.38596025 0.58380400 0.00000000
0.00000000 0.77844500 0.51274877
0.42116443 0.00029000 0.97316200
0.19750800 0.00000000 0.14894631
0.20004300 0.16004300 0.19871779
0.39404200 0.22353756 0.14964529
0.10894236 0.58902500 0.12953118
0.05690222 0.12506185 0.78329600
0.97787100 0.02454669 0.59322303
0.29737528 0.39465100 0.00034700
0.13267177 0.39642800 0.33664675
0.18866302 0.12162053 0.39883700
0.59298200 0.08793052 0.31140218
0.78774300 0.46717727 0.05610536
0.43542256 0.98200800 0.02410415
0.41999605 0.00019800 0.59119800
0.59299300 0.14402006 0.08801641
0.59566400 0.59215396 0.08865182
0.17790804 0.59865100 0.08960322
0.05663958 0.69185490 0.79233000
0.90667526 0.05772267 0.98668500
0.58462029 0.78750100 0.00000000
0.05596253 0.78965800 0.19028050
0.05716338 0.44378422 0.79289100
0.79448800 0.08035296 0.66800784
0.79738500 0.68653759 0.13207104
0.15027578 0.99129400 0.21089124
0.00043200 0.36820969 0.98482400
0.98629500 0.05311270 0.63764799
0.92429105 0.98888600 0.11988659
0.15016447 0.99119700 0.42877113
0.15090992 0.79675277 0.99378800
0.38402532 0.15099250 0.99589900
0.00024600 0.19602555 0.38607000
0.38832900 0.00011300 0.31309727
0.39053600 0.17820534 0.00000000
0.21102730 0.58490700 0.00000000
0.00000000 0.63725077 0.77938600
0.97375700 0.00000000 0.89689903
0.39004300 0.00000000 0.06942405
0.37846807 0.39304400 0.15489018
0.14420404 0.39556500 0.37526332
0.57421154 0.09728217 0.58945400
0.78406300 0.64131260 0.05593928
0.02400230 0.97821600 0.16118581
0.00030000 0.39551600 0.02270446
0.12639599 0.15374386 0.39719500
0.35169482 0.30758600 0.39958600
0.59420100 0.27293212 0.33594517
0.78858400 0.67813125 0.23978753
0.23347009 0.98331100 0.20768345
0.59216900 0.00025700 0.30356076
0.59384600 0.47421605 0.08809330
0.41524801 0.59659900 0.27408481
0.27486094 0.59866800 0.37705564
0.24526501 0.38507571 0.79394100
0.98821800 0.25666431 0.57674017
0.21619051 0.78880200 0.00019400
0.05649462 0.79103700 0.64302982
0.39678330 0.24422544 0.79335600
0.79570300 0.27449608 0.29458047
0.60061702 0.79817400 0.30936069
0.31210735 0.99300900 0.60876205
0.36554193 0.00013500 0.98543900
0.98769600 0.25428176 0.07839525
0.47150401 0.98963300 0.30103359
0.31130472 0.99214600 0.85532659
0.31265681 0.54607157 0.99513900
0.88412361 0.31292890 0.99705200
0.07200167 0.00000000 0.57835500
0.58067600 0.00000000 0.25020290
0.58368500 0.40529694 0.00016500
0.00000000 0.58559800 0.00411613
0.00000000 0.18188976 0.78004700
0.97446400 0.00000000 0.28326520
0.58339000 0.15028166 0.00000000
0.34141285 0.58532900 0.14650754
0.11656719 0.39999271 0.58779200
0.59108300 0.09109053 0.34999518
0.61917429 0.78549800 0.05652737
0.02390992 0.97901300 0.43832525
0.00026500 0.58839300 0.50852259
0.49766743 0.09070925 0.59015800
0.59340700 0.47944706 0.27293806
0.27341019 0.59517200 0.33702124
0.24011801 0.57167850 0.78954900
0.83295447 0.20741630 0.98376200
0.59293200 0.11466896 0.00010800
0.41272458 0.59571500 0.08918618
0.27423488 0.59724200 0.38927000
0.46188100 0.59988100 0.52819776
0.52809216 0.43415002 0.79409600
0.98843100 0.50147249 0.44536821
0.00000000 0.78925500 0.17045605
0.05603472 0.43153498 0.79142400
0.79476900 0.25276938 0.69126344
0.79709800 0.74343157 0.46006706
0.50980699 0.79942700 0.47719596
0.47245248 0.99303600 0.85716099
0.98655400 0.00033800 0.82770135
0.98903700 0.96927437 0.10546736
0.30932509 0.99078800 0.57343018
0.47329359 0.83580097 0.99383100
0.56074290 0.47401518 0.99580600
0.99861700 0.47557278 0.75412925
0.52794661 0.00000000 0.77164000
0.77399900 0.00000000 0.05705591
0.75384909 0.77615800 0.00000000
0.00012500 0.77894900 0.37837446
0.30220941 0.00035600 0.78157200
0.97513900 0.28597827 0.00000000
0.77661300 0.53433630 0.00026900
0.12912559 0.77897800 0.21140286
0.11428246 0.07950395 0.78129100
0.78356000 0.06984629 0.05615073
0.36477171 0.78582500 0.05600747
0.02414154 0.98013400 0.69566678
0.00000000 0.27593413 0.78058600
0.78357300 0.05636295 0.37869095
0.71261468 0.78558800 0.23885095
0.23941372 0.78781500 0.44063476
0.24056448 0.43358438 0.79063000
0.98482500 0.20938550 0.73951589
0.78588700 0.62040648 0.00015100
0.15540729 0.78834400 0.05646864
0.24049271 0.78913682 0.79049700
0.68932798 0.42617635 0.79260200
0.79513900 0.79044374 0.44334487
0.45945171 0.98953200 0.94357279
0.00010000 0.79053200 0.59807706
0.24437878 0.05772472 0.79306700
0.79489000 0.32686031 0.26477661
0.51571721 0.79773700 0.46891016
0.65137283 0.79967200 0.63967200
0.63438910 0.99435900 0.96349245
0.98700100 0.00000000 0.03206352
0.38594199 0.98999800 0.12866206
0.31142603 0.99187900 0.96099381
0.47333270 0.53746191 0.99434800
0.95276107 0.63610505 0.99690900
0.99908200 0.69448441 0.63741214
0.96492500 0.00036500 0.80310870
0.96741000 0.26626996 0.00045800
0.53663212 0.96925900 0.00000000
0.00000000 0.89893378 0.97130400
0.97392900 0.00000000 0.94428592
0.97619800 0.79163304 0.00000000
0.81470272 0.96896000 0.00000000
0.09568464 0.97129500 0.76921662
0.73187962 0.03676692 0.97447000
0.97682100 0.55464112 0.02460451
0.12423138 0.97895600 0.02440684
0.02440116 0.98128300 0.96394948
0.40163682 0.00044700 0.97439900
0.97653600 0.21631119 0.02440533
0.54816746 0.97842500 0.20630017
0.20747012 0.98148200 0.73166594
0.23862147 0.20736007 0.98325900
0.98556400 0.21713742 0.30860735
0.70601458 0.97871400 0.00006600
0.02450279 0.98121300 0.31754729
0.20729450 0.52823920 0.98312400
0.98541500 0.39768690 0.74328990
0.71724025 0.98792600 0.43518852
0.46797668 0.86082705 0.99016100
0.00000000 0.64236542 0.98300100
0.98540600 0.03312014 0.94421926
0.98833500 0.95715921 0.26268828
0.46808474 0.99078000 0.78141607
0.63307486 0.66540825 0.99250900
0.99575400 0.63545395 0.87827540
0.98811600 0.74824993 0.00007600
0.14360095 0.99040300 0.44042794
0.31190874 0.66999034 0.99298600
0.72659354 0.47420382 0.99569700
0.99727200 0.63613790 0.68472868
0.99999900 0.89599900 0.79999900
