mpv/oil_slick_hf.cube
TITLE "Oil Slick - High Frequency"
LUT_3D_SIZE 6
DOMAIN_MIN 0.0 0.0 0.0
DOMAIN_MAX 1.0 1.0 1.0
0.00000000 0.00000000 0.00000000
0.00000000 0.19697500 0.01909433
0.08446061 0.27123114 0.39445000
0.35356975 0.14823400 0.59192500
0.78840000 0.19194080 0.52003619
0.98587500 0.65166973 0.19196846
0.09723604 0.04149564 0.19883700
0.18825723 0.04962000 0.19927800
0.39637900 0.09672418 0.19791966
0.59434000 0.45120904 0.11748227
0.11499287 0.79095300 0.13159434
0.13547310 0.54393233 0.98790600
0.39717400 0.21006672 0.09787188
0.32182317 0.39753300 0.07899429
0.05851006 0.39905600 0.17614289
0.08170405 0.23707473 0.59599900
0.79325800 0.10888150 0.73896888
0.99049700 0.36546187 0.13603895
0.08846139 0.59551100 0.48980328
0.15438691 0.08159500 0.59585200
0.59714500 0.08185645 0.36757769
0.59850200 0.35448648 0.08218190
0.49742523 0.79587500 0.10947335
0.14850330 0.99270400 0.45166193
0.79384800 0.10954740 0.29564915
0.79466700 0.69938780 0.10933485
0.26442343 0.79556600 0.10920230
0.11801249 0.79659300 0.55585039
0.16245251 0.36114957 0.79861200
0.99440562 0.24558096 0.99548700
0.14721388 0.99218500 0.13680925
0.14634586 0.99299400 0.89274606
0.19978810 0.24729776 0.99440700
0.99513600 0.24457865 0.81251561
0.99663700 0.75015332 0.24924400
0.25016863 0.99754200 0.24925200
0.00000000 0.16018890 0.19632900
0.19786600 0.00152068 0.17362440
0.39509500 0.26949735 0.09867380
0.29462668 0.59176000 0.14772613
0.18159838 0.78920500 0.62446816
0.16943998 0.18969404 0.98672600
0.19870400 0.04930010 0.15592220
0.19404300 0.17004300 0.20004300
0.39684600 0.21377091 0.24788694
0.58537320 0.59463300 0.23441623
0.24617545 0.79170800 0.50367227
0.27271299 0.27524049 0.98908700
0.39027926 0.39749900 0.09304158
0.20570311 0.39808000 0.20108070
0.19286333 0.39929300 0.38196110
0.29116141 0.21880395 0.59624200
0.79380700 0.24599116 0.52039882
0.99087600 0.70554178 0.27280087
0.08315465 0.32565857 0.59569800
0.55355348 0.21888678 0.59629700
0.59777200 0.23303832 0.21960531
0.59956300 0.57659106 0.22063984
0.37580955 0.79604600 0.24684000
0.29849688 0.99320500 0.80471235
0.79365300 0.35768428 0.10895910
0.57470125 0.79461400 0.24603364
0.24738659 0.79665100 0.37323347
0.26471371 0.74199695 0.79705200
0.40249715 0.30355383 0.79875300
0.99546600 0.36802428 0.64786542
0.13698081 0.99262800 0.53040804
0.29497640 0.71711098 0.99290300
0.68519785 0.34516480 0.99429800
0.99541300 0.36793265 0.44790504
0.83176043 0.99680800 0.36871060
0.36887212 0.99772300 0.67193952
0.00024600 0.09667614 0.39315800
0.39422100 0.06090732 0.27345432
0.39523200 0.31374360 0.09875400
0.20181338 0.59240700 0.14696202
0.16546377 0.76515137 0.78969000
0.49114619 0.15054960 0.98686500
0.39478300 0.09833800 0.11680449
0.36555217 0.39658800 0.21785103
0.20983979 0.39791300 0.35009273
0.33797195 0.22560669 0.59460600
0.79201900 0.24550864 0.30568024
0.68428764 0.98897600 0.27227162
0.17833251 0.39790800 0.08534778
0.19636438 0.39797683 0.39839100
0.33058600 0.39958600 0.39958600
0.47632653 0.35663361 0.59700500
0.79419200 0.38309414 0.46634400
0.99172300 0.91192627 0.41015664
0.22446374 0.08220183 0.59621300
0.59669400 0.21899536 0.33400968
0.59825100 0.53906918 0.35741593
0.52036789 0.59912400 0.35780754
0.38741819 0.79720100 0.41294486
0.44707706 0.93964601 0.99428200
0.79449800 0.76756689 0.10941080
0.27053447 0.79553700 0.24664200
0.38651486 0.79666000 0.70431779
0.40910949 0.54994437 0.79781100
0.70642156 0.43509042 0.79908600
0.99672500 0.53836147 0.48862016
0.14035556 0.99278700 0.93959754
0.31409846 0.33616638 0.99384800
0.99458900 0.48009396 0.89605089
0.99590600 0.76297447 0.48782360
0.56759743 0.99770300 0.48901064
0.48911768 0.99842000 0.96144205
0.17654426 0.00000000 0.58898700
0.59011200 0.13854525 0.26050794
0.59192500 0.56420743 0.14810500
0.14177083 0.59264200 0.18646295
0.14652573 0.54108145 0.78989500
0.87553768 0.13923933 0.98711600
0.59167400 0.32606560 0.14788700
0.40735647 0.59241700 0.26231975
0.23994114 0.59368400 0.58111856
0.45091554 0.22120821 0.59577900
0.79299800 0.41375939 0.24617300
0.39970684 0.98931700 0.27228225
0.11336130 0.59432900 0.27412263
0.22070644 0.29244152 0.59489800
0.59695100 0.35687746 0.45675758
0.47159812 0.59752000 0.35696507
0.38336716 0.79470100 0.78494685
0.45012948 0.40988519 0.99171800
0.59652000 0.08211465 0.58212180
0.59810700 0.39939686 0.22011994
0.43301489 0.59843800 0.35741939
0.57918100 0.59988100 0.49638100
0.52767031 0.79690000 0.58519125
0.58755865 0.82099779 0.99403900
0.43727454 0.79449500 0.10901450
0.24625836 0.79546800 0.51948935
0.39303132 0.62618860 0.79761700
0.64180907 0.54702593 0.79875000
0.79988300 0.55957374 0.72393573
0.99629600 0.83758077 0.60756740
0.15186302 0.62814972 0.99344600
0.71593423 0.33452536 0.99473300
0.99528800 0.48636053 0.52358265
0.88567386 0.99713500 0.60842356
0.60873612 0.99791400 0.77823142
0.60988468 0.86729318 0.99952900
0.64834156 0.05325025 0.78581600
0.78697900 0.25855833 0.19671400
0.65422166 0.78794200 0.19665144
0.17617757 0.78953700 0.41479053
0.12970589 0.28049981 0.79096400
0.98733500 0.13547537 0.69071683
0.78844100 0.67918615 0.19724597
0.31356362 0.78961000 0.30015506
0.26297620 0.58605406 0.79072700
0.79180000 0.24562600 0.77808069
0.79286900 0.63336471 0.24572936
0.27261688 0.98998200 0.40351075
0.13198883 0.79006600 0.73786312
0.50177648 0.24580160 0.79185700
0.79267600 0.44577140 0.38234404
0.48043034 0.79370700 0.38275611
0.38375618 0.74382001 0.79532600
0.57226661 0.41144254 0.99232500
0.79301900 0.10917035 0.29692773
0.72114150 0.79428000 0.24637584
0.38368995 0.79523700 0.52267221
0.52181301 0.63877771 0.79614600
0.79748700 0.53450608 0.75916125
0.99468400 0.87750020 0.59810484
0.10944220 0.79531600 0.14378514
0.24779793 0.77623202 0.79665500
0.44233643 0.40179674 0.79728200
0.79893300 0.55347716 0.70024746
0.79967200 0.67967200 0.75167200
0.99716300 0.96968674 0.72792008
0.17024526 0.20348746 0.99343700
0.99523800 0.35194177 0.85057623
0.99592300 0.83174108 0.48798444
0.60830672 0.99719600 0.64544041
0.72900704 0.95697849 0.99856100
0.72966112 0.80351015 0.99953800
0.98264500 0.19097574 0.75561403
0.98393400 0.59286122 0.24632700
0.57284894 0.98458700 0.24206513
0.19742259 0.98543600 0.79868530
0.32701348 0.14522375 0.98686500
0.98793800 0.13556375 0.27719750
0.82309333 0.98433200 0.24252042
0.32546784 0.98547100 0.60138980
0.28152396 0.36113395 0.98745000
0.98860500 0.27264251 0.61097056
0.89909904 0.98954400 0.27271501
0.27297950 0.99067500 0.63530157
0.14836389 0.56058751 0.98742300
0.98836400 0.27243339 0.91963223
0.98905700 0.81509079 0.40879267
0.40995221 0.99091800 0.48542673
0.40983176 0.79515854 0.99149900
0.70442352 0.41724717 0.99260800
0.98939000 0.43381254 0.13609805
0.50892788 0.99069300 0.27306126
0.40976657 0.99140800 0.87594971
0.55192669 0.56927470 0.99250300
0.99381800 0.57997662 0.84298167
0.98968112 0.99485700 0.60436597
0.13601190 0.99132900 0.59106730
0.27994274 0.60249197 0.99253800
0.85004189 0.45155523 0.99427100
0.99552000 0.68604927 0.60462944
0.73132525 0.99605300 0.72700988
0.72873596 0.74935212 0.99810200
0.61074345 0.19371569 0.99409600
0.99518700 0.36303825 0.42402278
0.77908228 0.99657400 0.48840388
0.60902188 0.99808900 0.94918085
0.75207752 0.72879092 0.99846800
0.84999900 0.90999900 0.99999900
