mpv/oil_slick_hf-full-090.cube
TITLE "Oil Slick - Intense 90°"
LUT_3D_SIZE 6
DOMAIN_MIN 0.0 0.0 0.0
DOMAIN_MAX 1.0 1.0 1.0
0.00000000 0.00000000 0.00000000
0.00000000 0.03971674 0.19417100
0.38884200 0.00005800 0.32040634
0.58351300 0.10866642 0.00033700
0.53654771 0.77718400 0.00000000
0.00000000 0.97185500 0.87735093
0.19718500 0.00048900 0.01348229
0.19882200 0.10922372 0.00000000
0.21190303 0.39311900 0.00000000
0.00040400 0.58827600 0.57042200
0.63873481 0.00000000 0.78208500
0.97623400 0.46211710 0.00000000
0.00047800 0.39387000 0.00532509
0.00000000 0.24887349 0.39542500
0.39814400 0.00000000 0.37901876
0.59228300 0.35941134 0.00000000
0.19360967 0.78673800 0.00000000
0.00000000 0.98117300 0.68809307
0.59055500 0.00046700 0.36689079
0.59209200 0.56427079 0.00000000
0.00000000 0.59458100 0.02910845
0.00000000 0.59713400 0.53905706
0.04631603 0.00004700 0.79170300
0.98572800 0.00000000 0.26780568
0.00045600 0.78724000 0.21927211
0.00007900 0.65937424 0.78925500
0.23991637 0.00000000 0.79135000
0.79357300 0.00000000 0.06415637
0.24667939 0.79678800 0.00043600
0.00011500 0.85131290 0.99085900
0.44203022 0.00044500 0.98392500
0.98593000 0.06864474 0.00005800
0.13317198 0.98853900 0.00027500
0.00000000 0.65989094 0.99046400
0.34281710 0.00011300 0.99316100
0.99526200 0.00000000 0.70435638
0.05817060 0.00000000 0.19278500
0.19551800 0.07489041 0.00021400
0.08477788 0.38994300 0.00024700
0.00000000 0.58380400 0.48960375
0.12350877 0.00000000 0.77844500
0.97316200 0.00029000 0.06585157
0.19750800 0.14726569 0.00000000
0.20004300 0.18136821 0.16004300
0.19795138 0.39404200 0.14964529
0.10894236 0.32839485 0.58902500
0.78329600 0.05690222 0.48825874
0.97787100 0.88585681 0.02454669
0.00034700 0.39465100 0.29477472
0.20476864 0.13267177 0.39642800
0.39883700 0.12162053 0.19318627
0.56392792 0.59298200 0.08793052
0.05610536 0.78774300 0.10135845
0.02410415 0.91437448 0.98200800
0.59119800 0.12449605 0.00019800
0.28450105 0.59299300 0.08801641
0.08865182 0.59566400 0.33864787
0.08960322 0.43243193 0.59865100
0.52495989 0.05663958 0.79233000
0.98668500 0.44219410 0.05772267
0.00000000 0.78750100 0.59653371
0.05596253 0.28849229 0.78965800
0.77413397 0.05716338 0.79289100
0.79448800 0.56390064 0.08035296
0.13207104 0.79738500 0.35388061
0.15027578 0.51016943 0.99129400
0.98482400 0.00043200 0.86040569
0.98629500 0.86835086 0.05311270
0.11988659 0.98888600 0.61898125
0.15016447 0.29207408 0.99119700
0.76938419 0.15090992 0.99378800
0.99589900 0.15099250 0.34041293
0.38320245 0.00024600 0.38607000
0.38832900 0.26945273 0.00011300
0.01695466 0.39053600 0.00000000
0.00000000 0.50352730 0.58490700
0.53182523 0.00000000 0.77938600
0.97375700 0.56372297 0.00000000
0.26468405 0.39004300 0.00000000
0.15489018 0.39304400 0.28854303
0.24958284 0.14420404 0.39556500
0.58945400 0.32812562 0.09728217
0.05593928 0.78406300 0.27725074
0.02400230 0.36392565 0.97821600
0.00030000 0.17550354 0.39551600
0.39719500 0.12639599 0.28914336
0.39958600 0.30758600 0.30947718
0.49657961 0.59420100 0.27293212
0.23978753 0.78858400 0.40373301
0.20768345 0.62128387 0.98331100
0.59216900 0.58482124 0.00025700
0.08809330 0.59384600 0.22133970
0.27408481 0.57650510 0.59659900
0.27486094 0.33456976 0.59866800
0.79394100 0.24526501 0.65941371
0.94251702 0.98821800 0.25666431
0.00019400 0.61049451 0.78880200
0.27575863 0.05649462 0.79103700
0.79335600 0.24422544 0.36623286
0.55518393 0.79570300 0.27449608
0.30936069 0.79817400 0.75132432
0.31210735 0.35590348 0.99300900
0.98543900 0.00013500 0.12738007
0.35715911 0.98769600 0.07839525
0.30103359 0.81580371 0.98963300
0.51490595 0.31130472 0.99214600
0.99513900 0.31265681 0.88731266
0.99705200 0.54206206 0.31292890
0.57835500 0.00000000 0.21660433
0.54076690 0.58067600 0.00000000
0.00016500 0.58368500 0.11353694
0.00000000 0.28821187 0.58559800
0.78004700 0.00000000 0.57204176
0.77061320 0.97446400 0.00000000
0.14135034 0.58339000 0.00000000
0.14650754 0.56082358 0.58532900
0.53997889 0.11656719 0.58779200
0.59108300 0.58217459 0.09109053
0.05652737 0.78549800 0.58733640
0.02390992 0.08704613 0.97901300
0.21445859 0.00026500 0.58839300
0.59015800 0.24794306 0.09070925
0.27293806 0.59340700 0.31921259
0.27341019 0.37068005 0.59517200
0.73270401 0.24011801 0.78954900
0.98376200 0.44478163 0.20741630
0.18195904 0.59293200 0.00010800
0.08918618 0.59571500 0.52544101
0.27423488 0.32070331 0.59724200
0.46188100 0.46456424 0.59988100
0.79409600 0.43415002 0.52018087
0.66079533 0.98843100 0.44536821
0.00000000 0.22377395 0.78925500
0.78361838 0.05603472 0.79142400
0.79476900 0.62727475 0.25276938
0.46006706 0.79709800 0.57491610
0.47719596 0.67092251 0.79942700
0.59686923 0.47245248 0.99303600
0.98655400 0.65229865 0.00033800
0.10546736 0.98903700 0.52748955
0.30932509 0.38595146 0.99078800
0.89159233 0.47329359 0.99383100
0.99580600 0.47401518 0.64818287
0.99861700 0.98158264 0.47557278
0.77164000 0.14212261 0.00000000
0.44407591 0.77399900 0.00000000
0.00000000 0.77615800 0.41025091
0.00012500 0.01128754 0.77894900
0.78157200 0.00035600 0.08911059
0.20088773 0.97513900 0.00000000
0.00026900 0.77661300 0.14616430
0.12912559 0.37177452 0.77897800
0.78129100 0.07950395 0.39561896
0.40615980 0.78356000 0.05615073
0.05600747 0.72968048 0.78582500
0.21767055 0.02414154 0.98013400
0.78058600 0.00000000 0.66645413
0.74229597 0.78357300 0.05636295
0.23885095 0.78558800 0.58519279
0.23941372 0.31239332 0.78781500
0.79063000 0.24056448 0.70861713
0.98482500 0.84241436 0.20938550
0.00015100 0.78588700 0.22753848
0.05646864 0.52134497 0.78834400
0.51685504 0.24049271 0.79049700
0.79260200 0.50611516 0.42617635
0.44334487 0.79513900 0.61454668
0.67853265 0.45945171 0.98953200
0.20286106 0.00010000 0.79053200
0.79306700 0.05772472 0.23874181
0.46774961 0.79489000 0.26477661
0.46891016 0.68013063 0.79773700
0.63967200 0.73137283 0.79967200
0.78350749 0.63438910 0.99435900
0.52562752 0.98700100 0.00000000
0.12866206 0.81660997 0.98999800
0.62076733 0.31142603 0.99187900
0.99434800 0.47333270 0.79796956
0.99690900 0.77235910 0.63610505
0.76117480 0.99908200 0.63741214
0.96492500 0.64446130 0.00036500
0.21812204 0.96741000 0.00045800
0.00000000 0.96925900 0.91721388
0.55780622 0.00000000 0.97130400
0.97392900 0.51650808 0.00000000
0.00000000 0.97619800 0.30337304
0.00000000 0.96896000 0.63858928
0.33141143 0.09568464 0.97129500
0.97447000 0.26302808 0.03676692
0.02460451 0.97682100 0.07853288
0.02440684 0.60150596 0.97895600
0.48550856 0.02440116 0.98128300
0.97439900 0.00044700 0.08623318
0.30856481 0.97653600 0.02440533
0.20630017 0.93422988 0.97842500
0.34466000 0.20747012 0.98148200
0.98325900 0.20736007 0.56404814
0.69282064 0.98556400 0.21713742
0.00006600 0.97871400 0.76208942
0.02450279 0.20981340 0.98121300
0.98312400 0.20729450 0.91615395
0.98541500 0.93367605 0.39768690
0.43518852 0.98792600 0.98224301
0.85840279 0.46797668 0.99016100
0.83196458 0.00000000 0.98300100
0.98540600 0.55044981 0.03312014
0.26268828 0.98833500 0.59433584
0.52006845 0.46808474 0.99078000
0.99250900 0.63307486 0.84512532
0.99575400 0.93308258 0.63545395
0.00007600 0.98811600 0.25422993
0.14360095 0.27017498 0.99040300
0.97544303 0.31190874 0.99298600
0.99569700 0.47420382 0.48256069
0.86529573 0.99727200 0.63613790
0.80399900 0.99999900 0.79999900
