mpv/oil_slick_ms-alt.cube
TITLE "Oil Slick - Gasoline Rainbow (Vibrant)"
LUT_3D_SIZE 6
DOMAIN_MIN 0.0 0.0 0.0
DOMAIN_MAX 1.0 1.0 1.0
0.00000000 0.00000000 0.00000000
0.00341066 0.20437700 0.00000000
0.00005800 0.25814553 0.40925400
0.03321793 0.00033700 0.61413100
0.41158190 0.00000000 0.81800800
0.99989500 0.00000000 0.63505821
0.00048900 0.10547491 0.20566300
0.00000000 0.00529663 0.20550600
0.20688637 0.00000000 0.41000900
0.61537200 0.00040400 0.32444695
0.72304869 0.81938700 0.00000000
0.00000000 0.87686785 0.99957800
0.34149312 0.00047800 0.41082600
0.41058700 0.04015026 0.00000000
0.13575481 0.41151200 0.00000000
0.00000000 0.33727458 0.61585700
0.82051800 0.00000000 0.78412220
0.99982100 0.03488543 0.00000000
0.00046700 0.61598900 0.28301258
0.06387118 0.00000000 0.61573200
0.61642700 0.00000000 0.42401571
0.61718600 0.02126126 0.00000000
0.82196100 0.40287227 0.00004700
0.91765347 0.99968000 0.00000000
0.82115200 0.00045600 0.47689592
0.82137300 0.00007900 0.00850151
0.82167400 0.37241515 0.00000000
0.62581173 0.82210300 0.00000000
0.00043600 0.82352400 0.47356126
0.40476196 0.00011500 1.00000000
1.00000000 0.46724215 0.00044500
0.60779964 1.00000000 0.00005800
0.00027500 1.00000000 0.97478714
0.86081713 0.00000000 0.99980800
1.00000000 0.62355162 0.00011300
0.13890711 0.99982200 0.00000000
0.00000000 0.20410100 0.13283114
0.00021400 0.18341514 0.20504000
0.14883961 0.00024700 0.40967100
0.61373800 0.23752659 0.00000000
0.00000000 0.81858500 0.38796989
0.00029000 0.04890209 1.00000000
0.00000000 0.07940938 0.20530200
0.16399003 0.15347679 0.20604300
0.32325898 0.08883994 0.41024800
0.61543700 0.00024100 0.09010970
0.26144571 0.81991400 0.00012000
0.00030300 0.26355593 1.00000000
0.41092300 0.00034700 0.12790544
0.32761894 0.41090600 0.06744302
0.06563252 0.41152100 0.22800398
0.02968833 0.00000000 0.61587200
0.82083900 0.00000000 0.44385608
0.99974400 0.26603431 0.00000000
0.00019800 0.32538608 0.61594800
0.51151571 0.00000000 0.61594900
0.61682600 0.00000000 0.20061919
0.61801900 0.13308938 0.00047500
0.82190400 0.55683998 0.00000000
0.55041197 0.99972500 0.00000000
0.82072900 0.00000000 0.26135792
0.82109200 0.10913303 0.00000000
0.82253100 0.60305521 0.00041100
0.18861545 0.82233400 0.00000000
0.00012100 0.58257759 0.82343700
0.99963800 0.00000000 0.87472834
1.00000000 0.83896220 0.00043200
0.00000000 0.99951100 0.10601176
0.00000000 0.15888389 0.99971000
0.99962900 0.00000000 0.31517598
0.80949153 0.99982800 0.03068245
0.03041964 0.99954700 0.22485467
0.00024600 0.40870200 0.34744062
0.00011300 0.27607080 0.40916700
0.27833472 0.00000000 0.40958000
0.61415700 0.55125214 0.00000000
0.00000000 0.81884200 0.79458966
0.27652657 0.00000000 0.99997300
0.00000000 0.01241935 0.40915300
0.41036000 0.10842327 0.19701995
0.07837848 0.41108700 0.26590075
0.13383989 0.00000000 0.61518200
0.68750896 0.00000000 0.81999700
0.99973600 0.00000000 0.68620513
0.41110400 0.33537978 0.00030000
0.06547420 0.41098900 0.36796949
0.28798600 0.41158600 0.33742600
0.36501066 0.20945232 0.61640700
0.82099600 0.13119136 0.29034212
1.00000000 0.49455164 0.05347629
0.18558308 0.00025700 0.61623500
0.61611800 0.00000000 0.41272087
0.61707700 0.20974216 0.25523824
0.61735200 0.36169214 0.20962248
0.82283100 0.75722358 0.13204020
0.18969630 1.00000000 0.06792430
0.82134600 0.00019400 0.13163360
0.82178700 0.28336303 0.00003700
0.66271677 0.82231200 0.13153968
0.14047438 0.82286500 0.48069771
0.23825421 0.19416295 0.82354200
1.00000000 0.20935643 0.33048731
0.65475637 1.00000000 0.00013500
0.00000000 1.00000000 1.00000000
0.90166806 0.13749774 0.99954500
0.99966600 0.62109966 0.20736336
0.45035792 1.00000000 0.21629778
0.21594436 0.99978800 0.56938586
0.00000000 0.60501292 0.61230300
0.00000000 0.24035216 0.61283000
0.61404500 0.00016500 0.54208806
0.36434057 0.61416400 0.00000000
0.00000000 0.46973505 0.81881900
0.54973591 0.00000000 0.99976800
0.29191062 0.00000000 0.61381600
0.61396100 0.30900127 0.04374795
0.00000000 0.61463000 0.55400067
0.28292528 0.00047500 0.61612700
0.82074800 0.00049800 0.80510101
0.99962100 0.00000000 0.41856079
0.06105956 0.61529700 0.00026500
0.00000000 0.07506318 0.61526800
0.61672300 0.21001252 0.59596940
0.61669400 0.20958884 0.41087111
0.82127700 0.65770021 0.13128084
0.05302714 0.99967400 0.81880912
0.54599979 0.00010800 0.61631400
0.61730300 0.00049900 0.27119470
0.61703600 0.21481068 0.20955068
0.61788100 0.54372100 0.43248100
0.76166319 0.82230200 0.35350645
0.30401833 0.99964700 0.48755696
0.82111500 0.00000000 0.00498124
0.82149000 0.60783208 0.00000000
0.13213680 0.82304100 0.19384721
0.37120661 0.53293224 0.82357600
0.77039215 0.41268358 0.82411100
0.99955600 0.68209265 0.40030847
0.00033800 1.00000000 0.09564176
0.00042900 0.00200329 1.00000000
0.99978800 0.17092606 0.28067267
0.88404482 1.00000000 0.40100486
0.40131094 1.00000000 0.44814946
0.40196316 1.00000000 0.78803634
0.00000000 0.67240104 0.81690400
0.00000000 0.01879074 0.81746900
0.81783400 0.00000000 0.23944427
0.01838324 0.81883100 0.00012500
0.00035600 0.13353813 0.81966000
0.77974579 0.00000000 0.99953100
0.81835500 0.00026900 0.73403576
0.60533020 0.81892600 0.00024200
0.00016300 0.45591728 0.81944500
0.58389025 0.00004000 0.81992000
0.82039100 0.00000000 0.65544378
0.99983000 0.00000000 0.10950532
0.00000000 0.81880600 0.65907734
0.37836648 0.00014100 0.81999900
0.82022000 0.13103696 0.64791240
0.82065300 0.13096764 0.32037205
0.76672289 0.82167400 0.13148632
0.05319000 0.73655339 0.99982500
0.82058500 0.00015100 0.63169227
0.82124800 0.00021600 0.24659582
0.82160700 0.38577693 0.13143780
0.35324804 0.82191800 0.40319516
0.80569493 0.35626172 0.82266100
0.99983600 0.76041875 0.32896194
0.82170800 0.19900692 0.00010000
0.51057945 0.82244900 0.00024300
0.13450172 0.67410335 0.82247800
0.82353100 0.38616258 0.70303969
0.78161903 0.61340716 0.82367200
0.99996700 0.93225470 0.58626786
0.00000000 0.99987300 0.99897248
1.00000000 0.00047800 1.00000000
0.99996700 0.77940700 0.19709000
0.57066934 1.00000000 0.40118864
0.58684218 1.00000000 0.71443135
0.58696404 0.99999400 0.92923535
0.00036500 0.62855845 1.00000000
0.46112131 0.00045800 1.00000000
0.99991500 0.39972253 0.00000000
0.00000000 0.99956800 0.61774503
0.22285197 0.00000000 0.99980100
0.97832967 0.00000000 0.99967800
0.99970400 0.00000000 0.17500155
0.00000000 0.99964700 0.05438378
0.00043000 0.03621653 1.00000000
0.96982544 0.00038900 1.00000000
1.00000000 0.00013200 0.62776306
1.00000000 0.24547885 0.00006700
0.00044700 0.45194634 1.00000000
0.87899202 0.00019200 1.00000000
0.99968900 0.05297257 0.62425452
1.00000000 0.06081424 0.05366866
0.52260812 0.99973900 0.05308476
0.05302886 0.24126355 0.99965200
1.00000000 0.00006600 0.57942812
1.00000000 0.00017300 0.11606122
0.99969200 0.90457212 0.05303662
0.27468121 0.99959100 0.92474998
0.99971000 0.29175250 0.80521362
0.99955300 0.93231211 0.35524297
0.99965700 0.66244815 0.00000000
0.00000000 0.99967000 0.19732513
0.36055602 0.07326450 1.00000000
1.00000000 0.54060178 0.35345857
0.82759867 0.99959700 0.58389169
0.62865323 1.00000000 0.58688082
0.00007600 0.06669138 1.00000000
0.99997100 0.00000000 0.09090884
0.79497394 1.00000000 0.21199577
0.42610713 1.00000000 0.40171456
0.58642314 0.99966400 0.76919412
0.77249900 0.99999900 0.99999900
