mpv/oil_slick_hf-full-270.cube
TITLE "Oil Slick - Intense 270°"
LUT_3D_SIZE 6
DOMAIN_MIN 0.0 0.0 0.0
DOMAIN_MAX 1.0 1.0 1.0
0.00000000 0.00000000 0.00000000
0.19417100 0.15423326 0.00000000
0.00005800 0.38884200 0.06849366
0.00033700 0.47518358 0.58351300
0.24025229 0.00000000 0.77718400
0.97185500 0.00000000 0.09439907
0.00048900 0.19718500 0.18419171
0.00000000 0.08933228 0.19882200
0.18085497 0.00000000 0.39311900
0.58827600 0.00040400 0.01825800
0.14317119 0.78208500 0.00000000
0.00000000 0.51369490 0.97623400
0.39387000 0.00047800 0.38902291
0.39542500 0.14619251 0.00000000
0.00000000 0.39814400 0.01909324
0.00000000 0.23258666 0.59228300
0.59290633 0.00000000 0.78673800
0.98117300 0.00000000 0.29290093
0.00046700 0.59055500 0.22413121
0.00000000 0.02743321 0.59209200
0.59458100 0.00000000 0.56518155
0.59713400 0.00000000 0.05794694
0.74543397 0.79170300 0.00004700
0.00000000 0.98572800 0.71760232
0.78724000 0.00045600 0.56842389
0.78925500 0.12995976 0.00007900
0.55121563 0.79135000 0.00000000
0.00000000 0.79357300 0.72902963
0.55054461 0.00043600 0.79678800
0.99085900 0.13966110 0.00011500
0.54233978 0.98392500 0.00044500
0.00005800 0.91734326 0.98593000
0.85564202 0.00027500 0.98853900
0.99046400 0.33038106 0.00000000
0.65045690 0.99316100 0.00011300
0.00000000 0.99526200 0.29072762
0.13448740 0.19278500 0.00000000
0.00021400 0.12084159 0.19551800
0.30541212 0.00024700 0.38994300
0.58380400 0.00000000 0.09391625
0.65490123 0.77844500 0.00000000
0.00029000 0.97316200 0.90760043
0.00000000 0.05014231 0.19750800
0.16004300 0.17871779 0.20004300
0.34573591 0.14964529 0.39404200
0.58902500 0.36957251 0.10894236
0.05690222 0.78329600 0.35193948
0.02454669 0.11656088 0.97787100
0.39465100 0.00034700 0.10022328
0.32433113 0.39642800 0.13267177
0.12162053 0.39883700 0.32727126
0.11698460 0.08793052 0.59298200
0.78774300 0.05610536 0.74248991
0.98200800 0.09173767 0.02410415
0.00019800 0.46689995 0.59119800
0.39650835 0.08801641 0.59299300
0.59566400 0.08865182 0.34566795
0.59865100 0.25582229 0.08960322
0.32400969 0.79233000 0.05663958
0.05772267 0.60221358 0.98668500
0.78750100 0.00000000 0.19077229
0.78965800 0.55712824 0.05596253
0.07592041 0.79289100 0.05716338
0.08035296 0.31094032 0.79448800
0.79738500 0.13207104 0.57557543
0.99129400 0.63140035 0.15027578
0.00043200 0.98482400 0.12485031
0.05311270 0.17105684 0.98629500
0.98888600 0.11988659 0.48979134
0.99119700 0.84928739 0.15016447
0.37531373 0.99378800 0.15090992
0.15099250 0.99589900 0.80647857
0.00311355 0.38607000 0.00024600
0.00011300 0.11898927 0.38832900
0.37350934 0.00000000 0.39053600
0.58490700 0.08128670 0.00000000
0.24755477 0.77938600 0.00000000
0.00000000 0.41000703 0.97375700
0.12488195 0.00000000 0.39004300
0.39304400 0.15489018 0.25939116
0.29018620 0.39556500 0.14420404
0.09728217 0.35861055 0.58945400
0.78406300 0.05593928 0.56275154
0.97821600 0.63829265 0.02400230
0.39551600 0.22031246 0.00030000
0.12639599 0.39719500 0.23444763
0.30758600 0.39958600 0.39769482
0.37055351 0.27293212 0.59420100
0.78858400 0.23978753 0.62463852
0.98331100 0.56971059 0.20768345
0.00025700 0.00760476 0.59216900
0.59384600 0.08809330 0.46059960
0.59659900 0.29417871 0.27408481
0.59866800 0.53895917 0.27486094
0.24526501 0.79394100 0.37979230
0.30236530 0.25666431 0.98821800
0.78880200 0.17850149 0.00019400
0.57177299 0.79103700 0.05649462
0.24422544 0.79335600 0.67134858
0.51501515 0.27449608 0.79570300
0.79817400 0.30936069 0.35621037
0.99300900 0.94921287 0.31210735
0.00013500 0.98543900 0.85819393
0.70893213 0.07839525 0.98769600
0.98963300 0.47486288 0.30103359
0.78854477 0.99214600 0.31130472
0.31265681 0.99513900 0.42048315
0.31292890 0.76791884 0.99705200
0.00000000 0.57835500 0.36136967
0.03945710 0.00000000 0.58067600
0.58368500 0.00016500 0.47031306
0.58559800 0.29707213 0.00000000
0.00000000 0.78004700 0.20774824
0.20361880 0.00000000 0.97446400
0.44199766 0.00000000 0.58339000
0.58532900 0.17101295 0.14650754
0.16438030 0.58779200 0.11656719
0.09109053 0.09999894 0.59108300
0.78549800 0.05652737 0.25468897
0.97901300 0.91587679 0.02390992
0.37419941 0.58839300 0.00026500
0.09070925 0.43292419 0.59015800
0.59340700 0.27293806 0.54713247
0.59517200 0.49790214 0.27341019
0.29696300 0.78954900 0.24011801
0.20741630 0.74639668 0.98376200
0.41108096 0.00010800 0.59293200
0.59571500 0.08918618 0.15946017
0.59724200 0.55077356 0.27423488
0.59988100 0.59719776 0.46188100
0.43415002 0.79409600 0.70806515
0.77300388 0.44536821 0.98843100
0.78925500 0.56521605 0.00000000
0.06384034 0.79142400 0.05603472
0.25276938 0.42026363 0.79476900
0.79709800 0.46006706 0.68224896
0.79942700 0.60570045 0.47719596
0.86861925 0.99303600 0.47245248
0.00033800 0.33459335 0.98655400
0.98903700 0.10546736 0.56701481
0.99078800 0.91416163 0.30932509
0.57553226 0.99383100 0.47329359
0.47401518 0.99580600 0.82163831
0.47557278 0.49260714 0.99861700
0.00000000 0.62950939 0.77164000
0.32988209 0.00000000 0.77399900
0.77615800 0.00000000 0.36563309
0.77894900 0.76778646 0.00012500
0.00035600 0.78157200 0.69281741
0.77378227 0.00000000 0.97513900
0.77661300 0.00026900 0.63071770
0.77897800 0.53632907 0.12912559
0.07950395 0.78129100 0.46517599
0.43355092 0.05615073 0.78356000
0.78582500 0.11215199 0.05600747
0.78660498 0.98013400 0.02414154
0.00000000 0.78058600 0.11367787
0.09763998 0.05636295 0.78357300
0.78558800 0.23885095 0.43924616
0.78781500 0.71483540 0.23941372
0.24056448 0.79063000 0.32257735
0.20938550 0.35179614 0.98482500
0.78588700 0.00015100 0.55849952
0.78834400 0.32346767 0.05646864
0.51413467 0.79049700 0.24049271
0.42617635 0.71266319 0.79260200
0.79513900 0.44334487 0.62393719
0.77045106 0.98953200 0.45945171
0.58777094 0.79053200 0.00010000
0.05772472 0.79306700 0.61204992
0.59191700 0.26477661 0.79489000
0.79773700 0.58651653 0.46891016
0.79967200 0.70797117 0.63967200
0.84524060 0.99435900 0.63438910
0.46124648 0.00000000 0.98700100
0.98999800 0.30205009 0.12866206
0.68253771 0.99187900 0.31142603
0.47333270 0.99434800 0.66971115
0.63610505 0.86065495 0.99690900
0.87531934 0.63741214 0.99908200
0.00036500 0.32082870 0.96492500
0.74974596 0.00045800 0.96741000
0.96925900 0.00000000 0.05196012
0.41306578 0.97130400 0.00000000
0.00000000 0.45722192 0.97392900
0.97619800 0.00000000 0.67250296
0.96896000 0.00000000 0.33007472
0.73556820 0.97129500 0.09568464
0.03676692 0.74820884 0.97447000
0.97682100 0.02460451 0.92289264
0.97895600 0.40185688 0.02440684
0.52017560 0.98128300 0.02440116
0.00044700 0.97439900 0.88861282
0.69237652 0.02440533 0.97653600
0.97842500 0.25049529 0.20630017
0.84429212 0.98148200 0.20747012
0.20736007 0.98325900 0.62657093
0.50988078 0.21713742 0.98556400
0.97871400 0.00006600 0.21669058
0.98121300 0.79590239 0.02450279
0.20729450 0.98312400 0.27426454
0.39768690 0.44942586 0.98541500
0.98792600 0.43518852 0.44087152
0.59973489 0.99016100 0.46797668
0.15069342 0.98300100 0.00000000
0.03312014 0.46807633 0.98540600
0.98833500 0.26268828 0.65668743
0.93879630 0.99078000 0.46808474
0.63307486 0.99250900 0.78045853
0.63545395 0.69812537 0.99575400
0.98811600 0.00007600 0.73396207
0.99040300 0.86382897 0.14360095
0.32945171 0.99298600 0.31190874
0.47420382 0.99569700 0.98734013
0.76811418 0.63613790 0.99727200
0.99599900 0.79999900 0.99999900
