mpv/oil_slick_ms-alt.cube
TITLE "Oil Slick - Gasoline Rainbow (Vibrant)"
LUT_3D_SIZE 16
DOMAIN_MIN 0.0 0.0 0.0
DOMAIN_MAX 1.0 1.0 1.0
0.00000000 0.00000000 0.00000000
0.06779233 0.04704738 0.00000000
0.08634272 0.13608467 0.00000000
0.00341066 0.20437700 0.00000000
0.00000000 0.27266933 0.14423045
0.00000000 0.34096167 0.33857048
0.00005800 0.25814553 0.40925400
0.00015100 0.16142779 0.47754633
0.00024400 0.06359412 0.54583867
0.03321793 0.00033700 0.61413100
0.13370828 0.00043000 0.68242333
0.25185989 0.00000000 0.74971567
0.41158190 0.00000000 0.81800800
0.63890023 0.00000000 0.88630033
0.95459267 0.00000000 0.94636394
0.99989500 0.00000000 0.63505821
0.00016300 0.06855433 0.03559432
0.00000000 0.06828467 0.03632103
0.00000000 0.13670300 0.10345152
0.00000000 0.18414476 0.20459333
0.00007900 0.15981368 0.27326767
0.00042600 0.11142408 0.34181400
0.00031700 0.04993542 0.40990433
0.01901977 0.00000000 0.47732267
0.09949118 0.00039500 0.54638100
0.20012287 0.00012600 0.61431133
0.34058749 0.00047300 0.68285767
0.54214107 0.00000000 0.75009200
0.81902233 0.00023900 0.80456340
0.88740067 0.00041800 0.53753402
0.95502700 0.00000000 0.13605956
0.99975200 0.41147596 0.00000000
0.00000000 0.11902155 0.13660867
0.00028700 0.09393707 0.13726900
0.00000000 0.06815396 0.13706933
0.00000000 0.06303074 0.20510567
0.00032600 0.03677670 0.27390600
0.00692843 0.00020300 0.34198233
0.06613818 0.00000000 0.40968667
0.15038431 0.00044900 0.47862700
0.27094128 0.00000000 0.54603533
0.44958429 0.00000000 0.61431167
0.68312800 0.00035200 0.65790266
0.75071633 0.00000000 0.43353361
0.81930867 0.00013400 0.08886853
0.88757700 0.39100264 0.00020300
0.90126823 0.95514533 0.00000000
0.28588140 1.00000000 0.00016900
0.00048900 0.10547491 0.20566300
0.00000000 0.07156961 0.20526533
0.00009900 0.03879888 0.20567167
0.00000000 0.00529663 0.20550600
0.03670385 0.00022100 0.27419233
0.10370206 0.00000000 0.34202667
0.20688637 0.00000000 0.41000900
0.36219651 0.00000000 0.47827533
0.54695367 0.00018500 0.50500279
0.61537200 0.00040400 0.32444695
0.68292233 0.00000000 0.03419150
0.75095667 0.37657275 0.00000000
0.72304869 0.81938700 0.00000000
0.19612931 0.88750133 0.00000000
0.00000000 0.95562767 0.44181137
0.00000000 0.87686785 0.99957800
0.00015200 0.06404884 0.27371733
0.00004500 0.01702816 0.27380967
0.03431657 0.00007400 0.27403800
0.09120698 0.00022300 0.27438633
0.15454387 0.00027600 0.27463867
0.28494530 0.00000000 0.34229100
0.41071133 0.00000000 0.34262070
0.47862767 0.00000000 0.20503715
0.54731200 0.02855375 0.00015200
0.61522833 0.37124100 0.00000000
0.53679756 0.68346467 0.00000000
0.09963387 0.75179700 0.00003900
0.00000000 0.81987333 0.44294558
0.00000000 0.70248658 0.88767767
0.00039800 0.14603304 0.95675400
0.44639516 0.00000000 0.99974700
0.05520820 0.00000000 0.34177167
0.14174199 0.00046600 0.34262200
0.23969296 0.00006900 0.34242433
0.34288267 0.00032800 0.33421423
0.34298100 0.00022700 0.20944252
0.34319133 0.00023800 0.07167068
0.41087367 0.10330639 0.00000000
0.47922000 0.37598855 0.00000000
0.34144376 0.54735033 0.00000000
0.00045000 0.61620067 0.00543038
0.00018900 0.68413900 0.45092024
0.00000000 0.52226908 0.75173333
0.00000000 0.06297439 0.81991167
0.43580549 0.00000000 0.88832200
0.95000239 0.00042500 0.95717233
0.99989200 0.00000000 0.59679092
0.34149312 0.00047800 0.41082600
0.41075033 0.00020300 0.32434482
0.41103067 0.00028400 0.15053845
0.41058700 0.04015026 0.00000000
0.41084333 0.24552341 0.00000000
0.35992481 0.41121567 0.00000000
0.13575481 0.41151200 0.00000000
0.00000000 0.47962033 0.11736998
0.00000000 0.54788467 0.46450818
0.00000000 0.33727458 0.61585700
0.02289451 0.00021200 0.68455333
0.42861345 0.00010500 0.75264567
0.82051800 0.00000000 0.78412220
0.88923433 0.00029500 0.49135199
0.95705067 0.00000000 0.21425999
0.99982100 0.03488543 0.00000000
0.47888033 0.00014100 0.08176474
0.47849867 0.16138833 0.00000000
0.47865700 0.42060643 0.00000000
0.26779097 0.47976333 0.00042600
0.00000000 0.47928967 0.00771508
0.00000000 0.47968400 0.28297327
0.00000000 0.40748612 0.47962633
0.00000000 0.15014406 0.47971667
0.10971061 0.00000000 0.54824300
0.42153382 0.00000000 0.61650133
0.68481167 0.00007900 0.60448105
0.75310200 0.00017000 0.38508300
0.82110033 0.00000000 0.16925189
0.88911067 0.03175137 0.00000000
0.95766900 0.21633453 0.00013900
0.99960600 0.38950199 0.00000000
0.49621469 0.54693467 0.00000000
0.17567945 0.54755500 0.00022500
0.00000000 0.54711933 0.14744953
0.00000000 0.54738767 0.46577191
0.00000000 0.32330414 0.54757600
0.00000000 0.03615460 0.54778833
0.22686515 0.00000000 0.54827267
0.46234009 0.00000000 0.54805300
0.54877733 0.00005200 0.42839732
0.61708567 0.00016100 0.28167228
0.68508200 0.00000000 0.12588899
0.75372633 0.02849868 0.00040300
0.82192267 0.17731181 0.00040000
0.88930300 0.32446218 0.00000000
0.95775533 0.48465313 0.00000000
1.00000000 0.67774385 0.00039900
0.00046700 0.61598900 0.28301258
0.00000000 0.58979606 0.61551133
0.00045700 0.25050673 0.61637767
0.06387118 0.00000000 0.61573200
0.34791975 0.00044700 0.61676633
0.59660984 0.00045000 0.61696867
0.61642700 0.00000000 0.42401571
0.61679733 0.00000000 0.24620626
0.61683167 0.00000000 0.09927682
0.61718600 0.02126126 0.00000000
0.68561233 0.13693997 0.00009700
0.75366267 0.26065260 0.00000000
0.82196100 0.40287227 0.00004700
0.88997133 0.58003669 0.00000000
0.95787767 0.81507197 0.00000000
0.91765347 0.99968000 0.00000000
0.00013000 0.18537510 0.68404333
0.15414768 0.00000000 0.68371167
0.45660484 0.00043200 0.68474400
0.68440433 0.00000000 0.65219589
0.68434867 0.00000000 0.43299094
0.68502500 0.00011500 0.25304117
0.68526533 0.00015600 0.10588642
0.68494167 0.01542008 0.00000000
0.68546200 0.12088426 0.00000000
0.68597033 0.22038904 0.00026300
0.68588267 0.32419578 0.00000000
0.75450300 0.48826969 0.00039700
0.82224733 0.70770564 0.00000000
0.77439854 0.89028367 0.00000000
0.51042508 0.95894000 0.00023600
0.12206997 0.99998500 0.00000000
0.55566167 0.00000000 0.75209767
0.75240400 0.00000000 0.67696610
0.75248233 0.00000000 0.45135407
0.75280467 0.00000000 0.26785720
0.75278700 0.00000000 0.11863094
0.75291733 0.00477014 0.00000000
0.75387567 0.11618345 0.00037500
0.75387800 0.22561773 0.00017800
0.75368433 0.34634471 0.00000000
0.75403067 0.49082404 0.00000000
0.75466100 0.66891299 0.00036300
0.62205000 0.75487933 0.00038200
0.38670215 0.82246167 0.00000000
0.04052522 0.89136000 0.00046400
0.00046300 0.95955833 0.43445899
0.00000000 0.99968200 0.99968200
0.82115200 0.00045600 0.47689592
0.82046033 0.00000000 0.28839722
0.82100067 0.00000000 0.13667558
0.82137300 0.00007900 0.00850151
0.82156133 0.10983556 0.00006800
0.82202167 0.23243919 0.00032900
0.82167400 0.37241515 0.00000000
0.82196633 0.54394453 0.00000000
0.82218667 0.75683379 0.00000000
0.62581173 0.82210300 0.00000000
0.31199854 0.82293133 0.00024200
0.00000000 0.82265567 0.05565890
0.00043600 0.82352400 0.47356126
0.00038500 0.76871838 0.89167233
0.00025400 0.24024014 0.95974067
0.40476196 0.00011500 1.00000000
0.88920633 0.00011900 0.15785740
0.88962467 0.00033800 0.02414090
0.88974700 0.10374158 0.00026100
0.88925333 0.23978285 0.00000000
0.88948767 0.40142508 0.00000000
0.89013000 0.60194830 0.00004600
0.89005233 0.85099525 0.00000000
0.62367220 0.89012667 0.00000000
0.25945456 0.89079300 0.00011100
0.00000000 0.89086733 0.16330447
0.00047700 0.89155767 0.63876062
0.00046400 0.62700765 0.89174400
0.00000000 0.07872198 0.89106633
0.48323371 0.00000000 0.89147667
0.95969500 0.00000000 0.79026022
1.00000000 0.00026800 0.20720483
0.95726067 0.09698506 0.00000000
0.95739300 0.24927515 0.00000000
0.95749733 0.43304903 0.00000000
0.95787767 0.66296891 0.00000000
0.95781400 0.94922510 0.00000000
0.61683838 0.95798633 0.00000000
0.20286500 0.95902667 0.00035200
0.00000000 0.95850300 0.27414777
0.00000600 0.95907933 0.80602426
0.00000000 0.53821123 0.95906767
0.06323436 0.00039600 0.95986800
0.67434000 0.00000000 0.95952033
0.95975267 0.00000000 0.64100700
0.96039700 0.00032700 0.06260496
0.95993333 0.47588538 0.00000000
1.00000000 1.00000000 0.00007700
1.00000000 0.46724215 0.00044500
1.00000000 0.72701599 0.00017600
0.99972700 0.99972700 0.00000000
0.60779964 1.00000000 0.00005800
0.14301648 0.99992100 0.00000000
0.00002000 1.00000000 0.38761800
0.00027500 1.00000000 0.97478714
0.00000000 0.45096839 0.99994200
0.20207746 0.00000000 0.99980500
0.86081713 0.00000000 0.99980800
0.99994300 0.00000000 0.55016731
0.99954600 0.06059145 0.00000000
1.00000000 0.62355162 0.00011300
0.93209011 0.99983600 0.00000000
0.50015606 0.99999500 0.00000000
0.13890711 0.99982200 0.00000000
0.00029100 0.06836700 0.03295943
0.00000000 0.06804933 0.04484133
0.00000000 0.13633967 0.10606468
0.00018800 0.20486200 0.20199833
0.00000000 0.19531529 0.27240833
0.00000000 0.11152756 0.34094667
0.06384838 0.00000000 0.40925300
0.34593442 0.00000000 0.47735933
0.54591367 0.00024300 0.34778148
0.61400400 0.03028281 0.00013400
0.68199833 0.51589172 0.00000000
0.40783454 0.75070467 0.00043600
0.00019900 0.81866700 0.10119000
0.00000000 0.88653333 0.64873372
0.00000000 0.70225246 0.95447967
0.00000000 0.29642338 0.99953600
0.00000000 0.06797533 0.05767780
0.05115700 0.06832367 0.05423709
0.01534318 0.13677600 0.10019271
0.00000000 0.17770440 0.20486833
0.00005600 0.14238949 0.27332067
0.00000500 0.08682324 0.34146900
0.00000000 0.02125149 0.40923333
0.05016727 0.00035100 0.47821367
0.13273472 0.00021200 0.54627400
0.23983641 0.00049700 0.61475833
0.39022493 0.00019000 0.68265067
0.60875761 0.00000000 0.75038300
0.81899533 0.00013600 0.71542519
0.88691167 0.00000000 0.41941507
0.95484400 0.01363021 0.00000000
0.99955900 0.59604312 0.00000000
0.00027700 0.10677549 0.13713567
0.02328545 0.09195837 0.13755400
0.03045976 0.07546628 0.13762433
0.02030398 0.06455566 0.20543467
0.01565145 0.03297632 0.27376100
0.03455465 0.00682884 0.34178733
0.09186057 0.00000000 0.40993767
0.18163233 0.00014200 0.47839600
0.31197651 0.00000000 0.54597033
0.50592348 0.00045600 0.61510867
0.68259500 0.00000000 0.58202379
0.75097333 0.00000000 0.33357834
0.81892367 0.03981950 0.00000000
0.88781400 0.55068506 0.00036400
0.71251657 0.95580433 0.00015500
0.06978292 0.99984600 0.00000000
0.00003000 0.09873967 0.20528000
0.02030736 0.07956578 0.20578833
0.02692204 0.05296567 0.20522067
0.03360770 0.02867830 0.20536900
0.06480386 0.01375504 0.27384133
0.12767961 0.00000000 0.34197367
0.24090517 0.00036800 0.41081400
0.40887167 0.00030100 0.47894633
0.54641867 0.00000000 0.44137384
0.61541500 0.00037100 0.24002738
0.68299933 0.07453951 0.00000000
0.75167567 0.51316927 0.00023300
0.56137903 0.82007600 0.00043400
0.01002921 0.88751233 0.00000000
0.00000000 0.95565667 0.64635497
0.00000000 0.66119193 0.99959700
0.00007100 0.04720456 0.27371233
0.02351946 0.01796538 0.27373067
0.07327686 0.01448016 0.27434100
0.12546800 0.00664883 0.27383933
0.18646015 0.00030700 0.27474567
0.32705715 0.00028600 0.34292400
0.41132633 0.00048900 0.28809686
0.47880867 0.00000000 0.13269650
0.54713900 0.12125210 0.00000000
0.61563733 0.48693847 0.00020200
0.39940726 0.68394367 0.00030900
0.00048800 0.75232200 0.05932784
0.00004300 0.82007633 0.61803788
0.00045400 0.51810322 0.88868667
0.04325979 0.00044900 0.95688100
0.63019807 0.00000000 0.99986000
0.10530290 0.00000000 0.34174467
0.20488131 0.00002900 0.34226100
0.30986609 0.00000000 0.34204133
0.34256567 0.00000000 0.25920668
0.34288200 0.00005200 0.13385290
0.34336633 0.00161703 0.00033700
0.41125067 0.18884011 0.00002200
0.47930300 0.47713879 0.00000000
0.22343479 0.54757933 0.00000000
0.00031700 0.61614367 0.13984817
0.00033000 0.68435600 0.59920496
0.00000000 0.36519619 0.75172833
0.09661989 0.00000000 0.82038067
0.59230280 0.00000000 0.88826500
0.95668533 0.00000000 0.81700179
1.00000000 0.00027500 0.46512843
0.41076100 0.00033700 0.37763880
0.41049133 0.00000000 0.20486136
0.41108167 0.00025900 0.02541066
0.41137200 0.16782113 0.00035000
0.41166633 0.37102387 0.00044500
0.24139222 0.41139667 0.00000000
0.02664344 0.41195500 0.00033500
0.00042600 0.48024533 0.23586813
0.00000000 0.50471665 0.54753967
0.00000000 0.20529512 0.61598200
0.15678253 0.00017100 0.68458833
0.55932418 0.00000000 0.75246267
0.82055700 0.00000000 0.66111617
0.88899933 0.00000000 0.37996078
0.95674167 0.00000000 0.11703520
0.99990600 0.11759768 0.00000000
0.47920933 0.07855264 0.00039400
0.47898967 0.33474611 0.00000000
0.36471124 0.47904600 0.00000000
0.10071331 0.47978633 0.00037300
0.00000000 0.47946667 0.16534368
0.00009100 0.47990300 0.42777034
0.00014800 0.27868537 0.48015933
0.00025700 0.03808500 0.48046767
0.22075207 0.00000000 0.54815600
0.52858055 0.00000000 0.61631233
0.68492067 0.00011200 0.50426302
0.75325300 0.00024500 0.29452921
0.82122133 0.00001400 0.08984945
0.88971367 0.10083931 0.00030700
0.95771400 0.27659729 0.00010800
1.00000000 0.44735049 0.00031300
0.29336137 0.54736967 0.00016300
0.00000000 0.54714800 0.02990798
0.00019300 0.54779833 0.34230466
0.00000000 0.45065304 0.54751267
0.00000000 0.16362606 0.54753100
0.10220344 0.00000000 0.54801333
0.34496735 0.00032500 0.54872767
0.54834600 0.00000000 0.53681428
0.54897233 0.00017100 0.34990068
0.61707867 0.00007800 0.21098846
0.68486500 0.00000000 0.06345497
0.75384333 0.08299042 0.00044400
0.82161367 0.22621504 0.00001500
0.88987200 0.37362410 0.00007400
0.95797833 0.53934514 0.00000000
0.99995200 0.74577502 0.00000000
0.00000000 0.61524200 0.49888195
0.00000000 0.38550271 0.61569433
0.00000000 0.06806591 0.61549867
0.22040613 0.00000000 0.61595900
0.47847746 0.00028000 0.61667533
0.61657567 0.00000000 0.53095053
0.61680400 0.00001000 0.34071242
0.61683233 0.00000000 0.18141015
0.61755667 0.00036400 0.04980793
0.61758500 0.06166410 0.00019300
0.68526133 0.17476440 0.00000000
0.75412167 0.30143753 0.00033100
0.82207800 0.45101371 0.00008800
0.89031433 0.64295874 0.00012500
0.95864667 0.90059638 0.00025800
0.80384226 1.00000000 0.00034300
0.00899544 0.00041300 0.68440233
0.32318389 0.00000000 0.68370867
0.59538373 0.00000000 0.68434700
0.68463733 0.00005000 0.54169232
0.68444367 0.00000000 0.34771313
0.68473400 0.00000000 0.18833464
0.68518033 0.00000000 0.05700490
0.68490267 0.05423291 0.00000000
0.68527700 0.15561949 0.00000000
0.68615133 0.25702645 0.00036800
0.68620567 0.36721386 0.00022300
0.75449600 0.54637913 0.00031400
0.82200633 0.78723011 0.00000000
0.66677230 0.89035267 0.00000000
0.36923559 0.95893500 0.00015500
0.00047000 1.00000000 0.05700258
0.69903546 0.00001400 0.75239467
0.75294300 0.00036300 0.56383204
0.75307933 0.00030000 0.36611586
0.75257167 0.00000000 0.20417388
0.75337200 0.00019400 0.07161877
0.75307233 0.04360030 0.00000000
0.75334467 0.15265126 0.00000000
0.75374100 0.26739390 0.00000000
0.75357333 0.39870003 0.00000000
0.75460967 0.55875548 0.00043500
0.75389800 0.75317907 0.00000000
0.51765871 0.75433433 0.00000000
0.25244964 0.82229467 0.00000000
0.00000000 0.89089900 0.12726613
0.00005600 0.95922733 0.63609678
0.00000000 0.77499045 0.99950900
0.82055500 0.00000000 0.39082024
0.82110133 0.00013000 0.22636588
0.82077567 0.00000000 0.08937334
0.82135400 0.03128499 0.00000000
0.82194833 0.15085990 0.00037900
0.82218267 0.28184385 0.00041400
0.82176100 0.43679161 0.00000000
0.82186733 0.62802898 0.00000000
0.78071640 0.82242167 0.00005500
0.49567402 0.82288800 0.00032200
0.15809130 0.82284233 0.00007700
0.00000000 0.82277267 0.22958750
0.00028300 0.82344700 0.66321299
0.00000000 0.55008882 0.89093733
0.00243056 0.00000000 0.95939567
0.66577767 0.00000000 0.99950800
0.88958733 0.00042400 0.11058472
0.88927967 0.01783379 0.00000000
0.88911600 0.14860590 0.00000000
0.88942433 0.29784703 0.00000000
0.89022867 0.47957746 0.00026800
0.88968900 0.70366104 0.00000000
0.79988351 0.89074133 0.00038200
0.46525243 0.89006567 0.00000000
0.07375562 0.89029400 0.00000000
0.00000000 0.89060233 0.37126165
0.00014600 0.89130267 0.86453856
0.00000000 0.38902679 0.89102700
0.16173066 0.00000000 0.89124733
0.72159022 0.00032900 0.89208367
0.96039200 0.00043800 0.54544393
1.00000000 0.03874344 0.00018700
0.95776367 0.14892704 0.00020900
0.95803000 0.31733017 0.00027600
0.95750833 0.52435199 0.00000000
0.95794267 0.78369269 0.00000000
0.81421367 0.95859700 0.00024500
0.43155224 0.95825533 0.00000000
0.00006300 0.95881367 0.01328185
0.00000000 0.95873600 0.51563224
0.00010500 0.85200601 0.95925433
0.00030000 0.26729916 0.95964867
0.33649859 0.00000000 0.95913500
0.94259938 0.00000000 0.95965733
0.96025567 0.00030900 0.38714378
0.95977000 0.17121982 0.00000000
0.96047233 0.68482076 0.00012700
0.83090043 0.99955400 0.00000000
1.00000000 0.57183255 0.00010600
1.00000000 0.86634898 0.00011900
0.82580349 1.00000000 0.00000800
0.39584494 1.00000000 0.00022900
0.00030200 1.00000000 0.10255720
0.00049900 1.00000000 0.66099083
0.00000000 0.78676796 0.99970000
0.00003300 0.14782192 1.00000000
0.50617153 0.00000000 0.99974600
0.99972700 0.00000000 0.89877332
0.99960000 0.00000000 0.27206273
0.99951700 0.31353644 0.00000000
1.00000000 0.84674156 0.00038200
0.74227188 0.99981100 0.00000000
0.34427734 1.00000000 0.00049200
0.01426052 1.00000000 0.00011300
0.00008200 0.13623400 0.07770054
0.00003900 0.13639033 0.10176630
0.00004800 0.13659867 0.11681051
0.00000000 0.19543353 0.20460300
0.00023000 0.17886504 0.27317933
0.00041100 0.08485859 0.34155967
0.10592117 0.00000000 0.40922400
0.40738631 0.00019300 0.47774033
0.54531667 0.00000000 0.26484374
0.61347300 0.13328712 0.00000000
0.68239333 0.63882442 0.00024800
0.27047792 0.75029367 0.00000000
0.00046200 0.81900600 0.24641298
0.00047500 0.88721833 0.79517742
0.00027600 0.56344912 0.95521867
0.00000000 0.16932294 0.99980900
0.00000000 0.13654033 0.12793063
0.01091488 0.13002642 0.13661467
0.01855944 0.10836786 0.13718900
0.00043351 0.06234357 0.20510333
0.06512377 0.00000000 0.27287767
0.29223552 0.00000000 0.34148800
0.40993433 0.00019500 0.19278651
0.47780867 0.11467683 0.00000000
0.54604700 0.52420225 0.00000000
0.20767467 0.61407333 0.00000000
0.00000000 0.68223167 0.21713843
0.00038600 0.75112200 0.68296293
0.00035300 0.47710392 0.81928833
0.00000000 0.14453493 0.88689867
0.15938595 0.00000000 0.95508100
0.42853778 0.00046200 1.00000000
0.00000000 0.10153222 0.13645067
0.02614180 0.09375645 0.13759900
0.10281400 0.11725382 0.13714733
0.08893762 0.10975260 0.20555967
0.08130201 0.08033649 0.27405200
0.10991612 0.06808121 0.34207233
0.15396694 0.04880028 0.41023667
0.22588813 0.02182179 0.47825700
0.35297966 0.00000000 0.54614133
0.56027533 0.00043300 0.61516167
0.68243800 0.00000000 0.50859880
0.75082633 0.00000000 0.23604669
0.81896667 0.16506826 0.00000000
0.88705100 0.70485807 0.00000000
0.52887653 0.95592733 0.00020200
0.00035100 1.00000000 0.13914233
0.00000000 0.09127244 0.20486100
0.02291703 0.07345380 0.20506333
0.09136586 0.10247947 0.20564967
0.10073305 0.09081004 0.20562000
0.12791428 0.07563208 0.27438233
0.18149079 0.05330349 0.34197667
0.28095407 0.02525400 0.41053100
0.45186538 0.00000000 0.47855733
0.54717567 0.00025500 0.38271971
0.61471400 0.00000000 0.15942736
0.68359633 0.17893994 0.00027700
0.75168667 0.64293895 0.00016800
0.40529119 0.81935300 0.00000000
0.00031000 0.88822733 0.16796631
0.00000000 0.95590967 0.84193031
0.00000000 0.45610288 0.99977200
0.00005400 0.02156191 0.27377133
0.05838686 0.01730445 0.27403167
0.15459086 0.07605609 0.27460800
0.19232180 0.06952864 0.27425233
0.23370940 0.06284401 0.27474867
0.34246500 0.03411004 0.32070153
0.41136933 0.00302148 0.23778198
0.47895767 0.00000000 0.06550221
0.54702200 0.20774220 0.00000000
0.61594633 0.59540236 0.00043500
0.26958873 0.68407467 0.00036400
0.00026500 0.75217500 0.20882716
0.00026600 0.82037533 0.78368097
0.00007100 0.34279101 0.88837967
0.21989734 0.00000000 0.95629200
0.80272594 0.00036500 1.00000000
0.16999767 0.00000000 0.34192567
0.29126010 0.00011600 0.34242400
0.34258233 0.04457143 0.28333550
0.34296067 0.03495236 0.18096671
0.34276700 0.02631384 0.06780539
0.34276933 0.09353369 0.02053544
0.41156767 0.27185943 0.00026300
0.38613620 0.47957000 0.00006600
0.11304673 0.54819233 0.00048900
0.00042800 0.61633067 0.26608622
0.00000000 0.63000517 0.68360900
0.00029400 0.21900977 0.75259533
0.24625171 0.00004500 0.82054567
0.73888674 0.00039200 0.88909200
0.95708233 0.00018300 0.68124038
0.99979400 0.00000000 0.34269901
0.41006000 0.00000000 0.25913708
0.41106433 0.00036500 0.06255478
0.41107667 0.13359979 0.00341331
0.41102500 0.31806524 0.00000000
0.31111875 0.41094133 0.00000000
0.11506783 0.41169767 0.00020100
0.00000000 0.41123800 0.08313866
0.00022700 0.48012233 0.34899496
0.00008800 0.38639301 0.54818267
0.00026900 0.08244471 0.61656300
0.28105339 0.00000000 0.68444733
0.68082150 0.00009500 0.75278767
0.82112800 0.00023600 0.54819166
0.88870833 0.00000000 0.27740565
0.95739267 0.00010200 0.02846793
1.00000000 0.19477864 0.00039500
0.47936633 0.24937697 0.00047500
0.43297470 0.47912867 0.00003800
0.16899753 0.47947500 0.00018500
0.00017200 0.47966133 0.08335283
0.00031900 0.48000767 0.33309001
0.00039400 0.38398711 0.48028200
0.00027700 0.15054013 0.48036433
0.07009277 0.00000000 0.48007867
0.32501759 0.00000000 0.54842500
0.61661133 0.00000000 0.60525689
0.68451767 0.00000000 0.41178713
0.75335200 0.00026800 0.21161460
0.82136233 0.00007900 0.01702588
0.88985267 0.16455683 0.00037000
0.95759100 0.33390220 0.00000000
1.00000000 0.50393790 0.00006400
0.08733795 0.54692467 0.00000000
0.00020700 0.54768900 0.24244561
0.00028000 0.54796133 0.54721408
0.00000000 0.26776485 0.54765367
0.00010200 0.00493792 0.54818200
0.23744796 0.00000300 0.54828233
0.45602171 0.00000000 0.54817867
0.54884700 0.00016900 0.44706532
0.54899133 0.00011400 0.27808136
0.61749167 0.00041500 0.14731419
0.68534800 0.00007200 0.00727987
0.75368033 0.13321916 0.00020500
0.82215267 0.27396703 0.00047800
0.88961300 0.42222607 0.00000000
0.95811733 0.59662467 0.00004400
0.99995300 0.81928071 0.00000000
0.00026900 0.52358476 0.61594300
0.00000000 0.18679555 0.61580133
0.10964186 0.00000000 0.61592767
0.37042937 0.00010600 0.61637800
0.59987042 0.00000000 0.61621633
0.61644267 0.00000000 0.43433785
0.61652100 0.00000000 0.26576568
0.61744333 0.00037400 0.12479192
0.61728167 0.00001300 0.00491987
0.61788400 0.09866874 0.00041600
0.68589033 0.21231521 0.00022300
0.75396467 0.34253904 0.00009800
0.82218700 0.50227881 0.00012100
0.89016533 0.71058209 0.00000000
0.92441986 0.95806767 0.00000000
0.68121747 1.00000000 0.00038200
0.18637730 0.00000000 0.68398933
0.47883360 0.00044100 0.68470567
0.68402200 0.00000000 0.64602814
0.68481033 0.00014700 0.44363177
0.68458267 0.00000000 0.27392232
0.68500300 0.00000000 0.13352512
0.68563133 0.00037000 0.01519989
0.68591567 0.09066323 0.00045500
0.68526400 0.19013304 0.00000000
0.68605233 0.29562651 0.00019300
0.68623267 0.41413121 0.00017400
0.75458900 0.61057190 0.00033100
0.76964039 0.82200133 0.00000000
0.55080688 0.89031767 0.00000000
0.21977824 0.95910600 0.00025000
0.00024700 1.00000000 0.24328325
0.75212767 0.00000000 0.68107973
0.75217000 0.00000000 0.46577676
0.75238833 0.00000000 0.29297474
0.75256667 0.00000000 0.15117603
0.75333700 0.00008300 0.03074577
0.75305933 0.07954793 0.00000000
0.75394167 0.19150633 0.00028900
0.75392800 0.31427881 0.00007600
0.75387433 0.45901910 0.00000000
0.75387667 0.63471304 0.00000000
0.65977095 0.75410300 0.00000000
0.40420617 0.75431333 0.00000000
0.10941918 0.82252367 0.00000000
0.00000000 0.89091800 0.30273058
0.00000000 0.95922433 0.84444440
0.00000000 0.53583469 0.99968400
0.82102200 0.00017400 0.32035410
0.82106633 0.00001900 0.17440480
0.82148267 0.00023600 0.04939253
0.82095100 0.06911039 0.00000000
0.82166333 0.19465696 0.00001800
0.82141967 0.33810565 0.00000000
0.82224400 0.51280800 0.00020000
0.82230433 0.72623396 0.00006100
0.65940345 0.82283267 0.00039000
0.35030619 0.82290900 0.00026700
0.00045200 0.82329333 0.00925385
0.00011300 0.82315367 0.41445356
0.00017000 0.78639137 0.82341000
0.00000000 0.32794642 0.89122233
0.24673759 0.00035200 0.95999067
0.92511334 0.00000000 0.99957300
0.88919233 0.00000000 0.06710459
0.88912267 0.05991689 0.00000000
0.88980900 0.20064319 0.00017100
0.89029133 0.36748492 0.00045400
