mpv/oil_slick_full.cube
TITLE "Classic Rainbow Oil"
LUT_3D_SIZE 6
DOMAIN_MIN 0.0 0.0 0.0
DOMAIN_MAX 1.0 1.0 1.0
0.00000000 0.00000000 0.00000000
0.10459238 0.19276900 0.00000000
0.00005800 0.38603800 0.15072980
0.00033700 0.57930700 0.51583637
0.00000000 0.42568032 0.77157600
0.26708203 0.00000000 0.96484500
0.00048900 0.19635900 0.18975095
0.00000000 0.16401826 0.19859400
0.00000000 0.16719796 0.39148900
0.20137476 0.00040400 0.58524400
0.77765100 0.00000000 0.62460749
0.97039800 0.00000000 0.04522512
0.00047800 0.00159884 0.39221800
0.26033780 0.00000000 0.39437100
0.39768800 0.00000000 0.24195801
0.59042500 0.03791243 0.00000000
0.78347800 0.70833713 0.00000000
0.00000000 0.97651100 0.14447309
0.58807700 0.00046700 0.19957824
0.59021200 0.19834593 0.00000000
0.52495922 0.59329900 0.00000000
0.00000000 0.59645000 0.16410345
0.00004700 0.28753284 0.78961700
0.62674054 0.00000000 0.98224000
0.56712891 0.78393600 0.00045600
0.00007900 0.78654900 0.35223532
0.00000000 0.14846385 0.78924200
0.63844533 0.00000000 0.79206300
0.79587600 0.00043600 0.63802818
0.98854500 0.00011500 0.55894923
0.00044500 0.08673280 0.97979500
0.92660058 0.00005800 0.98239800
0.98560500 0.00027500 0.62264074
0.98812800 0.00000000 0.39602390
0.99142300 0.20775656 0.00011300
0.73872197 0.99412200 0.00000000
0.03943726 0.19101300 0.00000000
0.00021400 0.11955413 0.19434400
0.09973063 0.00024700 0.38736700
0.44797951 0.00000000 0.57982600
0.77306500 0.00000000 0.41486667
0.96638000 0.34944869 0.00029000
0.00000000 0.10071269 0.19691000
0.14590238 0.19712572 0.20004300
0.08286261 0.17314765 0.39264000
0.34505639 0.00024100 0.58622100
0.77909000 0.00012000 0.44915385
0.97226300 0.19501529 0.00030300
0.16893893 0.00034700 0.39322700
0.39560200 0.05384024 0.34250217
0.39860900 0.05160080 0.15736427
0.59135200 0.18843958 0.00000000
0.55451957 0.78471100 0.00000000
0.00000000 0.97757400 0.64555548
0.58894800 0.03948593 0.00019800
0.59134100 0.43660065 0.00000000
0.23887628 0.59461000 0.00000000
0.00047500 0.59819500 0.49740595
0.06498295 0.00000000 0.79047200
0.82379368 0.00000000 0.98342500
0.17354204 0.78442500 0.00000000
0.00000000 0.72631746 0.78718000
0.26956303 0.00041100 0.79101100
0.79320600 0.00000000 0.73816108
0.79670100 0.00012100 0.56186175
0.98920800 0.04635691 0.40533053
0.44910147 0.00043200 0.98092200
0.98299100 0.00000000 0.73688164
0.98618000 0.00000000 0.48252538
0.98908900 0.04347946 0.21207859
0.99227800 0.63783314 0.07723885
0.34122276 0.99498700 0.07719132
0.00024600 0.38252600 0.13272900
0.00011300 0.16477823 0.38538300
0.11050824 0.00000000 0.38818800
0.51719589 0.00000000 0.58115700
0.77423400 0.00000000 0.22150950
0.96720300 0.61370836 0.00000000
0.00000000 0.06999678 0.38767300
0.24088786 0.10908028 0.39127200
0.39439100 0.06847216 0.22120046
0.58687800 0.33630349 0.00000000
0.45846064 0.78008500 0.00000000
0.00000000 0.97283600 0.26581767
0.35455346 0.00030000 0.39432000
0.39659700 0.05128498 0.12321226
0.39958600 0.21958600 0.27636496
0.59279900 0.38178378 0.15991630
0.31191592 0.78578000 0.10197740
0.04516762 0.85191791 0.97910500
0.59014700 0.26975453 0.00025700
0.45773967 0.59242200 0.00000000
0.16078790 0.59577300 0.26626171
0.16127220 0.43041110 0.59844000
0.39106578 0.10340150 0.79231100
0.92943128 0.06285680 0.98518600
0.00019400 0.78595400 0.26924716
0.00003700 0.21129711 0.78878700
0.67777917 0.10289020 0.79170400
0.79464900 0.11549021 0.60618080
0.79771800 0.19004630 0.55211760
0.99115100 0.23562434 0.33234209
0.90395396 0.00013500 0.98176500
0.98462000 0.00000000 0.50217210
0.98715500 0.14780864 0.40631279
0.99026600 0.34061518 0.23334309
0.93885764 0.99385700 0.24469014
0.24494668 0.99636800 0.35754540
0.00000000 0.57303900 0.47503473
0.00000000 0.12714330 0.57595800
0.20658509 0.00016500 0.57956500
0.58207600 0.00000000 0.55146902
0.77512300 0.00000000 0.01352922
0.96813800 0.85881641 0.00000000
0.02263975 0.00000000 0.57924800
0.43750407 0.05670781 0.58178500
0.58484600 0.00274932 0.16348658
0.58873500 0.43453895 0.00047500
0.30869954 0.78174800 0.00049800
0.00000000 0.97386100 0.58821382
0.58542500 0.00026500 0.38617239
0.58778800 0.15165067 0.00000000
0.51551253 0.59163500 0.16010280
0.16028310 0.59399800 0.33907634
0.10217860 0.17969236 0.78697300
0.97978400 0.04475906 0.65839130
0.59113800 0.50102388 0.00010800
0.13657809 0.59451900 0.00049900
0.16082670 0.56041397 0.59664400
0.32988100 0.43853559 0.59988100
0.56005931 0.26949374 0.79269400
0.94548838 0.25641043 0.98562700
0.00000000 0.78663500 0.75093633
0.27656262 0.00000000 0.78940200
0.79334500 0.10362153 0.59899556
0.79627200 0.30527407 0.53321473
0.79919900 0.39061436 0.56985870
0.99140600 0.51196972 0.40968886
0.98310800 0.00033800 0.70073199
0.98618900 0.00042900 0.31936505
0.98853800 0.18859821 0.23395235
0.99217900 0.75284135 0.41024490
0.65691398 0.99475200 0.41184022
0.41349708 0.99816100 0.73978025
0.00000000 0.59404077 0.76455200
0.00000000 0.03690923 0.76750900
0.38476970 0.00000000 0.77026600
0.77365500 0.00012500 0.55488813
0.77687600 0.19379738 0.00035600
0.85167550 0.96904100 0.00000000
0.19632747 0.00026900 0.77069900
0.77366200 0.00024200 0.75292691
0.77657300 0.01308928 0.00016300
0.77944000 0.72739299 0.00004000
0.13624599 0.78230300 0.00000000
0.00000000 0.97521000 0.97337304
0.77584600 0.00000000 0.20601238
0.77943100 0.47185429 0.00014100
0.44648570 0.78204400 0.10146040
0.10168410 0.78486900 0.59715527
0.30546021 0.10249580 0.78828200
0.98107500 0.04496250 0.34757857
0.59790174 0.78232100 0.00015100
0.00021600 0.78537600 0.25766271
0.10243650 0.24484999 0.78812700
0.79083000 0.26867760 0.66611573
0.79396500 0.40624033 0.27514545
0.98695600 0.77453186 0.29577929
0.00010000 0.32438108 0.78814000
0.71223905 0.00024300 0.79127300
0.79369400 0.10727927 0.35641366
0.79713900 0.33626184 0.36738281
0.79967200 0.58310950 0.69364094
0.99295700 0.76041237 0.57788718
0.98378300 0.00000000 0.43204758
0.98737800 0.00047800 0.15093697
0.98985700 0.42380181 0.22062225
0.90690575 0.99292400 0.41109632
0.57980934 0.99608300 0.65487633
0.58133052 0.99885400 0.97284397
0.00036500 0.45173530 0.95606500
0.10451473 0.00045800 0.95914800
0.67650402 0.00000000 0.96159500
0.96423800 0.00000000 0.41208545
0.96746100 0.49814326 0.00000000
0.63129762 0.97032800 0.00000000
0.47950048 0.00000000 0.96127400
0.96420700 0.00000000 0.61761686
0.96798000 0.30954140 0.00043000
0.80478670 0.97092900 0.00038900
0.00013200 0.97366200 0.11608782
0.00006700 0.54046837 0.97658700
0.96788700 0.09114783 0.00044700
0.97062200 0.89124611 0.00019200
0.17817401 0.97310900 0.04446632
0.04526886 0.79582043 0.97676400
0.73114701 0.04479140 0.97913900
0.98204200 0.04484194 0.12355139
0.35191664 0.97337600 0.00006600
0.00017300 0.97647300 0.87125347
0.40397881 0.04473934 0.97898200
0.98187100 0.20979892 0.52822445
0.98498000 0.41107078 0.23696577
0.98781300 0.77381747 0.33760123
0.18958764 0.00000000 0.97883700
0.98184000 0.00000000 0.65457233
0.98536700 0.06938592 0.18642208
0.98841000 0.46925952 0.33435526
0.99073700 0.98952729 0.57241602
0.57903366 0.99458000 0.74053071
0.98512600 0.00007600 0.23514647
0.98801100 0.04165254 0.00000000
0.99119200 0.73851005 0.23896597
0.56079151 0.99450100 0.41200528
0.57992382 0.99667400 0.95812170
0.74999900 0.99999900 0.99999900
