mpv/oil_slick_hf-full-180.cube
TITLE "Oil Slick - Intense 180°"
LUT_3D_SIZE 16
DOMAIN_MIN 0.0 0.0 0.0
DOMAIN_MAX 1.0 1.0 1.0
0.00000000 0.00000000 0.00000000
0.00688409 0.00000000 0.06439033
0.09345285 0.00000000 0.12928067
0.19417100 0.00000000 0.13691274
0.25906133 0.00000000 0.04843543
0.32395167 0.08817080 0.00000000
0.38884200 0.26288566 0.00005800
0.43814447 0.45373233 0.00015100
0.32991923 0.51862267 0.00024400
0.18359558 0.58351300 0.00033700
0.00043000 0.64840333 0.01430924
0.00000000 0.71229367 0.27816421
0.00000000 0.77718400 0.62903629
0.00000000 0.60165586 0.84207433
0.00000000 0.16392758 0.90696467
0.39137093 0.00000000 0.97185500
0.06572833 0.00016300 0.03283617
0.06605667 0.00000000 0.02130018
0.13107300 0.00000000 0.00062130
0.19556133 0.07596969 0.00000000
0.26083367 0.19878983 0.00007900
0.29283383 0.32597800 0.00042600
0.22717259 0.39066633 0.00031700
0.12199360 0.45468267 0.00000000
0.00039500 0.52033900 0.03085430
0.00012600 0.58486733 0.24629221
0.00047300 0.65001167 0.54159456
0.00000000 0.49724488 0.71384400
0.00023900 0.13127233 0.77937233
0.34755321 0.00041800 0.84434867
0.90857300 0.00000000 0.88387207
0.97327733 0.00000000 0.33093018
0.13095667 0.07542100 0.00000000
0.13221500 0.11116148 0.00028700
0.12623811 0.13261333 0.00000000
0.14275541 0.19724767 0.00000000
0.12091251 0.26264600 0.00032600
0.05847147 0.32732033 0.00020300
0.00000000 0.39162267 0.05031322
0.00044900 0.45716100 0.21807349
0.00000000 0.52116733 0.45690557
0.00000000 0.38829982 0.58604167
0.00035200 0.09282983 0.65145600
0.30838852 0.00000000 0.71564233
0.78083267 0.00013400 0.74795157
0.84569900 0.00020300 0.27811586
0.90986533 0.26968469 0.00000000
0.97525967 0.87495420 0.00016900
0.11183029 0.19718500 0.00048900
0.06639985 0.19738533 0.00000000
0.02751019 0.19838967 0.00009900
0.00000000 0.19882200 0.00967972
0.00022100 0.26410633 0.07491166
0.00000000 0.32853867 0.19310865
0.00000000 0.39311900 0.37759497
0.00000000 0.27402611 0.45798333
0.00018500 0.04856072 0.52325967
0.27648600 0.00040400 0.58827600
0.65242433 0.00000000 0.60522660
0.71705667 0.00000000 0.21808520
0.78208500 0.24760281 0.00000000
0.84679733 0.77441675 0.00000000
0.48218691 0.91152167 0.00000000
0.02536690 0.97623400 0.00000000
0.00015200 0.26241333 0.03071509
0.00004500 0.26310367 0.08897349
0.00007400 0.26393000 0.15056113
0.00022300 0.26487633 0.22088319
0.00027600 0.22739714 0.26572667
0.00000000 0.15439573 0.32997700
0.00145211 0.00000000 0.39499533
0.24927445 0.00000000 0.45950967
0.52479200 0.00015200 0.45700658
0.58930633 0.00000000 0.15267871
0.65414067 0.23142428 0.00000000
0.71907100 0.68030359 0.00003900
0.39288172 0.78374533 0.00000000
0.00036767 0.84814767 0.00000000
0.00039800 0.91382200 0.40433361
0.00000000 0.97796833 0.81333876
0.00000000 0.32764167 0.24820163
0.00046600 0.31606176 0.32909000
0.00006900 0.20815817 0.32949033
0.00032800 0.08175073 0.33054667
0.06537941 0.00022700 0.33124300
0.22993047 0.00023800 0.33205133
0.39633167 0.00000000 0.30136263
0.46127600 0.00000000 0.08048092
0.52600433 0.22131584 0.00000000
0.59075526 0.59145267 0.00045000
0.29827834 0.65598900 0.00018900
0.00000000 0.72018133 0.02840359
0.00000000 0.78495767 0.37576147
0.00000000 0.84996600 0.73530712
0.00042500 0.72417078 0.91541433
0.00000000 0.46285565 0.97967867
0.00047800 0.19232691 0.39387000
0.00020300 0.03623036 0.39439233
0.14376420 0.00028400 0.39527067
0.34408451 0.00000000 0.39542500
0.39627933 0.00000000 0.23114570
0.39724967 0.00000000 0.00669066
0.39814400 0.21818124 0.00000000
0.41651290 0.46285033 0.00000000
0.19758447 0.52771267 0.00000000
0.00000000 0.59228300 0.06312734
0.00021200 0.65757733 0.35298136
0.00010500 0.72226767 0.66136474
0.00000000 0.58708967 0.78673800
0.00029500 0.36915750 0.85205233
0.00000000 0.11384477 0.91646667
0.19741707 0.00000000 0.98117300
0.21879717 0.00014100 0.45909833
0.45528711 0.00000000 0.45931467
0.46007100 0.00000000 0.20872798
0.46177533 0.05640526 0.00042600
0.46189967 0.32163420 0.00000000
0.34728061 0.46289200 0.00000000
0.10976386 0.46343233 0.00000000
0.00000000 0.46412067 0.10291221
0.00000000 0.52924500 0.33385667
0.00000000 0.59410133 0.59096827
0.00007900 0.44736187 0.65900967
0.00017000 0.27154448 0.72389800
0.00000000 0.05862114 0.78849433
0.20784215 0.00000000 0.85310267
0.54991226 0.00013900 0.91825900
0.98252333 0.00000000 0.97749952
0.52432667 0.00000000 0.19019170
0.52554500 0.11545976 0.00022500
0.52570733 0.42156956 0.00000000
0.33498459 0.52657367 0.00000000
0.06011830 0.52736000 0.00000000
0.00000000 0.52817033 0.18698911
0.00000000 0.52925267 0.40488842
0.00000000 0.46618540 0.52963100
0.00005200 0.30337538 0.53095333
0.00016100 0.17041447 0.59585967
0.00017129 0.00000000 0.66045400
0.22269641 0.00040300 0.72569633
0.51478470 0.00040000 0.79049067
0.85446900 0.00000000 0.81329036
0.91951933 0.00000000 0.45458500
0.98488167 0.02308536 0.00039900
0.59055500 0.51917521 0.00046700
0.32639179 0.59067533 0.00000000
0.01444387 0.59213967 0.00045700
0.00000000 0.59209200 0.26803079
0.00044700 0.59372433 0.51740009
0.00045000 0.45582601 0.59452467
0.00000000 0.26774555 0.59458100
0.00000000 0.09776633 0.59554933
0.06701092 0.00000000 0.59618167
0.24042506 0.00000000 0.59713400
0.48341540 0.00009700 0.66215833
0.72680667 0.00000000 0.64471816
0.79170300 0.00004700 0.34960597
0.85631133 0.05644836 0.00000000
0.92081567 0.57776682 0.00000000
0.76082968 0.98572800 0.00000000
0.00013000 0.65578333 0.02964575
0.00000000 0.65604967 0.34635339
0.00043200 0.65768000 0.62688035
0.00000000 0.44628715 0.65793833
0.00000000 0.23453370 0.65848067
0.00011500 0.04305094 0.65975500
0.14311047 0.00015600 0.66059333
0.33685600 0.00000000 0.66086767
0.55323329 0.00000000 0.66198600
0.66309233 0.00026300 0.52430238
0.66360267 0.00000000 0.23887748
0.72882100 0.09676707 0.00039700
0.79316333 0.54066676 0.00000000
0.62388133 0.85779767 0.00000000
0.10650195 0.92305200 0.00023600
0.00000000 0.98759833 0.48972093
0.00000000 0.70870017 0.72101167
0.00000000 0.43949763 0.72191600
0.00000000 0.20354917 0.72259233
0.00998515 0.00000000 0.72351267
0.21634859 0.00000000 0.72409300
0.43143518 0.00000000 0.72482133
0.67070857 0.00037500 0.72637767
0.72697800 0.00017800 0.50991946
0.72738233 0.00000000 0.19570010
0.72832667 0.16088617 0.00000000
0.72955500 0.55646485 0.00036300
0.48085610 0.73037133 0.00038200
0.04554117 0.79455167 0.00000000
0.00046400 0.86004800 0.46878122
0.00046300 0.80771444 0.92484433
0.00000000 0.32663976 0.98886067
0.00045600 0.17503189 0.78724000
0.06083316 0.00000000 0.78714633
0.28844045 0.00000000 0.78828467
0.52454776 0.00007900 0.78925500
0.78530823 0.00006800 0.79004133
0.79109967 0.00032900 0.49818949
0.79135000 0.00000000 0.15543163
0.79224033 0.23327547 0.00000000
0.79305867 0.66422021 0.00000000
0.46113637 0.79357300 0.00000000
0.00024200 0.79499933 0.01534715
0.00000000 0.79532167 0.49046670
0.00043600 0.64485539 0.79678800
0.00038500 0.23674087 0.86153433
0.19537365 0.00025400 0.92620067
0.63503310 0.00011500 0.99085900
0.35876346 0.00011900 0.85246833
0.61559851 0.00033800 0.85348467
0.85420500 0.00026100 0.81005038
0.85430933 0.00000000 0.48785601
0.85514167 0.00000000 0.11759230
0.85638200 0.30299285 0.00004600
0.85690233 0.76916071 0.00000000
0.44555433 0.85757467 0.00000000
0.00011100 0.85883900 0.07119958
0.00000000 0.85951133 0.58757876
0.00047700 0.63591477 0.86079967
0.00046400 0.17446212 0.86158400
0.24165699 0.00000000 0.86150433
0.60818964 0.00000000 0.86251267
0.92732900 0.00000000 0.85641931
0.99257733 0.00026800 0.58854594
0.91769667 0.00000000 0.82662843
0.91842700 0.00000000 0.48065745
0.91912933 0.00000000 0.08246701
0.92010767 0.36948495 0.00000000
0.92064200 0.87093470 0.00000000
0.43305325 0.92141233 0.00000000
0.00035200 0.92305067 0.12409017
0.00000000 0.92312500 0.68079534
0.00000600 0.62966885 0.92429933
0.00000000 0.12997131 0.92488567
0.32121700 0.00039600 0.92628400
0.71821632 0.00000000 0.92653433
0.92736467 0.00000000 0.78979052
0.92860700 0.00032700 0.48619667
0.92874133 0.00000000 0.20689953
0.99395167 0.07178576 0.00007700
0.98392500 0.00044500 0.05059978
0.98445333 0.43385809 0.00017600
0.98480167 0.97013700 0.00000000
0.42440726 0.98593000 0.00005800
0.00000000 0.98659033 0.17304311
0.00002000 0.98748667 0.77150695
0.00027500 0.62730398 0.98853900
0.00000000 0.08924429 0.98900333
0.39667447 0.00000000 0.98966367
0.82570906 0.00000000 0.99046400
0.99139633 0.00000000 0.78257185
0.99179667 0.00000000 0.45382569
0.99316100 0.00011300 0.15393290
0.99368133 0.13915169 0.00000000
0.99463767 0.44684366 0.00000000
0.99526200 0.78844762 0.00000000
0.06459500 0.00029100 0.04386582
0.06487533 0.02250230 0.00000000
0.11069250 0.12976367 0.00000000
0.04585079 0.19488400 0.00018800
0.00000000 0.25902833 0.07603538
0.00000000 0.32416467 0.24386401
0.00000000 0.33049152 0.38906900
0.00000000 0.22445755 0.45377333
0.00024300 0.08508221 0.51892567
0.09727915 0.00013400 0.58361400
0.33531845 0.00000000 0.64820633
0.64772064 0.00043600 0.71351067
0.77807100 0.00019900 0.50532536
0.84253533 0.00000000 0.12495989
0.90707967 0.36968971 0.00000000
0.96311336 0.97180000 0.00000000
0.06537733 0.00777801 0.00000000
0.06632367 0.05299033 0.05993108
0.13137400 0.03915596 0.04122128
0.19606433 0.10526484 0.04024541
0.26111467 0.21914363 0.04712743
0.28436143 0.32586100 0.04951635
0.22798147 0.39022333 0.04840167
0.13047391 0.45580167 0.04849864
0.04766447 0.52046000 0.11574442
0.04583401 0.58554233 0.33133409
0.03873397 0.65003267 0.62970933
0.02462704 0.39504498 0.71436300
0.01591795 0.00419831 0.77957333
0.51731535 0.00000000 0.84408767
0.90861800 0.00000000 0.69066828
0.97338833 0.00000000 0.12140738
0.13171167 0.12649650 0.00027700
0.11543380 0.13272800 0.04715460
0.11784438 0.13339633 0.05173796
0.14832672 0.19780467 0.05139650
0.13629833 0.26272900 0.05066012
0.08119574 0.32735333 0.04970004
0.04890025 0.39210167 0.12120884
0.04742642 0.45715800 0.28532351
0.04141000 0.51808284 0.52133033
0.03122547 0.31266413 0.58706667
0.03749202 0.01301826 0.65115100
0.45135471 0.00000000 0.71612733
0.78067567 0.00000000 0.58325186
0.84616400 0.00036400 0.09767033
0.91075233 0.45983140 0.00015500
0.88535722 0.97524067 0.00000000
0.05709732 0.19703000 0.00003000
0.06261946 0.19813633 0.05174024
0.05120661 0.19816667 0.05870856
0.05136292 0.19891300 0.07709873
0.05064635 0.26398333 0.13258968
0.04908598 0.32871367 0.24454089
0.04560564 0.36188571 0.39415200
0.03682525 0.22346106 0.45888233
0.06550198 0.02188420 0.52295267
0.39415115 0.00349706 0.58854700
0.65272933 0.00000000 0.46860467
0.71800367 0.00023300 0.06601974
0.78300200 0.41076365 0.00043400
0.75438732 0.84703633 0.00000000
0.32129173 0.91177867 0.00000000
0.00000000 0.97655700 0.12575835
0.00007100 0.26263633 0.08914584
0.05058731 0.26325267 0.17016988
0.05114932 0.26446100 0.21559197
0.05014832 0.26082238 0.26455733
0.04908770 0.19758388 0.26606167
0.04257862 0.12752013 0.33083800
0.10152979 0.03173755 0.39583833
0.34665731 0.01543347 0.45991867
0.52484700 0.00000000 0.34573445
0.58994333 0.00020200 0.02670798
0.65484767 0.36846810 0.00030900
0.61789618 0.71982400 0.00048800
0.25418388 0.78417633 0.00004300
0.00045400 0.84938467 0.13216898
0.00044900 0.91417700 0.52827665
0.00000000 0.97838533 0.92931274
0.00000000 0.32784267 0.31835602
0.04948134 0.25370514 0.32895700
0.04676470 0.16015656 0.32933533
0.04244078 0.04639376 0.33045767
0.16316703 0.03592909 0.33137200
0.30895694 0.02853509 0.33245433
0.39693667 0.01280413 0.21774888
0.46158700 0.02222897 0.00000000
0.52646133 0.33438743 0.00000000
0.47297317 0.59162367 0.00031700
0.18043050 0.65643400 0.00033000
0.00000000 0.72040433 0.14241056
0.00000000 0.78565467 0.48391457
0.00000000 0.85013700 0.83678679
0.00000000 0.62558408 0.91515533
0.00027500 0.36217701 0.98036567
0.00033700 0.09932437 0.39403300
0.09921681 0.03991911 0.39436133
0.26099890 0.03217563 0.39554967
0.39643800 0.02279585 0.34404252
0.39733033 0.01354896 0.13513517
0.39765867 0.09885186 0.00530320
0.39881500 0.31280191 0.00048711
0.31874933 0.46370333 0.00042600
0.09759687 0.52759567 0.00000000
0.00000000 0.59263600 0.16057185
0.00017100 0.65784033 0.44594260
0.00000000 0.69503884 0.72231267
0.00000000 0.50124031 0.78700500
0.00000000 0.28003164 0.85204533
0.00000000 0.01447330 0.91638567
0.31498700 0.00000000 0.98156200
0.34299230 0.00039400 0.45965533
0.46003367 0.01690454 0.33692482
0.46068800 0.00561151 0.08149368
0.46202633 0.18584750 0.00037300
0.46230467 0.44448441 0.00000000
0.23555012 0.46333900 0.00009100
0.01128895 0.46419333 0.00014800
0.00025700 0.46509967 0.18812609
0.00000000 0.52938600 0.41469054
0.00000000 0.52014525 0.59414033
0.00011200 0.37213183 0.65934667
0.00024500 0.19365799 0.72427700
0.02824343 0.00001400 0.78884333
0.31159529 0.00030700 0.85393367
0.67697719 0.00010800 0.91853200
0.98353433 0.00031300 0.82148627
0.52498967 0.00016300 0.03864832
0.52536600 0.26872962 0.00000000
0.48361443 0.52661433 0.00019300
0.19853678 0.52692667 0.00000000
0.00000000 0.52754300 0.06214039
0.00000000 0.52862333 0.29511302
0.00032500 0.52993567 0.49805808
0.00000000 0.38784545 0.53015200
0.00017100 0.23558507 0.53137633
0.00007800 0.10075941 0.59608067
0.07664741 0.00000000 0.66046500
0.31337612 0.00044400 0.72604133
0.62582478 0.00001500 0.79040967
0.85526600 0.00007400 0.67613363
0.91997033 0.00000000 0.28619562
0.98473867 0.22321172 0.00000000
0.49522374 0.59003600 0.00000000
0.16787412 0.59108633 0.00000000
0.00000000 0.59148867 0.13010632
0.00000000 0.59254700 0.39678492
0.00028000 0.55801752 0.59386133
0.00000000 0.35793180 0.59435967
0.00001000 0.18176553 0.59518600
0.00000000 0.01814865 0.59581233
0.14549878 0.00036400 0.59713467
0.32164850 0.00019300 0.59776100
0.58102815 0.00000000 0.66203533
0.72749367 0.00033100 0.52464613
0.79204800 0.00008800 0.20196650
0.85688233 0.23327787 0.00012500
0.92181267 0.78247499 0.00025800
0.53522149 0.98669500 0.00034300
0.00041300 0.65637033 0.19139737
0.00000000 0.65627467 0.49368777
0.00000000 0.55839797 0.65751100
0.00005000 0.33222126 0.65839933
0.00000000 0.13211674 0.65880367
0.05234849 0.00000000 0.65969200
0.23708162 0.00000000 0.66073633
0.43480477 0.00000000 0.66105667
0.65939743 0.00000000 0.66202900
0.66350133 0.00036800 0.40732734
0.66415367 0.00022300 0.10981822
0.72904200 0.25120702 0.00031400
0.79315033 0.71960164 0.00000000
0.42394373 0.85809467 0.00000000
0.00015500 0.92327500 0.10905183
0.00047000 0.98838733 0.71275055
0.00001400 0.56550440 0.72153667
0.00036300 0.31035025 0.72268300
0.00030000 0.08699915 0.72341733
0.11953455 0.00000000 0.72350767
0.32552437 0.00019400 0.72490600
0.54486433 0.00000000 0.72520433
0.72607467 0.00000000 0.65910712
0.72706900 0.00000000 0.37453243
0.72749933 0.00000000 0.04636159
0.72913367 0.32337535 0.00043500
0.72902000 0.72717873 0.00000000
0.30466554 0.73005433 0.00000000
0.00000000 0.79461267 0.14374933
0.00000000 0.85981500 0.66611161
0.00005600 0.60957357 0.92474133
0.01707754 0.15033165 0.98899167
0.00000000 0.04611792 0.78687100
0.18440363 0.00013000 0.78801533
0.41006796 0.00000000 0.78828767
0.65172075 0.00000000 0.78946400
0.79065633 0.00037900 0.65769384
0.79148867 0.00041400 0.34653939
0.79166500 0.01154492 0.00000000
0.79236933 0.41501239 0.00000000
0.72972116 0.79352167 0.00005500
0.26380131 0.79458600 0.00032200
0.00007700 0.79513833 0.21250968
0.00000000 0.79566667 0.68048397
0.00678555 0.47128362 0.79693900
0.02159212 0.08471153 0.86102733
0.37857417 0.03446912 0.92608367
0.79392922 0.04112637 0.99055600
0.49112123 0.00042400 0.85307733
0.75533137 0.00000000 0.85336767
0.85380200 0.00000000 0.65799817
0.85470833 0.00000000 0.32082196
0.85611067 0.06671547 0.00026800
0.85616900 0.50306557 0.00000000
0.73279995 0.85781933 0.00038200
0.22617728 0.85774167 0.00000000
0.00000000 0.85856800 0.28973154
0.00000000 0.85947433 0.79903463
0.00166973 0.43888984 0.86077267
0.02582959 0.02105022 0.86109500
0.41878700 0.03541504 0.86191333
0.75164193 0.04360330 0.86334767
0.92825400 0.04482505 0.73902486
0.99280033 0.04386199 0.48925441
0.91842767 0.00020900 0.66463834
0.91929200 0.00027600 0.29961118
0.91936833 0.11722624 0.00000000
0.92040067 0.58776445 0.00000000
0.73946435 0.92165300 0.00024500
0.19379746 0.92190933 0.00000000
0.00006300 0.92306567 0.36370534
0.00000000 0.92358600 0.91359234
0.00010500 0.41196065 0.92470233
0.08518065 0.01833185 0.92569467
0.51219124 0.03335094 0.92577900
0.87476967 0.04208391 0.92689933
0.92809567 0.04468609 0.66902393
0.92820800 0.04406338 0.39204980
0.92950833 0.04460454 0.13371379
0.99373267 0.22930732 0.04329786
0.98389000 0.16390848 0.00010600
0.98470033 0.66900713 0.00011900
0.74980888 0.98538667 0.00000800
0.16570218 0.98640500 0.00022900
0.00030200 0.98727533 0.43335653
0.00049900 0.95182662 0.98826967
0.00000000 0.38930596 0.98826800
0.14049395 0.01462451 0.98939833
0.60306040 0.03149363 0.98990867
0.99068700 0.04078436 0.98576767
0.99135733 0.04319941 0.64880120
0.99207167 0.04318941 0.34895297
0.99373400 0.04408949 0.06952114
0.99396033 0.29939416 0.04355357
0.99543867 0.60274248 0.04426965
0.99585700 0.94395634 0.04392574
0.12869000 0.00008200 0.05621992
0.12944433 0.04940121 0.00003900
0.10897815 0.13025067 0.00004800
0.03336132 0.19485300 0.00000000
0.00023000 0.26002733 0.09593930
0.00041100 0.32500567 0.26812567
0.00000000 0.30389397 0.38926800
0.00019300 0.19413476 0.45438233
0.00000000 0.04684696 0.51855667
0.14573308 0.00000000 0.58331100
0.40185741 0.00024800 0.64882933
0.71332767 0.00000000 0.69025149
0.77863800 0.00046200 0.38925660
0.84344833 0.02228466 0.00047500
0.90804667 0.54782324 0.00027600
0.75913746 0.97237700 0.00000000
0.13017033 0.07065463 0.00000000
0.10397640 0.13084267 0.03360024
0.04267953 0.13201500 0.05626030
0.04453283 0.19652733 0.16162695
0.04877421 0.21711354 0.26089967
0.04952432 0.16698123 0.32610800
0.04906467 0.07744054 0.39115233
0.15406288 0.04804978 0.45562467
0.34445474 0.04719973 0.52046100
0.58508533 0.04360243 0.56386513
0.64984167 0.03464045 0.33943678
0.71533000 0.03837898 0.01939647
0.78009433 0.46982188 0.00035300
0.66168276 0.84430267 0.00000000
0.13491202 0.90908300 0.00000000
0.00046200 0.97459533 0.47393063
0.08704824 0.13125467 0.00000000
0.06975517 0.13300100 0.04933526
0.13314733 0.13119719 0.10648067
0.17363313 0.19815767 0.10503625
0.17015821 0.26324800 0.10417656
0.12232449 0.32786633 0.10304675
0.10205199 0.39262867 0.18089538
0.09934615 0.45724700 0.34034929
0.09255685 0.46548978 0.52172933
0.08136832 0.25987059 0.58734767
0.19018782 0.06269763 0.65122200
0.59907027 0.04074506 0.71620833
0.78094667 0.01678786 0.43041001
0.84562900 0.07702791 0.00000000
0.91110333 0.64116718 0.00020200
0.70650763 0.97604967 0.00035100
0.00336080 0.19683900 0.00000000
0.05104435 0.19763933 0.08789424
0.10534129 0.19882367 0.14024517
0.10553488 0.19939200 0.13385810
0.10468266 0.26475233 0.17791261
0.10195051 0.32894467 0.28149828
0.09742141 0.33085731 0.39409700
0.08794348 0.19649788 0.45872133
0.19170615 0.07404631 0.52393767
0.51382953 0.05483911 0.58807400
0.65355433 0.03478906 0.35325657
0.71824267 0.09406239 0.01454203
0.78250700 0.56466653 0.00000000
0.60009904 0.84797933 0.00031000
0.17182093 0.91225967 0.00000000
0.00000000 0.97703600 0.26621278
0.00005400 0.26292333 0.14766804
0.05087083 0.26378167 0.22602349
0.10491243 0.25796167 0.26495600
0.10398079 0.22618548 0.26519833
0.10263742 0.18522432 0.26629267
0.09526002 0.12491935 0.33060700
0.20104034 0.08491758 0.39610933
0.43710719 0.06928290 0.46029567
0.52495800 0.05157325 0.26684559
0.59048033 0.12329357 0.03445400
0.65520667 0.50227728 0.01861042
0.48811106 0.71990500 0.00600322
0.12581540 0.78470333 0.00026600
0.00007100 0.84930567 0.25362842
0.00000000 0.91381600 0.64133630
0.00036500 0.92118647 0.97919433
0.00000000 0.26585650 0.32825167
0.04896131 0.18175052 0.32934800
0.10005621 0.12820487 0.33010433
0.15570547 0.09595096 0.33108067
0.25535231 0.08991840 0.33148500
0.33208533 0.08358827 0.29287197
0.39748167 0.06965825 0.17176994
0.46208200 0.16099380 0.05388485
0.52730233 0.44819297 0.03973702
0.37359545 0.59203867 0.02742511
0.08512236 0.65591500 0.01578592
0.00596530 0.72149933 0.25144675
0.00004500 0.78604767 0.58253322
0.00039200 0.77109925 0.85119200
0.00018300 0.53340992 0.91578033
0.00000000 0.26308422 0.98018867
0.00000000 0.00218667 0.39356000
0.19765613 0.03755567 0.39516233
0.37400653 0.08522019 0.39577267
0.39631900 0.07697252 0.25742202
0.39683333 0.06928480 0.08070925
0.39818767 0.23092758 0.06415197
0.39302713 0.39832600 0.06018244
0.25006101 0.46380833 0.04880911
0.04270543 0.52846667 0.03780103
0.02725851 0.59344500 0.26626373
0.01627174 0.65792733 0.53399957
0.00577861 0.61522713 0.72286567
0.00023600 0.42102395 0.78780400
0.00000000 0.19335597 0.85198233
0.08462711 0.00010200 0.91726467
0.43638844 0.00039500 0.98235500
0.46004033 0.00047500 0.44962515
0.46040067 0.01260730 0.20122611
0.46134500 0.11819522 0.06152844
0.46212933 0.33823420 0.05440498
0.36668100 0.46307367 0.05033518
0.15912735 0.46394600 0.04898867
0.04886784 0.46462633 0.12574686
0.04846628 0.46493867 0.28889632
0.03776375 0.52988300 0.49342491
0.02698673 0.45542774 0.59466733
0.01598956 0.30941585 0.65917167
0.00596391 0.12267214 0.72460400
0.11545235 0.00007900 0.78921233
0.41766613 0.00037000 0.85430067
0.80879304 0.00000000 0.91863700
0.98358933 0.00006400 0.65827447
0.52477267 0.11430381 0.00000000
0.52613500 0.42626395 0.00020700
0.34610190 0.52700533 0.03987825
0.09271107 0.52729567 0.03754880
0.03781084 0.52842200 0.21103326
0.03776875 0.52912033 0.41166971
0.03752266 0.47471180 0.52961467
0.03804857 0.32713329 0.53088100
0.03805048 0.19508073 0.53162333
0.02754695 0.05807031 0.59672167
0.16708424 0.01646738 0.66117600
0.40887637 0.00591322 0.72610633
0.74203048 0.00047800 0.79117667
0.85523500 0.00000000 0.53270003
0.92033733 0.00004400 0.11208990
0.98504367 0.42845422 0.00000000
0.33222134 0.59096500 0.00026900
0.00973633 0.59142133 0.00000000
0.02680423 0.59214567 0.29128470
0.02709150 0.59319400 0.52945413
0.02676678 0.45217594 0.59363033
0.02683006 0.27518155 0.59445467
0.02674534 0.11693664 0.59513100
0.08780681 0.02750462 0.59665133
0.24273055 0.02717990 0.59708767
0.41505344 0.02761918 0.59828800
0.66289233 0.01665720 0.64221702
0.72756467 0.00581853 0.40137880
0.79238500 0.00012100 0.04912394
0.85696133 0.41391813 0.00000000
0.85467305 0.92146167 0.00000000
0.30933017 0.98703800 0.00038200
0.00000000 0.65618533 0.34719226
0.00044100 0.65749967 0.63942980
0.01587283 0.43329515 0.65741400
0.01648160 0.22780455 0.65880033
0.01607438 0.04313973 0.65917067
0.16429501 0.01631515 0.66018900
0.34461664 0.01676392 0.66141533
0.54291454 0.01686870 0.66229767
0.66224400 0.01603747 0.55483238
0.66363033 0.01664625 0.29297037
0.66440867 0.04135886 0.01666742
0.72936300 0.41348627 0.00771744
0.68579198 0.79337333 0.00315806
0.22929201 0.85828767 0.00713499
0.01944093 0.92367400 0.33393017
0.03716139 0.98846833 0.93125477
0.00000000 0.42733612 0.72149767
0.00000000 0.18157820 0.72213800
0.03817696 0.00522172 0.72295433
0.23768786 0.00520699 0.72373067
0.44256582 0.00578426 0.72509900
0.66628503 0.00531353 0.72541933
0.72689967 0.00600280 0.53028069
0.72748400 0.00579607 0.23468825
0.72802833 0.11501562 0.00556467
0.72862867 0.49325157 0.00688429
0.55915674 0.72945300 0.01284557
0.14786645 0.73026133 0.02405419
0.03231502 0.79506967 0.35120467
0.04647409 0.86006200 0.85927611
0.06334062 0.45377806 0.92496633
0.12141200 0.07878986 0.98947067
0.07935618 0.00017400 0.78756600
0.30941517 0.00001900 0.78820833
0.53964965 0.00023600 0.78922267
0.78728017 0.00000000 0.78928900
0.79059933 0.00001800 0.51002453
0.79095367 0.00000000 0.18373211
0.79237600 0.18896070 0.00020000
0.79303433 0.60534284 0.00006100
0.53295287 0.79416067 0.00330687
0.07668314 0.79483500 0.01531876
0.03240720 0.79581733 0.42556008
0.05136469 0.72940821 0.79627567
0.07013659 0.34162333 0.79713000
0.17254241 0.08275358 0.86154033
0.55312338 0.09281534 0.92690667
0.93409869 0.09609648 0.99092500
0.62502118 0.00000000 0.85291033
0.85343867 0.00000000 0.80469639
0.85472300 0.00017100 0.49636751
0.85580333 0.00045400 0.14308495
