mpv/oil_slick_bw.cube
TITLE "Oil Slick Iridescent Effect - Natural"
LUT_3D_SIZE 6
DOMAIN_MIN 0.0 0.0 0.0
DOMAIN_MAX 1.0 1.0 1.0
0.000000 0.000000 0.000000
0.200000 0.000000 0.000000
0.400000 0.000000 0.000000
0.600000 0.000000 0.000000
0.800000 0.000000 0.000000
0.510000 0.106878 0.483130
0.000000 0.200000 0.000000
0.200000 0.200000 0.000000
0.400000 0.200000 0.000000
0.319200 0.125635 0.277962
0.216519 0.000000 0.791132
0.665741 0.000000 0.988328
0.000000 0.400000 0.000000
0.199423 0.221600 0.177460
0.253202 0.000000 0.399088
0.530363 0.000000 0.596284
0.793480 0.000000 0.511061
0.990676 0.035453 0.000000
0.595044 0.000000 0.523476
0.596240 0.000000 0.374359
0.597436 0.000000 0.149757
0.598632 0.182950 0.000000
0.731377 0.795828 0.000000
0.012000 0.988308 0.026733
0.793392 0.047333 0.000000
0.794588 0.517028 0.000000
0.461371 0.795784 0.000000
0.000000 0.796980 0.249900
0.470400 0.721099 0.328849
1.000000 0.800000 0.000000
0.362334 0.991740 0.000000
0.000000 0.992936 0.546027
0.226400 0.781846 0.431453
0.600000 1.000000 0.000000
0.800000 1.000000 0.000000
1.000000 1.000000 0.000000
0.000000 0.000000 0.200000
0.200000 0.000000 0.200000
0.400000 0.000000 0.200000
0.600000 0.000000 0.200000
0.798709 0.037190 0.176000
0.990261 0.585513 0.056400
0.000000 0.200000 0.200000
0.200000 0.200000 0.200000
0.361676 0.200265 0.219325
0.182400 0.096939 0.474497
0.237798 0.000000 0.791588
0.757647 0.000000 0.988784
0.022155 0.369600 0.214984
0.307065 0.136441 0.333687
0.315710 0.008990 0.399544
0.594768 0.000000 0.596740
0.793936 0.000000 0.374309
0.991132 0.285013 0.000000
0.595500 0.000000 0.335233
0.596696 0.000000 0.162682
0.597892 0.051405 0.000000
0.599088 0.377395 0.000000
0.462653 0.796284 0.000000
0.240000 0.899045 0.334491
0.793848 0.345593 0.000000
0.717481 0.795044 0.000000
0.094198 0.796240 0.000000
0.130800 0.797995 0.515838
0.652800 0.708068 0.310148
1.000000 0.800000 0.200000
0.000000 0.992196 0.110334
0.039200 0.953327 0.837887
0.317600 0.801737 0.363685
0.600000 1.000000 0.200000
0.800000 1.000000 0.200000
1.000000 1.000000 0.200000
0.000000 0.000000 0.400000
0.200000 0.000000 0.400000
0.400000 0.000000 0.400000
0.600000 0.000000 0.400000
0.796414 0.118879 0.260800
0.987600 0.813733 0.021600
0.000000 0.200000 0.400000
0.200000 0.200000 0.400000
0.399235 0.158914 0.272517
0.595240 0.459084 0.030400
0.556748 0.792044 0.000000
0.141392 0.989240 0.000000
0.120873 0.278400 0.380916
0.379321 0.047294 0.207778
0.349154 0.308000 0.400000
0.579864 0.162238 0.597196
0.794392 0.017874 0.293221
0.991588 0.508787 0.000000
0.595956 0.000000 0.140406
0.597152 0.112547 0.000000
0.598348 0.431372 0.162551
0.599544 0.590083 0.162876
0.229440 0.796740 0.017927
0.468000 0.809574 0.555430
0.794304 0.666061 0.000000
0.309908 0.795500 0.000000
0.017926 0.796696 0.360659
0.277546 0.694552 0.620432
0.800000 0.800000 0.400000
1.000000 0.800000 0.400000
0.000000 0.992652 0.597428
0.084800 0.665636 0.742056
0.400000 1.000000 0.400000
0.600000 1.000000 0.400000
0.800000 1.000000 0.400000
1.000000 1.000000 0.400000
0.000000 0.000000 0.600000
0.200000 0.000000 0.600000
0.400000 0.000000 0.600000
0.600000 0.000000 0.600000
0.794328 0.209493 0.254400
0.987348 0.907817 0.000000
0.000000 0.200000 0.600000
0.200000 0.200000 0.600000
0.507536 0.112549 0.267600
0.595304 0.419627 0.000000
0.546490 0.792500 0.000000
0.025983 0.989696 0.000000
0.316042 0.187200 0.447296
0.595260 0.000000 0.035468
0.596456 0.433781 0.162037
0.293276 0.597652 0.162362
0.017884 0.794848 0.566477
0.000000 0.280548 0.992044
0.596412 0.064116 0.000000
0.597608 0.403390 0.000000
0.413470 0.598804 0.162675
0.600000 0.578931 0.462000
0.415951 0.777871 0.343732
0.747995 0.719895 0.700439
0.580914 0.794760 0.000000
0.000000 0.795956 0.114836
0.046973 0.732575 0.782168
0.507529 0.660417 0.664661
0.800000 0.800000 0.600000
1.000000 0.800000 0.600000
0.000000 0.898397 0.971880
0.164095 0.652000 0.737218
0.400000 1.000000 0.600000
0.600000 1.000000 0.600000
0.800000 1.000000 0.600000
1.000000 1.000000 0.600000
0.000000 0.000000 0.800000
0.200000 0.000000 0.800000
0.400000 0.000000 0.800000
0.639019 0.000000 0.642251
0.792449 0.305992 0.156800
0.987804 0.964099 0.000000
0.000000 0.200000 0.800000
0.308444 0.163200 0.715909
0.705421 0.126493 0.174400
0.791760 0.549241 0.000000
0.519578 0.792956 0.000000
0.000000 0.990152 0.116579
0.600795 0.096000 0.370174
0.791716 0.141072 0.000000
0.792912 0.656769 0.017841
0.238648 0.794108 0.017867
0.017894 0.795304 0.633728
0.000000 0.062471 0.992500
0.792868 0.340270 0.000000
0.710418 0.794064 0.000000
0.017893 0.795260 0.024652
0.315596 0.684634 0.796456
0.727321 0.408631 0.798417
0.999608 0.570636 0.752205
0.218333 0.795216 0.000000
0.000000 0.796412 0.553352
0.134091 0.395561 0.798335
0.608410 0.752620 0.799883
0.800000 0.800000 0.800000
1.000000 0.800000 0.800000
0.000000 0.564861 0.938979
0.248181 0.880000 0.823371
0.400000 1.000000 0.800000
0.600000 1.000000 0.800000
0.800000 1.000000 0.800000
1.000000 1.000000 0.800000
0.000000 0.000000 1.000000
0.200000 0.000000 1.000000
0.400000 0.000000 1.000000
0.767467 0.017681 0.566000
0.987064 0.519898 0.000000
0.942160 0.988260 0.000000
0.000000 0.200000 1.000000
0.523759 0.117600 0.699107
0.987020 0.234475 0.000000
0.988216 0.770246 0.000000
0.549038 0.989412 0.000000
0.000000 0.990608 0.286542
0.975132 0.004800 0.111027
0.988172 0.382804 0.000000
0.942657 0.989368 0.000000
0.073169 0.990564 0.000000
0.000000 0.991760 0.976024
0.166293 0.000000 0.992956
0.989324 0.716851 0.000000
0.515146 0.990520 0.000000
0.000000 0.991716 0.444930
0.170781 0.475913 0.992912
0.860507 0.408660 0.997372
1.000000 0.600000 1.000000
0.000000 0.991672 0.178504
0.000000 0.779121 0.992868
0.355902 0.425600 0.997222
0.600000 0.800000 1.000000
0.800000 0.800000 1.000000
1.000000 0.800000 1.000000
0.050061 0.510000 0.997070
0.200000 1.000000 1.000000
0.400000 1.000000 1.000000
0.600000 1.000000 1.000000
0.800000 1.000000 1.000000
1.000000 1.000000 1.000000
