mpv/oil_slick_hf.cube
TITLE "Oil Slick - High Frequency"
LUT_3D_SIZE 16
DOMAIN_MIN 0.0 0.0 0.0
DOMAIN_MAX 1.0 1.0 1.0
0.00000000 0.00000000 0.00000000
0.05802834 0.06532500 0.00000000
0.05055904 0.13115000 0.00000000
0.00000000 0.19697500 0.01909433
0.00000000 0.26280000 0.14693450
0.04009182 0.32862500 0.32660408
0.08446061 0.27123114 0.39445000
0.11433949 0.19245478 0.46027500
0.18185993 0.13170800 0.52610000
0.35356975 0.14823400 0.59192500
0.55379889 0.16476000 0.65775000
0.72257500 0.17965983 0.66003791
0.78840000 0.19194080 0.52003619
0.85422500 0.19820718 0.32841499
0.92005000 0.32528354 0.19783166
0.98587500 0.65166973 0.19196846
0.00016300 0.06627900 0.03948981
0.00000000 0.06620867 0.03830536
0.00000000 0.13215967 0.10476154
0.02290339 0.17238963 0.19758267
0.05589802 0.15815534 0.26378967
0.08205324 0.11655271 0.32986867
0.15775342 0.09911067 0.39549167
0.29523824 0.11476267 0.46044267
0.46371727 0.13205467 0.52703367
0.59249667 0.14775935 0.52194011
0.65857567 0.16113388 0.41614209
0.72334267 0.16803546 0.26040669
0.78980567 0.29692259 0.17070365
0.85571667 0.58200304 0.16769540
0.89801065 0.92087567 0.16100175
0.58206295 0.98651467 0.15493040
0.00000000 0.06246596 0.13205800
0.01530330 0.04916682 0.13291767
0.02772381 0.04153444 0.13291733
0.06095425 0.04888424 0.19848633
0.13625021 0.06644933 0.26481933
0.24090018 0.08275933 0.33042833
0.37544712 0.09869733 0.39566533
0.46213833 0.11555231 0.38108390
0.52707933 0.12857120 0.30797326
0.59288833 0.13814786 0.18997436
0.65923733 0.27106484 0.14306434
0.72435833 0.51432884 0.14201998
0.75051199 0.79048333 0.13899789
0.48670164 0.85628433 0.13531715
0.14204396 0.92138533 0.13344296
0.13732253 0.98771433 0.54925288
0.09723604 0.04149564 0.19883700
0.13385421 0.04894848 0.19863867
0.16277939 0.04988533 0.19924433
0.18825723 0.04962000 0.19927800
0.26549700 0.06654000 0.23996996
0.33086400 0.08240522 0.23671424
0.39637900 0.09672418 0.19791966
0.46217800 0.10786340 0.11638356
0.52838900 0.24779004 0.11495948
0.59434000 0.45120904 0.11748227
0.59873616 0.65942300 0.11613906
0.38631118 0.72499000 0.11449660
0.11499287 0.79095300 0.13159434
0.11885075 0.85660000 0.49841380
0.12652552 0.90928778 0.92225900
0.13547310 0.54393233 0.98790600
0.26461600 0.06626800 0.24944555
0.26490767 0.06626067 0.20746099
0.26533533 0.06638933 0.16758211
0.26588300 0.06649451 0.12793156
0.26633467 0.06545620 0.08558576
0.33151967 0.11520248 0.07749315
0.39747267 0.22741749 0.08660291
0.46292167 0.38997572 0.09134239
0.44407581 0.52913867 0.09386769
0.28280647 0.59458767 0.09442184
0.09629230 0.66035667 0.14225740
0.10108643 0.72622167 0.45260314
0.10881264 0.75291536 0.79183067
0.11744742 0.44593450 0.85716767
0.16687307 0.12736257 0.92377667
0.58728213 0.13574972 0.98885767
0.33039500 0.08246000 0.14955007
0.33144467 0.08305400 0.09427623
0.33144633 0.12818834 0.08134020
0.33210400 0.18874432 0.07825497
0.33240167 0.25597274 0.07286283
0.33206362 0.33281133 0.06630859
0.28477790 0.39802633 0.07057827
0.17490734 0.46390533 0.07391798
0.07730984 0.52956833 0.15688191
0.08339884 0.59595133 0.41125973
0.09111978 0.59215209 0.66142233
0.09954173 0.34369798 0.72654933
0.17470483 0.10855888 0.79226033
0.54028964 0.11780803 0.85820333
0.92458633 0.12749718 0.90493652
0.98978533 0.13600233 0.60249696
0.39717400 0.21006672 0.09787188
0.39729767 0.28761528 0.09366768
0.39777733 0.37443452 0.08747321
0.32182317 0.39753300 0.07899429
0.20836106 0.39798867 0.07084719
0.08046002 0.39856033 0.06373097
0.05851006 0.39905600 0.17614289
0.06469315 0.46469700 0.37344424
0.07290636 0.42633845 0.53049400
0.08170405 0.23707473 0.59599900
0.18833751 0.09123920 0.66222800
0.49772460 0.10017035 0.72785300
0.79325800 0.10888150 0.73896888
0.85950700 0.11843665 0.48748369
0.92485600 0.12709180 0.20814691
0.99049700 0.36546187 0.13603895
0.43501344 0.46295300 0.10196993
0.31415006 0.46277067 0.09229595
0.17628471 0.46312833 0.08268080
0.07502864 0.46443400 0.12769738
0.06805669 0.46415967 0.28263225
0.06483585 0.46475333 0.45179009
0.06367339 0.30231700 0.46489500
0.06360237 0.12553119 0.46518467
0.20548814 0.07296752 0.53124367
0.45893637 0.08206467 0.59703467
0.66287767 0.09121382 0.56996188
0.72870067 0.10034297 0.36822941
0.79423167 0.10918012 0.13582489
0.85977467 0.35840257 0.11802927
0.92586567 0.65831167 0.12742642
0.99106467 0.98137934 0.13593157
0.14681338 0.52873200 0.09507706
0.08565281 0.52955167 0.20546579
0.07771058 0.52931533 0.38681777
0.07375363 0.47566448 0.52978300
0.07262123 0.27168128 0.53017067
0.07930487 0.07266268 0.53058233
0.28301143 0.07300250 0.53126600
0.47975156 0.07263832 0.53124567
0.53216933 0.07321813 0.39645348
0.59801033 0.08236528 0.24523359
0.66353933 0.12252291 0.09120043
0.72971633 0.35529593 0.10068358
0.79544533 0.61398810 0.10971873
0.82266365 0.86035833 0.11793788
0.64066732 0.92634333 0.12722903
0.42492252 0.99264033 0.13705569
0.08846139 0.59551100 0.48980328
0.08311776 0.47638132 0.59523267
0.08242457 0.24429449 0.59629833
0.15438691 0.08159500 0.59585200
0.38745195 0.08248482 0.59708567
0.59748733 0.08254263 0.58220263
0.59714500 0.08185645 0.36757769
0.59771467 0.08208227 0.16716913
0.59794833 0.18286197 0.08197208
0.59850200 0.35448648 0.08218190
0.66446100 0.57229840 0.09144705
0.64195149 0.73004400 0.10033620
0.49742523 0.79587500 0.10947335
0.31831229 0.86141800 0.11848422
0.13017729 0.92685700 0.15928819
0.14850330 0.99270400 0.45166193
0.09109616 0.21808669 0.66129000
0.22717285 0.09056332 0.66115767
0.48905888 0.09145113 0.66238933
0.66224900 0.09096695 0.58245537
0.66239267 0.09076677 0.34116959
0.66326833 0.09129858 0.11531725
0.66370800 0.27750314 0.09139440
0.66358367 0.47095494 0.09092622
0.66430333 0.65069434 0.09130203
0.51106262 0.66501100 0.09166585
0.35084154 0.66512267 0.09143367
0.20977478 0.73127567 0.10100570
0.11197915 0.79655267 0.19374117
0.12863376 0.86212167 0.44457198
0.15272500 0.92831067 0.74790202
0.18246581 0.88524830 0.99379167
0.58778428 0.09979345 0.72706900
0.72757467 0.09995527 0.58547777
0.72785233 0.09988908 0.31710011
0.72837400 0.13508676 0.10006690
0.72855567 0.36930643 0.09990472
0.72888533 0.58581631 0.09989053
0.67303593 0.73004300 0.10070435
0.48591820 0.73024467 0.10056217
0.30674395 0.73025033 0.10022398
0.13089715 0.73079600 0.10051736
0.10306100 0.73162567 0.25133803
0.10939066 0.73204333 0.44136316
0.13027123 0.79715833 0.70029176
0.15829517 0.71641480 0.86358933
0.18971205 0.48820716 0.92932033
0.23471284 0.22155102 0.99427133
0.79384800 0.10954740 0.29564915
0.79335567 0.20078758 0.10871122
0.79409533 0.45992785 0.10910703
0.79466700 0.69938780 0.10933485
0.66911303 0.79505467 0.10937867
0.46262850 0.79571433 0.10969448
0.26442343 0.79556600 0.10920230
0.10942968 0.79605767 0.14873296
0.11161202 0.79647733 0.34775554
0.11801249 0.79659300 0.55585039
0.13023988 0.79762067 0.77489688
0.14504583 0.59367604 0.79754433
0.16245251 0.36114957 0.79861200
0.25634503 0.19254235 0.86429300
0.59962183 0.22108948 0.92989400
0.99440562 0.24558096 0.99548700
0.85962700 0.54870135 0.11830135
0.86024467 0.81102310 0.11857517
0.66732950 0.86056633 0.11855298
0.43999832 0.86027200 0.11791480
0.22346327 0.86070567 0.11800462
0.11856979 0.86154733 0.22602143
0.12048446 0.86166900 0.44295713
0.12738582 0.86194267 0.66955551
0.14021599 0.81861246 0.86280833
0.15650965 0.57349834 0.86308200
0.17509374 0.32169402 0.86397167
0.32212716 0.19205313 0.86435733
0.61737642 0.20450614 0.86387900
0.86448867 0.21284599 0.81227670
0.93023967 0.23220629 0.54566110
0.99642267 0.27327882 0.24930667
0.66648472 0.92540600 0.12705530
0.41981499 0.92573767 0.12704312
0.18419834 0.92604133 0.12700293
0.12729416 0.92662100 0.30140041
0.12923582 0.92675667 0.53654338
0.13654837 0.92712833 0.78156124
0.15048806 0.81880962 0.92836800
0.16730154 0.55432399 0.92804367
0.18712166 0.28333922 0.92881933
0.40665489 0.20525700 0.92900700
0.72620170 0.22037141 0.93000667
0.92985833 0.22877745 0.81147987
0.93029000 0.23222769 0.48401873
0.93113367 0.31375374 0.23302867
0.93086933 0.64366320 0.23246533
0.95790554 0.99701433 0.24931133
0.14721388 0.99218500 0.13680925
0.13663918 0.99231467 0.37593624
0.13839154 0.99226433 0.62907121
0.14634586 0.99299400 0.89274606
0.16001346 0.81985621 0.99325567
0.17874620 0.53743976 0.99375333
0.19978810 0.24729776 0.99440700
0.49018529 0.21918497 0.99447267
0.83176740 0.23476791 0.99473433
0.99513600 0.24457865 0.81251561
0.99566967 0.24855287 0.46091518
0.99567133 0.39382484 0.24857733
0.99663700 0.75015332 0.24924400
0.89632038 0.99675867 0.24906667
0.56414299 0.99731633 0.24932533
0.25016863 0.99754200 0.24925200
0.00029100 0.06577633 0.05237339
0.00000000 0.01269118 0.06565800
0.07229656 0.00000000 0.13148100
0.19753600 0.00018800 0.17577808
0.26261500 0.01028075 0.11043692
0.32868600 0.06765813 0.05373234
0.39452500 0.23147850 0.09208383
0.46016400 0.40487175 0.11493827
0.44961244 0.52625100 0.13174500
0.35564519 0.59187400 0.14806900
0.23183097 0.65740100 0.16426776
0.17964079 0.72364000 0.28619069
0.18967887 0.78913500 0.51334182
0.19330583 0.85453400 0.79037761
0.19073104 0.70790759 0.92001300
0.18375458 0.41881351 0.98566800
0.00000000 0.04706374 0.06577600
0.05632367 0.06632367 0.05892174
0.05853762 0.13230867 0.11106104
0.07708806 0.18154439 0.19793367
0.10202713 0.17807639 0.26391867
0.12193394 0.14307797 0.32959967
0.20072521 0.13793433 0.39489667
0.33149285 0.15513498 0.46140967
0.49180882 0.17140381 0.52700267
0.59301967 0.18702592 0.50001492
0.65844467 0.19853496 0.39686141
0.72370967 0.20473002 0.24221208
0.78985467 0.38836419 0.20638311
0.85530367 0.67559952 0.20308409
0.80069958 0.92076867 0.19789929
0.48364215 0.98647367 0.19403599
0.00429705 0.01124958 0.13266100
0.07526151 0.06730841 0.13327867
0.07330248 0.07230899 0.13354833
0.10424998 0.08947064 0.19889133
0.16925548 0.10596313 0.26475033
0.26553424 0.12217161 0.33030933
0.39317824 0.13851370 0.39599233
0.46198333 0.15441654 0.36965513
0.52709033 0.16668089 0.30096859
0.59376133 0.17619660 0.18594523
0.65878033 0.34845131 0.17926629
0.72469133 0.59310788 0.17921171
0.67064680 0.79017433 0.17661813
0.40802493 0.85659733 0.17544040
0.17634703 0.92212033 0.28451711
0.18149401 0.98754333 0.70322545
0.14782719 0.04542769 0.19853000
0.18522334 0.08981427 0.19923767
0.19552447 0.08925580 0.19886933
0.19921700 0.08938420 0.19353319
0.26522200 0.10596214 0.23170599
0.33088700 0.12177236 0.23581349
0.39726000 0.13629628 0.20331104
0.46292500 0.16791555 0.14665238
0.52793000 0.31209370 0.15220763
0.59445900 0.51462735 0.15554322
0.53662421 0.65957600 0.15517959
0.32722627 0.72578500 0.15580393
0.15831173 0.79171800 0.27179128
0.16339819 0.85668700 0.63215510
0.17197214 0.78618757 0.92236400
0.18098308 0.43451877 0.98807700
0.26468700 0.06622500 0.19879421
0.26490467 0.10589587 0.17908720
0.26571433 0.10646448 0.15447892
0.26541200 0.10558491 0.12810112
0.26651767 0.10994072 0.10502199
0.33222867 0.17351908 0.11717273
0.39816367 0.28066939 0.12609794
0.46317867 0.43907100 0.13067081
0.39846273 0.52904167 0.13366466
0.24210807 0.59507267 0.13617079
0.13983237 0.66091167 0.26312091
0.14630110 0.72682267 0.56663226
0.15449600 0.65051836 0.79210967
0.16393063 0.35777352 0.85825267
0.33133722 0.17295134 0.92397967
0.73390286 0.18138970 0.98912267
0.33044400 0.08239342 0.09399897
0.33115967 0.15982129 0.12213996
0.33113933 0.20296000 0.12006211
0.33186300 0.25095582 0.11697840
0.33237867 0.30565862 0.11221999
0.29643600 0.33306233 0.10685993
0.25543454 0.39847933 0.11201466
0.15185501 0.46406433 0.11616627
0.12109520 0.52987333 0.25900001
0.12823365 0.59597033 0.50491325
0.13690607 0.51000818 0.66171533
0.14509172 0.27466649 0.72662033
0.32000906 0.15456162 0.79280533
0.66797508 0.16326679 0.85822233
0.92417533 0.17251053 0.79536363
0.99032033 0.18194832 0.51316500
0.39718500 0.27342932 0.09653315
0.39711467 0.35999442 0.13197705
0.36011538 0.39790433 0.12636138
0.27388394 0.39839400 0.11946057
0.17485434 0.39888767 0.11267425
0.10650408 0.39881733 0.14934147
0.10310993 0.39957500 0.26123698
0.11048952 0.46539800 0.44881231
0.11826602 0.36332474 0.53022500
0.12750071 0.18794693 0.59620000
0.31400779 0.13690869 0.66233900
0.60679632 0.14559143 0.72774600
0.79337300 0.15449924 0.64743554
0.85934800 0.16375895 0.41386055
0.92462300 0.19204205 0.17232172
0.99073400 0.49460015 0.18172294
0.35542166 0.46335800 0.09890732
0.25418508 0.46333767 0.13181232
0.12925764 0.46359333 0.12342623
0.11708769 0.46453300 0.24299296
0.11198433 0.46441267 0.38163714
0.11018673 0.39955656 0.46504833
0.11000526 0.24777035 0.46550400
0.12439510 0.11020837 0.46601167
0.31244761 0.11866614 0.53123267
0.54992647 0.12760733 0.59692167
0.66306267 0.13701131 0.49573317
0.72892767 0.14614714 0.31120439
0.79442867 0.21398779 0.15492486
0.86045367 0.47394240 0.16423111
0.92598667 0.75838993 0.17304891
0.91436135 0.99192367 0.18227356
0.09146412 0.52924300 0.14056955
0.12674397 0.52922067 0.33263800
0.12175169 0.53007033 0.49964051
0.11878703 0.38346148 0.52998400
0.11826546 0.20230076 0.53020167
0.21571469 0.11863766 0.53088333
0.39392429 0.11924186 0.53179700
0.53161467 0.11875006 0.49904525
0.53244033 0.11926626 0.33894658
0.59807933 0.12814995 0.20385565
0.66339833 0.23900879 0.13672593
0.72990933 0.45657734 0.14650285
0.79521233 0.70061676 0.15507848
0.74876236 0.86100333 0.16414726
0.57631516 0.92664233 0.17306810
0.36763789 0.99234533 0.18291871
0.08541336 0.57738787 0.59484000
0.12799611 0.37085978 0.59549167
0.12714391 0.16043001 0.59549533
0.30441617 0.12749029 0.59615500
0.51136575 0.12809267 0.59707067
0.59717033 0.12787905 0.48453135
0.59759800 0.12799343 0.29736544
0.59782567 0.13306918 0.12790781
0.59874933 0.29472886 0.12851819
0.59897700 0.44280414 0.12843257
0.66418600 0.64618824 0.13689255
0.58032033 0.73057900 0.14654657
0.44534680 0.79606800 0.15530410
0.27440002 0.86183700 0.16501380
0.17877015 0.92770200 0.29253677
0.19901032 0.99351900 0.58130879
0.10421913 0.09134351 0.66172500
0.39019683 0.13616325 0.66123067
0.62580324 0.13668458 0.66206833
0.66255800 0.13685790 0.47255018
0.66256367 0.13654723 0.25824311
0.66305333 0.21477846 0.13672055
0.66369900 0.39974196 0.13704988
0.66362067 0.56947728 0.13665520
0.60097841 0.66419433 0.13691253
0.45386068 0.66526800 0.13766985
0.31088606 0.66552167 0.13760717
0.17779646 0.73134467 0.14718536
0.15926059 0.79638767 0.31264677
0.17785066 0.86226667 0.55918062
0.20310234 0.92838167 0.85722423
0.23373933 0.78281506 0.99442867
0.72744200 0.10003535 0.71882187
0.72818967 0.14609375 0.46330895
0.72852533 0.14611057 0.22254805
0.72821700 0.29409886 0.14548340
0.72921667 0.50307956 0.14616422
0.72911633 0.69483063 0.14574504
0.58593558 0.72958800 0.14589787
0.41891104 0.73018367 0.14617469
0.25701441 0.73021533 0.14588752
0.14724808 0.73145100 0.19720856
0.14966772 0.73093867 0.36422701
0.15742774 0.73157433 0.54146978
0.17967228 0.79706733 0.79464129
0.20762759 0.62840507 0.86320433
0.23837352 0.40744480 0.92906533
0.40282193 0.26859511 0.99425033
0.79332700 0.10889530 0.14733871
0.79407267 0.37192875 0.15494882
0.79394633 0.60353862 0.15450156
0.77115943 0.79472400 0.15495830
0.57337289 0.79551767 0.15543104
0.38672335 0.79595133 0.15554378
0.20587400 0.79572900 0.15500052
0.15541557 0.79603467 0.28400294
0.15925932 0.79678833 0.47064536
0.16759186 0.79745400 0.66645381
0.17970806 0.72453440 0.79760767
0.19452252 0.51319096 0.79773733
0.21052796 0.29621192 0.79861100
0.40644232 0.23830335 0.86363400
0.73979372 0.26490390 0.92962500
0.99503200 0.28672704 0.86506044
0.86008400 0.69076632 0.11862725
0.78045930 0.85997567 0.16382433
0.56120072 0.86001133 0.16353731
0.35511869 0.86051900 0.16372229
0.16440326 0.86152267 0.17201832
0.16415191 0.86118233 0.36958515
0.16862735 0.86243400 0.57504816
0.17632979 0.86195767 0.78821636
0.18964878 0.71334141 0.86238533
0.20608854 0.48343067 0.86289300
0.22350241 0.24716857 0.86379267
0.47361421 0.23792091 0.86371633
0.75025294 0.24871764 0.86413600
0.86517167 0.25506503 0.69920451
0.93101267 0.27295184 0.44188900
0.99649367 0.44624679 0.28911593
0.53179748 0.92598500 0.12750320
0.32657316 0.92645067 0.17327220
0.17262566 0.92612833 0.23705762
0.17332391 0.92676200 0.45392084
0.17751127 0.92761567 0.67727807
0.18602894 0.92747333 0.90925196
0.20058038 0.70498170 0.92823100
0.21786695 0.45576913 0.92835267
0.27290201 0.23648221 0.92907033
0.56988176 0.25288811 0.92966400
0.86886683 0.26400093 0.92934967
0.93007133 0.27068297 0.68687597
0.93086900 0.27281217 0.37821989
0.93058267 0.47848805 0.27226190
0.93148433 0.78663806 0.27288165
0.83058532 0.99664333 0.28870991
0.13649115 0.99199800 0.26083884
0.18256693 0.99240967 0.53671651
0.18627511 0.99269733 0.77777334
0.19600529 0.95768034 0.99331700
0.21114637 0.69801977 0.99378867
0.23012444 0.43039215 0.99438433
0.34366260 0.24900516 0.99398400
0.66326898 0.26688194 0.99471567
0.98570131 0.27949788 0.99482733
0.99520700 0.28651755 0.67690527
0.99547867 0.28837654 0.34308773
0.99579433 0.57059275 0.28843743
0.99705800 0.90424628 0.28941804
0.76749816 0.99688567 0.28896265
0.46156081 0.99796533 0.28975927
0.28949588 0.99798500 0.40574853
0.00008200 0.13105267 0.12976257
0.00003900 0.03352702 0.13140833
0.06391934 0.00004800 0.13181600
0.19735300 0.00000000 0.17388397
0.26346200 0.02460764 0.10996215
0.32937500 0.09283770 0.06536568
0.39457200 0.25159532 0.09644520
0.46062100 0.42689388 0.11530000
0.42342292 0.52573000 0.13111000
0.32466573 0.59141900 0.14750000
0.19533759 0.65787200 0.16440016
0.17762545 0.72330500 0.32948247
0.18636537 0.78955000 0.56805533
0.18824042 0.84987153 0.85529500
0.18418723 0.61925670 0.92082800
0.17632774 0.30672801 0.98609300
0.00000000 0.03727410 0.13175033
0.08705285 0.05236941 0.13202400
0.13279767 0.06240214 0.10626167
0.19824467 0.08645312 0.08186335
0.26355167 0.18482865 0.10393618
0.32969467 0.31045657 0.12195427
0.32574465 0.39567367 0.13861253
0.27213125 0.46108067 0.15470501
0.18743045 0.52685167 0.17100774
0.18518910 0.59241067 0.30502242
0.19536550 0.65810167 0.49496541
0.20099454 0.71351606 0.72452467
0.20086001 0.54251893 0.79022367
0.19672080 0.29695331 0.85536667
0.41333188 0.19230158 0.92108167
0.81505350 0.19070538 0.98752867
0.05441808 0.01051703 0.13205200
0.11905296 0.06969914 0.13339967
0.11314733 0.11995118 0.13314733
0.13078314 0.12941947 0.19909233
0.18883124 0.14595853 0.26511733
0.27809264 0.16210037 0.33067033
0.39636733 0.17834113 0.39347713
0.46192033 0.19323945 0.36939674
0.52733733 0.20502241 0.30496510
0.59389033 0.23545252 0.21377122
0.65869933 0.41578112 0.21645365
0.72462033 0.66033781 0.21693610
0.60380572 0.79029333 0.21584166
0.34299739 0.85591033 0.21581416
0.21980414 0.92231933 0.42897434
0.22711252 0.98820033 0.84084064
0.19509362 0.04764625 0.19818700
0.19858867 0.08911080 0.17048298
0.19937433 0.12956707 0.17511348
0.19954400 0.12959720 0.18722433
0.26583900 0.14628975 0.23580304
0.33096600 0.16117351 0.24630056
0.39705300 0.17489692 0.21891374
0.46261200 0.22450250 0.18474373
0.52876300 0.36651069 0.19139822
0.59383400 0.56532695 0.19377770
0.48839212 0.66024900 0.19584222
0.28264268 0.72587200 0.19754749
0.20120400 0.79107100 0.39539651
0.20921835 0.85747800 0.74922394
0.21766332 0.68204006 0.92269300
0.22666304 0.34478393 0.98840400
0.26482200 0.06624600 0.14860148
0.26528167 0.10618167 0.13309748
0.26605733 0.14652093 0.14780735
0.26590100 0.15403818 0.14566948
0.26659667 0.16469678 0.14473054
0.33184567 0.21988718 0.15622421
0.39828267 0.32171771 0.16572101
0.45132630 0.46340367 0.17087323
0.36695427 0.52900067 0.17455244
0.21704827 0.59545767 0.17886092
0.18390591 0.66111867 0.36796709
0.19135740 0.72675167 0.66241909
0.20030121 0.56694022 0.79248467
0.20911398 0.28767565 0.85802167
0.47533267 0.21783909 0.92346667
0.86107781 0.22743567 0.98977967
0.33070100 0.12647729 0.08248305
0.33139867 0.21239720 0.12179505
0.33175633 0.27174136 0.15987320
0.33233400 0.30577175 0.15686687
0.31928023 0.33233967 0.15228649
0.27236263 0.33254133 0.14754519
0.24030959 0.39887233 0.15436677
0.15954145 0.46440733 0.17405460
0.16604287 0.53056233 0.34546092
0.17376703 0.59623333 0.58110775
0.18176054 0.44557704 0.66104433
0.19153278 0.22571901 0.72756333
0.44553821 0.20027784 0.79304633
0.77707118 0.20962568 0.85912533
0.92464833 0.21842285 0.70581929
0.98999133 0.22704429 0.44144098
0.39656000 0.33745650 0.09418673
0.37063829 0.39776367 0.13036262
0.30722551 0.39797533 0.16587412
0.23495243 0.39812300 0.15969068
0.15392906 0.39823867 0.15552438
0.15029659 0.39919433 0.23859559
0.14722791 0.39893400 0.32939416
0.15593083 0.42478636 0.46535100
0.16465336 0.31974824 0.53094400
0.18934018 0.17377668 0.59685700
0.42038071 0.18242316 0.66227400
0.69731225 0.19153958 0.72814700
0.79402000 0.20066646 0.57513581
0.85913300 0.20904138 0.35821394
0.92535000 0.32196073 0.21852662
0.99137500 0.60828974 0.22782491
0.27252987 0.46359100 0.09546983
0.16991912 0.46355267 0.12864919
0.16521306 0.46409833 0.23682350
0.15995180 0.46448400 0.34630833
0.15701931 0.46340766 0.46502967
0.15610458 0.33794037 0.46550333
0.15605593 0.21043633 0.46578500
0.22779951 0.15570434 0.46569867
0.40123640 0.16474699 0.53157767
0.59729667 0.17366130 0.57169367
0.66273567 0.18231778 0.43915383
0.72910267 0.19191839 0.27165261
0.79464567 0.32886453 0.20070708
0.86066867 0.57352276 0.20998508
0.92593967 0.84404350 0.21851838
0.83998579 0.99182667 0.22767353
0.08722326 0.52887400 0.24078050
0.12478408 0.52983767 0.43488672
0.16608689 0.46226354 0.53030933
0.16429823 0.30694144 0.53020100
0.17891838 0.16465827 0.53092867
0.33477808 0.16468285 0.53122833
0.48612155 0.16450344 0.53132400
0.53219167 0.16509603 0.43323370
0.53253533 0.16516461 0.29857598
0.59856833 0.17437793 0.17972331
0.66395733 0.34018008 0.18297241
0.72982233 0.54253273 0.19206119
0.79582733 0.77414114 0.20130371
0.68685390 0.86082033 0.20954478
0.52365158 0.92685733 0.21888121
0.32224478 0.99249833 0.22978111
0.08436698 0.45271558 0.59561700
0.12765784 0.25065135 0.59567467
0.25219361 0.17323393 0.59600033
0.43761911 0.17360088 0.59665000
0.59668767 0.17335583 0.57581280
0.59711333 0.17349877 0.40442833
0.59739100 0.17349372 0.24341449
0.59851267 0.25351848 0.17433266
0.59855033 0.39026966 0.17408761
0.59935200 0.51666363 0.17460655
0.62221209 0.66489100 0.18333903
0.53063334 0.73049800 0.19216000
0.40495441 0.79625300 0.20117086
0.24146171 0.86176400 0.21150771
0.22650919 0.92719900 0.41389388
0.24910584 0.99371000 0.69918461
0.24373482 0.09087530 0.66138800
0.52182372 0.13711564 0.66230367
0.66181933 0.18201100 0.57823501
0.66280700 0.18270983 0.37978076
0.66277867 0.18239266 0.19217016
0.66339833 0.34676744 0.18272350
0.66422600 0.50737232 0.18326233
0.66470967 0.65495248 0.18345716
0.53726890 0.66425733 0.18271599
0.40850202 0.66524500 0.18341483
0.28206619 0.66562467 0.18352084
0.19383086 0.73151367 0.23037481
0.20716008 0.79645867 0.42104647
0.22708376 0.86230767 0.66234991
0.25335004 0.90257961 0.92862867
0.28352162 0.69223473 0.99435767
0.72725100 0.09971325 0.57217283
0.72749267 0.14527518 0.32875637
0.72791033 0.23856737 0.19106313
0.72828800 0.43723226 0.19114696
0.72925767 0.62108597 0.19182279
0.66872150 0.72917933 0.19145062
0.51287056 0.73026100 0.19223846
0.36410135 0.73044667 0.19213029
0.21876050 0.73059233 0.19199354
0.19302672 0.73079400 0.31263471
0.19757243 0.73121967 0.46744912
0.20601471 0.73162933 0.63069673
0.22911424 0.71745459 0.79737233
0.25666543 0.55346517 0.86329933
0.28622612 0.33974362 0.92913833
0.55602749 0.31463925 0.99457733
0.79387000 0.21584082 0.10930720
0.79411367 0.50263384 0.15486746
0.79472933 0.73282359 0.20084557
0.66608852 0.79439700 0.20021523
0.48985283 0.79530867 0.20082889
0.32165769 0.79526433 0.20048656
0.20122021 0.79628800 0.24387586
0.20232967 0.79654767 0.40977335
0.20747869 0.79727533 0.58341874
0.21650241 0.79755100 0.76524346
0.22937771 0.64111826 0.79813467
0.24349835 0.44540110 0.79819433
0.27113108 0.25756774 0.79865000
0.54246763 0.28383918 0.86399500
0.86599068 0.30845697 0.93029600
0.99524900 0.32767681 0.74898434
0.85976500 0.82904214 0.11817715
0.65489712 0.85989467 0.16362030
0.46935501 0.86078033 0.20986177
0.28267782 0.86146200 0.21024191
