mpv/oil_slick_m_s.cube
TITLE "Oil Slick Iridescent Effect - Smooth Natural"
LUT_3D_SIZE 16
DOMAIN_MIN 0.0 0.0 0.0
DOMAIN_MAX 1.0 1.0 1.0
0.00000000 0.00000000 0.00000000
0.06532500 0.02268192 0.00000000
0.13115000 0.09152327 0.00000000
0.18945383 0.19697500 0.00000000
0.16645590 0.26280000 0.00000000
0.10759397 0.32862500 0.00372264
0.05185720 0.39445000 0.04383846
0.06825688 0.46027500 0.16817759
0.07912240 0.52610000 0.30807286
0.08907520 0.59192500 0.46545050
0.09902800 0.65775000 0.63751734
0.10727115 0.62476063 0.72257500
0.11241291 0.56155332 0.78840000
0.11073814 0.48559099 0.85422500
0.10153588 0.39418251 0.92005000
0.08611425 0.28515934 0.98587500
0.02092933 0.06627900 0.00016300
0.03123343 0.06620867 0.00000000
0.05220494 0.13215967 0.00000000
0.03323247 0.19758267 0.00092259
0.02868457 0.26378967 0.05020528
0.04904785 0.32986867 0.14593811
0.05959320 0.39549167 0.25658319
0.06867200 0.46044267 0.38663125
0.07939080 0.51864905 0.52703367
0.08846104 0.48781614 0.59249667
0.09480831 0.44468997 0.65857567
0.09399450 0.38624074 0.72334267
0.08815672 0.31342682 0.78980567
0.07595923 0.22226619 0.85571667
0.05968523 0.11187215 0.92087567
0.10418086 0.04405250 0.98651467
0.00000000 0.13205800 0.04514569
0.00052845 0.13291767 0.05451118
0.01396908 0.13291733 0.06819974
0.02896384 0.19848633 0.12533196
0.04000000 0.26481933 0.20726548
0.04973680 0.33042833 0.31129094
0.05910160 0.35685520 0.39566533
0.06934085 0.34896510 0.46213833
0.07543678 0.32466572 0.52707933
0.07751580 0.28591241 0.59288833
0.07424127 0.23097915 0.65923733
0.06437487 0.15681613 0.72435833
0.05213316 0.06518484 0.79048333
0.12313032 0.03918819 0.85628433
0.22918973 0.02838398 0.92138533
0.36363753 0.02393695 0.98771433
0.02094581 0.19883700 0.18910169
0.02902130 0.18870758 0.19863867
0.02997080 0.17359709 0.19924433
0.02966560 0.16137882 0.19927800
0.04001240 0.19423611 0.26549700
0.04927738 0.20742397 0.33086400
0.05677020 0.20384276 0.39637900
0.06062146 0.18384292 0.46217800
0.05983554 0.14682210 0.52838900
0.05390123 0.09129968 0.59434000
0.07097048 0.04370120 0.65942300
0.14208244 0.03309748 0.72499000
0.23452938 0.02486485 0.79095300
0.35174327 0.02048418 0.85660000
0.49698138 0.02042773 0.92225900
0.67257746 0.02181538 0.98790600
0.03982160 0.15768900 0.26461600
0.03977440 0.13206946 0.26490767
0.03986320 0.11124878 0.26533533
0.03990937 0.09494366 0.26588300
0.03867241 0.08177434 0.26633467
0.04362295 0.08013897 0.33151967
0.04515361 0.06102550 0.39747267
0.06072634 0.04179849 0.46292167
0.10468850 0.03583157 0.52913867
0.16305318 0.02773306 0.59458767
0.24095058 0.02108372 0.66035667
0.34196344 0.01773507 0.72622167
0.46872273 0.01774357 0.79183067
0.62377068 0.01881805 0.85716767
0.81295893 0.02117402 0.92377667
0.98885767 0.02200199 0.93891263
0.04940200 0.07027184 0.33039500
0.05683652 0.04993524 0.33144467
0.07758355 0.04799272 0.33144633
0.09258357 0.04440844 0.33210400
0.10190109 0.03825765 0.33240167
0.10758898 0.03077489 0.33281133
0.13882175 0.02691853 0.39802633
0.18500692 0.02191967 0.46390533
0.24852646 0.01700871 0.52956833
0.33374762 0.01505851 0.59595133
0.44204470 0.01507943 0.66142233
0.57675009 0.01594072 0.72654933
0.74288416 0.01739869 0.79226033
0.85820333 0.01908866 0.77132802
0.92458633 0.02121863 0.66052893
0.98978533 0.02216460 0.50266136
0.15907942 0.05796493 0.39717400
0.18339237 0.05318369 0.39729767
0.20239843 0.04609932 0.39777733
0.21681088 0.03652247 0.39753300
0.22996852 0.02722833 0.39798867
0.24317536 0.01908705 0.39856033
0.25797198 0.01310393 0.39905600
0.32617913 0.01135930 0.46469700
0.41653707 0.01189468 0.53049400
0.53156078 0.01313139 0.59599900
0.66222800 0.01510736 0.64828608
0.72785300 0.01647933 0.60202639
0.79325800 0.01763130 0.51719381
0.85950700 0.01962727 0.39005646
0.92485600 0.02072324 0.21438630
0.99049700 0.05676691 0.02211121
0.30169093 0.05383885 0.46295300
0.32548921 0.04289933 0.46277067
0.34782311 0.03195446 0.46312833
0.37098424 0.02310793 0.46443400
0.39413132 0.01524296 0.46415967
0.42114307 0.01151351 0.46475333
0.45188014 0.01017718 0.46489500
0.46518467 0.01005806 0.44228159
0.53124367 0.01186403 0.45195086
0.59703467 0.01340200 0.43012001
0.66287767 0.01499197 0.37253160
0.72870067 0.01656194 0.27448890
0.79423167 0.01783991 0.13130401
0.85977467 0.09893454 0.01912988
0.92586567 0.34610714 0.02096785
0.99106467 0.64680955 0.02191382
0.46518897 0.03725640 0.52873200
0.49704478 0.02646629 0.52955167
0.52931220 0.01749661 0.52931533
0.52978300 0.01294972 0.49438973
0.53017067 0.01161464 0.45515925
0.53058233 0.01160673 0.41015320
0.53126600 0.01190070 0.35789393
0.53124567 0.01149067 0.29601371
0.53216933 0.01202464 0.22508025
0.59801033 0.01361261 0.15646506
0.66353933 0.01488858 0.04544475
0.72971633 0.14462221 0.01681255
0.79544533 0.35391929 0.01828852
0.86035833 0.61443583 0.01894849
0.92303234 0.92634333 0.02068046
0.68607339 0.99264033 0.02297774
0.59551100 0.02085477 0.52639547
0.59523267 0.01483578 0.48176913
0.59629833 0.01390807 0.43424046
0.59585200 0.01302740 0.37896336
0.59708567 0.01387137 0.31698937
0.59748733 0.01388334 0.24422654
0.59714500 0.01315131 0.15953884
0.59771467 0.01333128 0.06374530
0.59794833 0.07117245 0.01317525
0.59850200 0.19217284 0.01333922
0.66446100 0.36429337 0.01504519
0.73004400 0.58568761 0.01637516
0.73287442 0.79587500 0.01795313
0.53873079 0.86141800 0.01942638
0.29469846 0.92685700 0.02395333
0.03594320 0.99270400 0.06201252
0.66129000 0.01507031 0.41307082
0.66115767 0.01448407 0.34877011
0.66238933 0.01532604 0.27662423
0.66224900 0.01479601 0.19212232
0.66239267 0.01454998 0.09554969
0.66326833 0.04366007 0.01503595
0.66370800 0.16711166 0.01508592
0.66358367 0.30377822 0.01457189
0.66430333 0.45458891 0.01490186
0.66501100 0.61774517 0.01521983
0.53895601 0.66512267 0.01494180
0.38894746 0.73127567 0.01696971
0.18932273 0.79655267 0.02070268
0.03083538 0.86212167 0.11310117
0.04931358 0.92831067 0.42117330
0.07428903 0.99379167 0.76396951
0.72706900 0.01615671 0.23661476
0.72757467 0.01627268 0.14166210
0.72785233 0.01616065 0.03296251
0.72837400 0.12264850 0.01629262
0.72855567 0.26071305 0.01608459
0.72888533 0.41405883 0.01602456
0.73004300 0.58285668 0.01679253
0.69618607 0.73024467 0.01660450
0.50283624 0.73025033 0.01622047
0.29989536 0.73079600 0.01648021
0.09138156 0.73162567 0.01925237
0.02637031 0.73204333 0.16852829
0.04135295 0.79715833 0.42779297
0.06425595 0.86358933 0.72526827
0.09109761 0.80935249 0.92932033
0.11852164 0.59578944 0.99427133
0.79384800 0.06457526 0.01830732
0.79335567 0.20027350 0.01742529
0.79409533 0.35365263 0.01777526
0.79466700 0.52335172 0.01795723
0.79505467 0.70881876 0.01795520
0.68201172 0.79571433 0.01822517
0.46867737 0.79556600 0.01768714
0.24487367 0.79605767 0.01787929
0.02029664 0.79647733 0.02593636
0.02753509 0.79659300 0.26867960
0.04125578 0.79762067 0.51273588
0.05804603 0.79754433 0.74776926
0.07763125 0.62727389 0.79861200
0.10297559 0.45497804 0.86429300
0.12658221 0.26196380 0.92989400
0.24329331 0.14559349 0.99548700
0.85962700 0.44528193 0.01945793
0.86024467 0.63102787 0.01968590
0.86056633 0.83376151 0.01961787
0.66854407 0.86027200 0.01893384
0.43605032 0.86070567 0.01897781
0.19185960 0.86154733 0.01950612
0.02165986 0.86166900 0.10326327
0.02944491 0.86194267 0.36780564
0.04387035 0.86280833 0.63299647
0.06230000 0.83744829 0.86308200
0.08324334 0.59821114 0.86397167
0.10241257 0.37613384 0.86435733
0.11658975 0.16921245 0.86387900
0.27644851 0.12596030 0.86448867
0.50579603 0.13913517 0.93023967
0.74981543 0.14969120 0.99642267
0.89425591 0.92540600 0.02060854
0.65755772 0.92573767 0.02055051
0.40527951 0.92604133 0.02046448
0.14016080 0.92662100 0.02071724
0.02289971 0.92675667 0.17871005
0.03113771 0.92712833 0.46499210
0.04677073 0.92836800 0.75190585
0.06586926 0.82863537 0.92804367
0.08822864 0.57017187 0.92881933
0.10875700 0.33012025 0.92900700
0.14359069 0.12575338 0.93000667
0.37342872 0.13530000 0.92985833
0.58225608 0.13915272 0.93029000
0.77394888 0.13994800 0.93113367
0.93086933 0.13934480 0.91336965
0.99701433 0.14961760 0.80703419
0.37694098 0.99218500 0.02275915
0.09077715 0.99231467 0.02254912
0.02454184 0.99226433 0.25283778
0.03345944 0.99299400 0.56111894
0.04891450 0.99325567 0.86845499
0.07007858 0.82216955 0.99375333
0.09383891 0.54437136 0.99440700
0.11581328 0.28633833 0.99447267
0.22028899 0.13343906 0.99473433
0.46886916 0.14450433 0.99513600
0.69487447 0.14893730 0.99566967
0.90178562 0.14896480 0.99567133
0.99663700 0.14959160 0.90088314
0.99675867 0.14937440 0.72906492
0.99731633 0.14959320 0.57531418
0.99754200 0.14948000 0.43816897
0.00029100 0.06577633 0.00907522
0.00000000 0.06565800 0.06462730
0.00000000 0.05525512 0.13148100
0.00018800 0.00055291 0.19753600
0.09502073 0.00000000 0.26261500
0.23426412 0.01848908 0.32868600
0.39452500 0.05208500 0.39382788
0.46016400 0.06890911 0.34903487
0.52625100 0.07914420 0.28378689
0.59187400 0.08889500 0.20082760
0.65740100 0.09851667 0.10382103
0.72364000 0.21989312 0.10710757
0.78913500 0.35215412 0.10975139
0.85453400 0.49085751 0.10514208
0.92001300 0.63879244 0.09349345
0.98566800 0.79976187 0.07683279
0.00000000 0.06577600 0.02048902
0.06428805 0.06632367 0.05299033
0.09187666 0.13230867 0.04742508
0.08938848 0.19793367 0.05958770
0.07864132 0.26391867 0.09254612
0.09226866 0.32959967 0.17435859
0.10169606 0.39489667 0.27644275
0.11232239 0.46140967 0.40031660
0.12201508 0.51354414 0.52700267
0.13091296 0.49052146 0.59301967
0.13521406 0.45307834 0.65844467
0.13349752 0.40044215 0.72370967
0.12650308 0.33186766 0.78985467
0.11398306 0.24446185 0.85530367
0.09932619 0.13862054 0.92076867
0.15712654 0.08614542 0.98647367
0.00027700 0.13266100 0.09488813
0.05683154 0.13327867 0.11596751
0.06221142 0.13354833 0.10249547
0.07289300 0.19889133 0.14676413
0.08280667 0.26475033 0.21996242
0.09243765 0.33030933 0.31649841
0.10220261 0.35899592 0.39599233
0.11142333 0.35732998 0.46198333
0.11662403 0.33912285 0.52709033
0.11848441 0.30633994 0.59376133
0.11324623 0.25459251 0.65878033
0.10434196 0.18548587 0.72469133
0.09261937 0.09753422 0.79017433
0.17206002 0.08238618 0.85659733
0.27939739 0.07465067 0.92212033
0.41427787 0.07175021 0.98754333
0.02522541 0.16023066 0.19853000
0.07323696 0.15807864 0.19923767
0.07264769 0.15742904 0.19886933
0.07274287 0.16015433 0.19921700
0.08273675 0.20099978 0.26522200
0.09189884 0.22129504 0.33088700
0.09949370 0.22440732 0.39726000
0.10244223 0.20935218 0.46292500
0.10002397 0.17570956 0.52793000
0.09488006 0.12515757 0.59445900
0.11668900 0.08573370 0.65957600
0.18743233 0.07757124 0.72578500
0.27986477 0.07159540 0.79171800
0.39690138 0.06868661 0.85668700
0.54265801 0.06964598 0.92236400
0.71928977 0.07109705 0.98807700
0.03976340 0.10849353 0.26468700
0.08270708 0.11900993 0.26490467
0.08324054 0.11160178 0.26571433
0.08227679 0.10634506 0.26541200
0.08147054 0.10470015 0.26651767
0.08645046 0.10949081 0.33222867
0.08772970 0.09543561 0.39816367
0.10677270 0.08419121 0.46317867
0.14739764 0.07875119 0.52904167
0.20453330 0.07274533 0.59507267
0.28159331 0.06808957 0.66091167
0.38224387 0.06662167 0.72682267
0.50839552 0.06720365 0.79210967
0.66441773 0.06907789 0.85825267
0.85376160 0.07053838 0.92397967
0.98912267 0.07141667 0.89680282
0.07851644 0.04932001 0.33044400
0.13891615 0.09228000 0.33115967
0.14862720 0.08990822 0.33113933
0.15399617 0.08628060 0.33186300
0.15501190 0.08076875 0.33237867
0.15333240 0.07454530 0.33306233
0.18062206 0.07161579 0.39847933
0.22355824 0.06753535 0.46406433
0.28516966 0.06432046 0.52987333
0.36862677 0.06358712 0.59597033
0.47600610 0.06464972 0.66171533
0.60978547 0.06527407 0.72662033
0.77646789 0.06718302 0.79280533
0.85822233 0.06832751 0.73756760
0.92417533 0.07001078 0.62509468
0.99032033 0.07188828 0.46663584
0.20830425 0.05644623 0.39718500
0.25196015 0.09458585 0.39711467
0.26311105 0.08806687 0.39790433
0.27106663 0.08012381 0.39839400
0.27766788 0.07231082 0.39888767
0.28390383 0.06528042 0.39881733
0.29263258 0.06130075 0.39957500
0.35801826 0.06087866 0.46539800
0.44501660 0.06104950 0.53022500
0.55875739 0.06272113 0.59620000
0.66233900 0.06456684 0.62240973
0.72774600 0.06568786 0.57631107
0.79337300 0.06703438 0.49159959
0.85934800 0.06873312 0.36379377
0.92462300 0.06973518 0.18758514
0.99073400 0.18230539 0.07157589
0.35235346 0.05031390 0.46335800
0.38591443 0.08547007 0.46333767
0.40187102 0.07587599 0.46359333
0.41864985 0.06852007 0.46453300
0.43591623 0.06272015 0.46441267
0.45674689 0.06058242 0.46504833
0.46550400 0.06031188 0.44966199
0.46601167 0.06047242 0.42087032
0.53123267 0.06136524 0.43210606
0.59692167 0.06274275 0.41187525
0.66306267 0.06458395 0.35576640
0.72892767 0.06615766 0.25861477
0.79442867 0.06737374 0.11612565
0.86045367 0.21277206 0.06911873
0.92598667 0.45813731 0.07037558
0.99192367 0.75769779 0.07203950
0.52029162 0.03309361 0.52924300
0.52922067 0.07084442 0.50807115
0.53007033 0.06504077 0.48224752
0.52998400 0.06167634 0.45276476
0.53020167 0.06105209 0.41947501
0.53088333 0.06138131 0.38082281
0.53179700 0.06194253 0.33509056
0.53161467 0.06140776 0.27979661
0.53244033 0.06188098 0.21618359
0.59807933 0.06320036 0.14969023
0.66339833 0.08789079 0.06421307
0.72990933 0.24636071 0.06642746
0.79521233 0.45285526 0.06744111
0.86100333 0.71139370 0.06894835
0.83061234 0.92664233 0.07030798
0.59798201 0.99234533 0.07271508
0.59484000 0.01748981 0.46491466
0.59549167 0.06338291 0.43442358
0.59549533 0.06241241 0.39166812
0.59615500 0.06271549 0.34310712
0.59707067 0.06327457 0.28654965
0.59717033 0.06301765 0.21960377
0.59759800 0.06308873 0.14242443
0.59782567 0.07205887 0.06295981
0.59874933 0.17247928 0.06352690
0.59897700 0.28345916 0.06339798
0.66418600 0.45112758 0.06429418
0.73057900 0.66935550 0.06638525
0.65444561 0.79606800 0.06758047
0.46612839 0.86183700 0.06981938
0.23095751 0.92770200 0.07664308
0.09083778 0.99351900 0.22341464
0.66172500 0.01529265 0.34534390
0.66123067 0.06387136 0.30673923
0.66206833 0.06434913 0.23941150
0.66255800 0.06447890 0.16106898
0.66256367 0.06412467 0.07045598
0.66305333 0.16067903 0.06425444
0.66369900 0.27649391 0.06454021
0.66362067 0.40418927 0.06410198
0.66419433 0.54453301 0.06431575
0.63418951 0.66526800 0.06502952
0.47414312 0.66552167 0.06492330
0.33024419 0.73134467 0.06700663
0.13919941 0.79638767 0.07203486
0.08435121 0.86226667 0.25799857
0.10420061 0.92838167 0.55430281
0.13017129 0.99442867 0.88284402
0.72744200 0.01638113 0.15745588
0.72818967 0.06619823 0.10433135
0.72852533 0.13116755 0.06617129
0.72821700 0.24743017 0.06550035
0.72921667 0.37912630 0.06613741
0.72911633 0.52367708 0.06567448
0.72958800 0.68209693 0.06578354
0.60755116 0.73018367 0.06601660
0.42683066 0.73021533 0.06568566
0.23897750 0.73145100 0.06706336
0.06988544 0.73093867 0.09328113
0.07862331 0.73157433 0.29755079
0.09514796 0.79706733 0.54549057
0.11806792 0.86320433 0.82844773
0.14418827 0.72110560 0.92906533
0.16979698 0.52309853 0.99425033
0.79332700 0.15870932 0.01763774
0.79407267 0.33326218 0.06744972
0.79394633 0.47922641 0.06695853
0.79472400 0.64140078 0.06737133
0.77284170 0.79551767 0.06780013
0.58388721 0.79595133 0.06786894
0.38256894 0.79572900 0.06728174
0.17257979 0.79603467 0.06771177
0.07197856 0.79678833 0.18390623
0.08136074 0.79745400 0.40984943
0.09511466 0.79760767 0.63253825
0.11193954 0.75016845 0.79773733
0.13001659 0.55266866 0.79861100
0.15287567 0.39411675 0.86363400
0.17426012 0.21441190 0.92962500
0.36922853 0.19029115 0.99503200
0.86008400 0.55887767 0.01976635
0.85997567 0.75704092 0.06872169
0.76901470 0.86001133 0.06839059
0.56098041 0.86051900 0.06853148
0.34064422 0.86152267 0.06916837
0.10887028 0.86118233 0.06892917
0.07384502 0.86243400 0.27217025
0.08266479 0.86195767 0.51862682
0.09774487 0.86238533 0.76261303
0.11636116 0.73016964 0.86289300
0.13603107 0.51421693 0.86379267
0.15242973 0.31354115 0.86371633
0.20232535 0.16464409 0.86413600
0.39262261 0.17171713 0.86517167
0.60826406 0.18321627 0.93101267
0.83893733 0.19280629 0.99649367
0.76178444 0.92598500 0.02103896
0.54127804 0.92645067 0.07056604
0.29946603 0.92612833 0.06987530
0.07058235 0.92676200 0.09357301
0.07522430 0.92761567 0.35793906
0.08492288 0.92747333 0.62639866
0.10135530 0.92823100 0.89180182
0.12098253 0.71233707 0.92835267
0.14203837 0.47763342 0.92907033
0.16060049 0.26030450 0.92966400
0.29005754 0.17327155 0.92934967
0.49770678 0.18076638 0.93007133
0.68673025 0.18307714 0.93086900
0.85901575 0.18249088 0.93058267
0.93148433 0.18307219 0.84589470
0.99664333 0.19232460 0.75050285
0.22445853 0.99199800 0.02242357
0.07230665 0.99240967 0.15632367
0.07648053 0.99269733 0.44166728
0.08745112 0.99331700 0.73257210
0.10458944 0.96873690 0.99378867
0.12607027 0.69684522 0.99438433
0.14757611 0.44236134 0.99398400
0.16778721 0.20778137 0.99471567
0.37635379 0.18210561 0.99482733
0.60138854 0.19002932 0.99520700
0.80658723 0.19210442 0.99547867
0.99514109 0.19213062 0.99579433
0.99705800 0.19307269 0.82602053
0.99688567 0.19257877 0.67100232
0.99796533 0.19333684 0.53378841
0.99798500 0.19303492 0.41118674
0.00008200 0.13105267 0.03519003
0.00003900 0.13140833 0.11389202
0.00004800 0.07141321 0.13181600
0.00000000 0.00847674 0.19735300
0.09426238 0.00023000 0.26346200
0.24234924 0.03102876 0.32937500
0.39457200 0.05680020 0.38643995
0.46062100 0.06925720 0.33923871
0.52573000 0.07849400 0.27112063
0.59141900 0.08831080 0.18721378
0.65787200 0.10664189 0.09860392
0.72330500 0.23121882 0.10486818
0.78955000 0.36282553 0.10594075
0.85529500 0.50132613 0.09929981
0.92082800 0.65010846 0.08596846
0.98609300 0.81295730 0.06835904
0.00000000 0.13175033 0.09169662
0.04077582 0.10668381 0.13202400
0.05934861 0.05156520 0.13279767
0.15118697 0.06472931 0.19824467
0.26355167 0.08073434 0.26098581
0.32969467 0.09227707 0.25402266
0.39567367 0.10236032 0.22385264
0.46108067 0.11187830 0.17352677
0.52685167 0.13614977 0.12158497
0.59241067 0.23383324 0.12890645
0.65810167 0.34107397 0.13165545
0.72452467 0.45863775 0.12913746
0.79022367 0.58704312 0.12017332
0.85536667 0.72931427 0.10674186
0.92108167 0.88957971 0.09292248
0.90436958 0.98752867 0.08221770
0.00000000 0.12086753 0.13205200
0.05940571 0.10478136 0.13339967
0.10648067 0.13314733 0.11103090
0.11614844 0.19909233 0.15218105
0.12609873 0.26511733 0.22025087
0.13565803 0.33067033 0.31097997
0.14530686 0.37117679 0.39636733
0.15343487 0.37476833 0.46192033
0.15801815 0.36203958 0.52733733
0.15897927 0.33376086 0.59389033
0.15327570 0.28606258 0.65869933
0.14492415 0.22111954 0.72462033
0.13482924 0.13760193 0.79029333
0.21564656 0.12597610 0.85591033
0.32477500 0.12160309 0.92231933
0.46121645 0.12109034 0.98820033
0.02765173 0.11396438 0.19818700
0.07252324 0.11348380 0.19858867
0.11627044 0.14380245 0.19937433
0.11627400 0.16696545 0.19954400
0.12636488 0.21796035 0.26583900
0.13453939 0.24398875 0.33096600
0.14123690 0.25206242 0.39705300
0.14357806 0.24158373 0.46261200
0.14219920 0.21346146 0.52876300
0.13611192 0.16574734 0.59383400
0.15795543 0.12949840 0.66024900
0.22738526 0.12260784 0.72587200
0.31913268 0.11801763 0.79107100
0.43790857 0.11823454 0.85747800
0.58346813 0.11911079 0.92269300
0.76109321 0.12054988 0.98840400
0.03976920 0.05999784 0.26482200
0.09211084 0.08297958 0.26528167
0.13861916 0.12659820 0.26605733
0.12839744 0.12563089 0.26590100
0.12441952 0.13352467 0.26659667
0.12867575 0.14476551 0.33184567
0.13048439 0.13654992 0.39828267
0.14738066 0.12753539 0.46340367
0.18505390 0.12286207 0.52900067
0.24096214 0.11881094 0.59545767
0.31692139 0.11573266 0.66111867
0.41670156 0.11541495 0.72675167
0.54279406 0.11678816 0.79248467
0.69835428 0.11803922 0.85802167
0.88831297 0.11920297 0.92346667
0.98977967 0.12123849 0.86088495
0.12789861 0.04938733 0.33070100
0.18486573 0.09185168 0.33139867
0.21843877 0.13291115 0.33175633
0.21367715 0.12934262 0.33233400
0.20507818 0.12404286 0.33233967
0.19436053 0.11852619 0.33254133
0.21778061 0.11732047 0.39887233
0.25743595 0.11437614 0.46440733
0.31712222 0.11288379 0.53056233
0.39842399 0.11287098 0.59623333
0.50343678 0.11329142 0.66104433
0.63802577 0.11550007 0.72756333
0.79304633 0.11668228 0.78220757
0.85912533 0.11846783 0.71085502
0.92464833 0.11970316 0.59711742
0.98999133 0.12076311 0.43683452
0.25637618 0.05387030 0.39656000
0.29913998 0.09265221 0.39776367
0.32244017 0.13070727 0.39797533
0.32250671 0.12356457 0.39812300
0.32147983 0.11691245 0.39823867
0.32152359 0.11258481 0.39919433
0.32186085 0.10909062 0.39893400
0.38408507 0.11009081 0.46535100
0.46900076 0.11123598 0.53094400
0.58064489 0.11279213 0.59685700
0.66227400 0.11387304 0.60243351
0.72814700 0.11542506 0.55755497
0.79402000 0.11698840 0.47344179
0.85913300 0.11780045 0.34491530
0.92535000 0.11972335 0.16980087
0.99137500 0.29953031 0.12145972
0.40319475 0.04638701 0.46359100
0.43613193 0.08183473 0.46355267
0.45466049 0.12093376 0.46409833
0.46423979 0.11483592 0.46448400
0.46502967 0.11138814 0.45470380
0.46550333 0.11026773 0.44204520
0.46578500 0.11017014 0.42545332
0.46569867 0.10977925 0.40356741
0.53157767 0.11125085 0.41855038
0.59729667 0.11259675 0.40063669
0.66273567 0.11368666 0.34558236
0.72910267 0.11572204 0.25038542
0.79464567 0.12458117 0.11694651
0.86066867 0.31714100 0.11866107
0.92593967 0.56025491 0.11963154
0.99182667 0.85711349 0.12122434
0.52887400 0.02833649 0.48240388
0.52983767 0.06852664 0.45324419
0.53030933 0.11297112 0.43669207
0.53020100 0.11093741 0.41385440
0.53092867 0.11124383 0.38777427
0.53122833 0.11122830 0.35551740
0.53132400 0.11100878 0.31610274
0.53219167 0.11156125 0.26957040
0.53253533 0.11158972 0.21396147
0.59856833 0.11323336 0.15102298
0.66395733 0.18373381 0.11426028
0.72982233 0.33864360 0.11578302
0.79582733 0.54270338 0.11746063
0.86082033 0.79682467 0.11813768
0.74957791 0.92685733 0.11991680
0.52303692 0.99249833 0.12353195
0.59561700 0.01620032 0.40408419
0.59567467 0.06297259 0.37292533
0.59600033 0.11229463 0.35311359
0.59665000 0.11262083 0.31071126
0.59668767 0.11233502 0.25972710
0.59711333 0.11243721 0.20007371
0.59739100 0.11239141 0.13044135
0.59851267 0.17498951 0.11318960
0.59855033 0.26489220 0.11290379
0.59935200 0.36561268 0.11338198
0.66489100 0.52901712 0.11454590
0.71933470 0.73049800 0.11580000
0.58753690 0.79625300 0.11724902
0.40572438 0.86176400 0.12024367
0.17989391 0.92719900 0.12856330
0.14537989 0.99371000 0.36978255
0.66138800 0.01480694 0.27568503
0.66230367 0.06480714 0.23714346
0.66181933 0.11346695 0.20573046
0.66280700 0.11412452 0.13417810
0.66277867 0.17702272 0.11376609
0.66339833 0.27222463 0.11405566
0.66422600 0.37933468 0.11455323
0.66470967 0.49749110 0.11470680
0.66425733 0.62539475 0.11392437
0.56614844 0.66524500 0.11458194
0.42038895 0.66562467 0.11464887
0.28417727 0.73151367 0.11756380
0.12405386 0.79645867 0.14502700
0.13792952 0.86230767 0.38855102
0.15895626 0.92862867 0.67235202
0.18449969 0.99435767 0.98544579
0.72725100 0.01604155 0.07587372
0.72749267 0.11069161 0.06536298
0.72791033 0.25711021 0.11491459
0.72828800 0.36693814 0.11495674
0.72925767 0.49041802 0.11559090
0.72917933 0.62557857 0.11517705
0.68666969 0.73026100 0.11592320
0.52890299 0.73044667 0.11577335
0.36191256 0.73059233 0.11559655
0.18880638 0.73079400 0.11674767
0.12187779 0.73121967 0.22783209
0.13145944 0.73162933 0.41317839
0.14897528 0.79737233 0.64876921
0.17152383 0.80953629 0.86329933
0.19635667 0.64774109 0.92913833
0.21992150 0.46427492 0.99457733
0.79387000 0.25627609 0.01803216
0.79411367 0.43280498 0.06735161
0.79472933 0.59966547 0.11709273
0.79439700 0.75197675 0.11642036
0.67185672 0.79530867 0.11699200
0.49401420 0.79526433 0.11660764
0.30703957 0.79628800 0.11730040
0.11852970 0.79654767 0.12457189
0.12430224 0.79727533 0.32987521
0.13455966 0.79755100 0.53663247
0.14916840 0.79813467 0.73838185
0.16527199 0.66785056 0.79819433
0.18126127 0.49201541 0.79865000
0.20241381 0.34725293 0.86399500
0.26335177 0.22153324 0.93029600
0.48263589 0.23468168 0.99524900
0.85976500 0.67429303 0.01929877
0.84516001 0.85989467 0.06850085
0.65974261 0.86078033 0.11850478
