mpv/oil_slick_cold.cube
TITLE "Oil Slick Iridescent - Cold"
LUT_3D_SIZE 6
DOMAIN_MIN 0.0 0.0 0.0
DOMAIN_MAX 1.0 1.0 1.0
0.000000 0.000000 0.000000
0.098598 0.163111 0.197196
0.000000 0.134731 0.394392
0.000000 0.050140 0.591588
0.087356 0.000000 0.788784
0.254712 0.000000 0.985980
0.000000 0.003813 0.198348
0.014648 0.000000 0.199544
0.074504 0.000000 0.396740
0.183500 0.000000 0.593936
0.334757 0.000000 0.791132
0.549817 0.000000 0.988328
0.171081 0.000000 0.396696
0.198270 0.000000 0.397892
0.216814 0.000000 0.399088
0.374577 0.000000 0.596284
0.621710 0.000000 0.793480
0.000000 0.978870 0.990676
0.419536 0.000000 0.595044
0.470386 0.000000 0.596240
0.546372 0.000000 0.597436
0.000000 0.537710 0.598632
0.000000 0.509355 0.795828
0.000000 0.322660 0.993024
0.000000 0.777630 0.793392
0.000000 0.622418 0.794588
0.000000 0.419428 0.795784
0.000000 0.182975 0.796980
0.062366 0.000000 0.798176
0.368566 0.000000 0.995372
0.000000 0.451899 0.991740
0.000000 0.149814 0.992936
0.164438 0.000000 0.994132
0.456836 0.000000 0.995328
0.700201 0.000000 0.996524
0.882626 0.000000 0.997720
0.098228 0.117902 0.196456
0.128757 0.098826 0.197652
0.268251 0.000000 0.394848
0.556635 0.000000 0.592044
0.000000 0.686039 0.789240
0.000000 0.714882 0.986436
0.050368 0.000000 0.198804
0.160000 0.160431 0.200000
0.073313 0.008937 0.397196
0.180047 0.000000 0.594392
0.341994 0.000000 0.791588
0.580573 0.000000 0.988784
0.228929 0.000000 0.397152
0.254751 0.008963 0.398348
0.240792 0.008990 0.399544
0.396175 0.000000 0.596740
0.667703 0.000000 0.793936
0.000000 0.896223 0.991132
0.482676 0.000000 0.595500
0.541329 0.000000 0.596696
0.000000 0.580774 0.597892
0.000000 0.473416 0.599088
0.000000 0.420022 0.796284
0.000000 0.206294 0.993480
0.000000 0.678766 0.793848
0.000000 0.504466 0.795044
0.000000 0.297312 0.796240
0.000000 0.065250 0.797436
0.165123 0.000000 0.798632
0.471731 0.000000 0.995828
0.000000 0.294652 0.992196
0.016137 0.000000 0.993392
0.317697 0.000000 0.994588
0.585677 0.000000 0.995784
0.797938 0.000000 0.996980
0.949686 0.000000 0.998176
0.196456 0.209920 0.392912
0.133144 0.000000 0.394108
0.273716 0.000000 0.395304
0.567294 0.000000 0.592500
0.000000 0.675941 0.789696
0.000000 0.700451 0.986892
0.171455 0.000000 0.395260
0.291354 0.008920 0.396456
0.008947 0.375999 0.397652
0.000000 0.434877 0.594848
0.000000 0.449940 0.792044
0.000000 0.377490 0.989240
0.284517 0.000000 0.397608
0.338777 0.008973 0.398804
0.352248 0.308000 0.400000
0.445713 0.162238 0.597196
0.701148 0.017874 0.794392
0.000000 0.822162 0.991588
0.548009 0.000000 0.595956
0.000000 0.559674 0.597152
0.162551 0.508831 0.598348
0.162876 0.457284 0.599544
0.017927 0.348484 0.796740
0.000000 0.101485 0.993936
0.000000 0.572506 0.794304
0.000000 0.368897 0.795500
0.017926 0.163905 0.796696
0.079854 0.017953 0.797892
0.275822 0.017979 0.799088
0.569716 0.019926 0.996284
0.000000 0.132602 0.992652
0.190262 0.000000 0.993848
0.482566 0.000000 0.995044
0.722898 0.019925 0.996240
0.894336 0.019949 0.997436
0.019973 0.985677 0.998632
0.312185 0.294684 0.589368
0.248391 0.000000 0.590564
0.428448 0.000000 0.591760
0.573322 0.000000 0.592956
0.000000 0.669039 0.790152
0.000000 0.685045 0.987348
0.325158 0.000000 0.591716
0.471029 0.000000 0.592912
0.000000 0.580073 0.594108
0.000000 0.455568 0.595304
0.000000 0.446676 0.792500
0.000000 0.339211 0.989696
0.488660 0.000000 0.594064
0.582259 0.000000 0.595260
0.162037 0.505965 0.596456
0.162362 0.351343 0.597652
0.017884 0.094709 0.794848
0.235936 0.000000 0.992044
0.000000 0.575061 0.596412
0.000000 0.463279 0.597608
0.162675 0.391857 0.598804
0.462000 0.561062 0.600000
0.315889 0.496071 0.797196
0.171035 0.193171 0.994392
0.000000 0.458894 0.794760
0.000000 0.227609 0.795956
0.040508 0.017936 0.797152
0.457893 0.316345 0.798348
0.532441 0.316819 0.799544
0.730909 0.279087 0.996740
0.032477 0.000000 0.993108
0.362351 0.000000 0.994304
0.654798 0.000000 0.995500
0.903866 0.279075 0.996696
0.993565 0.279410 0.997892
0.279745 0.950510 0.999088
0.464340 0.392912 0.785824
0.400315 0.000000 0.787020
0.610371 0.000000 0.788216
0.776435 0.000000 0.789412
0.000000 0.663872 0.790608
0.000000 0.666759 0.987804
0.506274 0.000000 0.788172
0.673575 0.000000 0.789368
0.000000 0.755265 0.790564
0.000000 0.608863 0.791760
0.000000 0.437867 0.792956
0.000000 0.291890 0.990152
0.710871 0.000000 0.790520
0.000000 0.744739 0.791716
0.017841 0.580149 0.792912
0.017867 0.350652 0.794108
0.017894 0.072476 0.795304
0.308707 0.000000 0.992500
0.000000 0.679558 0.792868
0.000000 0.501786 0.794064
0.017893 0.275283 0.795260
0.352352 0.315596 0.796456
0.601196 0.316070 0.797652
0.171114 0.980690 0.994848
0.000000 0.338307 0.795216
0.000000 0.081735 0.796412
0.209873 0.017946 0.797608
0.599617 0.316526 0.798804
0.702211 0.640000 0.800000
0.828105 0.538486 0.997196
0.198676 0.000000 0.993564
0.530561 0.000000 0.994760
0.819382 0.000000 0.995956
0.279203 0.967130 0.997152
0.539108 0.932571 0.998348
0.539754 0.945291 0.999544
0.291964 0.000000 0.982280
0.583352 0.000000 0.983476
0.814729 0.000000 0.984672
0.000000 0.972302 0.985868
0.000000 0.813938 0.987064
0.000000 0.643818 0.988260
0.710044 0.000000 0.984628
0.894050 0.000000 0.985824
0.000000 0.908940 0.987020
0.000000 0.731724 0.988216
0.000000 0.513293 0.989412
0.000000 0.235445 0.990608
0.951625 0.000000 0.986976
0.000000 0.860698 0.988172
0.000000 0.644354 0.989368
0.000000 0.355214 0.990564
0.000000 0.006232 0.991760
0.385037 0.000000 0.992956
0.000000 0.750612 0.989324
0.000000 0.502377 0.990520
0.000000 0.183072 0.991716
0.342119 0.170781 0.992912
0.698901 0.170987 0.994108
0.171192 0.950603 0.995304
0.000000 0.271776 0.991672
0.070185 0.000000 0.992868
0.431852 0.000000 0.994064
0.823181 0.171185 0.995260
0.538086 0.924618 0.996456
0.538732 0.748910 0.997652
0.364036 0.000000 0.994020
0.693229 0.000000 0.995216
0.975887 0.019928 0.996412
0.279330 0.852487 0.997608
0.539354 0.830058 0.998804
0.800000 1.000000 1.000000
