mpv/portable_config/luts/oil_slick_m.cube
TITLE "Oil Slick Iridescent Effect - Natural"
LUT_3D_SIZE 6
DOMAIN_MIN 0.0 0.0 0.0
DOMAIN_MAX 1.0 1.0 1.0
0.000000 0.000000 0.000000
0.193435 0.197196 0.098598
0.009020 0.394392 0.000000
0.000000 0.591588 0.442794
0.000000 0.524085 0.788784
0.000000 0.218119 0.985980
0.000000 0.198348 0.187493
0.000000 0.154957 0.199544
0.000000 0.171814 0.396740
0.000000 0.041100 0.593936
0.216519 0.000000 0.791132
0.665741 0.000000 0.988328
0.118251 0.000000 0.396696
0.198707 0.000000 0.397892
0.253202 0.000000 0.399088
0.530363 0.000000 0.596284
0.793480 0.000000 0.511061
0.990676 0.035453 0.000000
0.595044 0.000000 0.523476
0.596240 0.000000 0.374359
0.597436 0.000000 0.149757
0.598632 0.182950 0.000000
0.731377 0.795828 0.000000
0.000000 0.993024 0.027057
0.793392 0.047333 0.000000
0.794588 0.517028 0.000000
0.461371 0.795784 0.000000
0.000000 0.796980 0.249900
0.000000 0.608493 0.798176
0.114423 0.000000 0.995372
0.362334 0.991740 0.000000
0.000000 0.992936 0.546027
0.000000 0.497340 0.994132
0.379541 0.000000 0.995328
0.996524 0.000000 0.883872
0.997720 0.000000 0.339634
0.098228 0.196456 0.137671
0.098826 0.107471 0.197652
0.394848 0.000000 0.377800
0.592044 0.000000 0.102779
0.789240 0.309913 0.000000
0.986436 0.815478 0.000000
0.000000 0.046952 0.198804
0.160000 0.200000 0.198825
0.008937 0.202707 0.397196
0.000000 0.051924 0.594392
0.237798 0.000000 0.791588
0.757647 0.000000 0.988784
0.291515 0.000000 0.397152
0.358850 0.008963 0.398348
0.315710 0.008990 0.399544
0.594768 0.000000 0.596740
0.793936 0.000000 0.374309
0.991132 0.285013 0.000000
0.595500 0.000000 0.335233
0.596696 0.000000 0.162682
0.597892 0.051405 0.000000
0.599088 0.377395 0.000000
0.462653 0.796284 0.000000
0.000000 0.993480 0.376962
0.793848 0.345593 0.000000
0.717481 0.795044 0.000000
0.094198 0.796240 0.000000
0.000000 0.797436 0.603885
0.000000 0.300370 0.798632
0.423774 0.000000 0.995828
0.000000 0.992196 0.110334
0.000000 0.941949 0.993392
0.000000 0.037557 0.994588
0.765997 0.000000 0.995784
0.996980 0.000000 0.591736
0.998176 0.000000 0.139620
0.196456 0.392912 0.353070
0.006906 0.000000 0.394108
0.395304 0.000000 0.362754
0.592500 0.000000 0.072136
0.789696 0.341606 0.000000
0.986892 0.860183 0.000000
0.120808 0.000000 0.395260
0.396456 0.008920 0.322214
0.397652 0.073971 0.008947
0.594848 0.480394 0.000000
0.556748 0.792044 0.000000
0.141392 0.989240 0.000000
0.397608 0.000000 0.337224
0.398804 0.008973 0.186893
0.349154 0.308000 0.400000
0.579864 0.162238 0.597196
0.794392 0.017874 0.293221
0.991588 0.508787 0.000000
0.595956 0.000000 0.140406
0.597152 0.112547 0.000000
0.598348 0.431372 0.162551
0.599544 0.590083 0.162876
0.229440 0.796740 0.017927
0.000000 0.993936 0.692162
0.794304 0.666061 0.000000
0.309908 0.795500 0.000000
0.017926 0.796696 0.360659
0.017953 0.609661 0.797892
0.017979 0.022441 0.799088
0.697523 0.019926 0.996284
0.000000 0.992652 0.597428
0.000000 0.419507 0.993848
0.457093 0.000000 0.995044
0.996240 0.019925 0.834907
0.997436 0.019949 0.323687
0.998632 0.058878 0.019973
0.294684 0.535926 0.589368
0.157129 0.000000 0.590564
0.591760 0.000000 0.486873
0.592956 0.000000 0.055400
0.790152 0.363704 0.000000
0.987348 0.907817 0.000000
0.386511 0.000000 0.591716
0.592912 0.000000 0.362454
0.594108 0.042147 0.000000
0.595304 0.419627 0.000000
0.546490 0.792500 0.000000
0.025983 0.989696 0.000000
0.594064 0.000000 0.312962
0.595260 0.000000 0.035468
0.596456 0.433781 0.162037
0.293276 0.597652 0.162362
0.017884 0.794848 0.566477
0.000000 0.280548 0.992044
0.596412 0.064116 0.000000
0.597608 0.403390 0.000000
0.413470 0.598804 0.162675
0.600000 0.578931 0.462000
0.374225 0.797196 0.315889
0.171035 0.994392 0.930391
0.580914 0.794760 0.000000
0.000000 0.795956 0.114836
0.017936 0.727029 0.797152
0.316345 0.371832 0.798348
0.483057 0.316819 0.799544
0.920412 0.279087 0.996740
0.000000 0.892597 0.993108
0.096824 0.000000 0.994304
0.973849 0.000000 0.995500
0.996696 0.279075 0.553534
0.997892 0.279410 0.288087
0.999088 0.425625 0.279745
0.392912 0.570145 0.785824
0.417492 0.000000 0.787020
0.788216 0.000000 0.529334
0.789412 0.000000 0.034230
0.790608 0.380587 0.000000
0.987804 0.964099 0.000000
0.734536 0.000000 0.788172
0.789368 0.000000 0.342985
0.790564 0.106002 0.000000
0.791760 0.549241 0.000000
0.519578 0.792956 0.000000
0.000000 0.990152 0.116579
0.790520 0.000000 0.234440
0.791716 0.141072 0.000000
0.792912 0.656769 0.017841
0.238648 0.794108 0.017867
0.017894 0.795304 0.633728
0.000000 0.062471 0.992500
0.792868 0.340270 0.000000
0.710418 0.794064 0.000000
0.017893 0.795260 0.024652
0.315596 0.684634 0.796456
0.692167 0.316070 0.797652
0.994848 0.213629 0.171114
0.218333 0.795216 0.000000
0.000000 0.796412 0.553352
0.017946 0.218909 0.797608
0.685818 0.316526 0.798804
0.667301 0.640000 0.800000
0.950880 0.538486 0.997196
0.000000 0.393957 0.993564
0.601504 0.000000 0.994760
0.995956 0.000000 0.524271
0.997152 0.369360 0.279203
0.998348 0.736637 0.539108
0.999544 0.702676 0.539754
0.000000 0.102560 0.982280
0.771286 0.000000 0.983476
0.984672 0.000000 0.504426
0.985868 0.040740 0.000000
0.987064 0.519898 0.000000
0.942160 0.988260 0.000000
0.984628 0.000000 0.818664
0.985824 0.000000 0.269676
0.987020 0.234475 0.000000
0.988216 0.770246 0.000000
0.549038 0.989412 0.000000
0.000000 0.990608 0.286542
0.986976 0.000000 0.100230
0.988172 0.382804 0.000000
0.942657 0.989368 0.000000
0.073169 0.990564 0.000000
0.000000 0.991760 0.976024
0.166293 0.000000 0.992956
0.989324 0.716851 0.000000
0.515146 0.990520 0.000000
0.000000 0.991716 0.444930
0.170781 0.475913 0.992912
0.935666 0.170987 0.994108
0.995304 0.305431 0.171192
0.000000 0.991672 0.178504
0.000000 0.779121 0.992868
0.305774 0.000000 0.994064
0.995260 0.171185 0.682989
0.996456 0.753816 0.538086
0.709600 0.997652 0.538732
0.102165 0.000000 0.994020
0.995216 0.000000 0.900891
0.996412 0.019928 0.075701
0.997608 0.715130 0.279330
0.951508 0.998804 0.539354
1.000000 0.800000 0.800000
