mpv/portable_config/luts/oil_slick_m.cube
TITLE "Oil Slick Iridescent Effect - Natural"
LUT_3D_SIZE 16
DOMAIN_MIN 0.0 0.0 0.0
DOMAIN_MAX 1.0 1.0 1.0
0.000000 0.000000 0.000000
0.065732 0.044410 0.032866
0.131464 0.111651 0.065732
0.193435 0.197196 0.098598
0.214756 0.262928 0.131464
0.216866 0.328660 0.164330
0.009020 0.394392 0.000000
0.000000 0.460124 0.117280
0.000000 0.525856 0.269353
0.000000 0.591588 0.442794
0.000000 0.657320 0.633517
0.000000 0.608109 0.723052
0.000000 0.524085 0.788784
0.000000 0.430832 0.854516
0.000000 0.329020 0.920248
0.000000 0.218119 0.985980
0.043441 0.066116 0.033058
0.049027 0.066515 0.033257
0.092269 0.132247 0.066123
0.115253 0.197979 0.098989
0.000000 0.263711 0.024139
0.000000 0.329443 0.113666
0.000000 0.395175 0.231753
0.000000 0.460907 0.374070
0.000000 0.516774 0.526639
0.000000 0.469344 0.592371
0.000000 0.408427 0.658103
0.000000 0.336122 0.723835
0.000000 0.253497 0.789567
0.000000 0.160481 0.855299
0.000000 0.055813 0.921031
0.062955 0.000000 0.986763
0.066116 0.132232 0.088776
0.066315 0.132631 0.093356
0.000000 0.133029 0.060650
0.000000 0.198761 0.112989
0.000000 0.264493 0.196783
0.000000 0.330225 0.307711
0.000000 0.350298 0.395957
0.000000 0.328667 0.461689
0.000000 0.291046 0.527421
0.000000 0.239848 0.593153
0.000000 0.176535 0.658885
0.000000 0.101494 0.724617
0.000000 0.013971 0.790349
0.087947 0.000000 0.856081
0.207285 0.000000 0.921813
0.348078 0.000000 0.987545
0.000000 0.198348 0.187493
0.000000 0.187110 0.198747
0.000000 0.168972 0.199145
0.000000 0.154957 0.199544
0.000000 0.181440 0.265276
0.000000 0.185903 0.331008
0.000000 0.171814 0.396740
0.000000 0.141914 0.462472
0.000000 0.098061 0.528204
0.000000 0.041100 0.593936
0.029216 0.000000 0.659668
0.114263 0.000000 0.725400
0.216519 0.000000 0.791132
0.339479 0.000000 0.856864
0.487526 0.000000 0.922596
0.665741 0.000000 0.988328
0.000000 0.138668 0.264464
0.000000 0.108582 0.264863
0.000000 0.083983 0.265261
0.000000 0.064700 0.265660
0.000000 0.050371 0.266059
0.000000 0.042083 0.331791
0.000000 0.017908 0.397523
0.020821 0.000000 0.463255
0.073837 0.000000 0.528987
0.141972 0.000000 0.594719
0.227151 0.000000 0.660451
0.332327 0.000000 0.726183
0.461365 0.000000 0.791915
0.618877 0.000000 0.857647
0.810010 0.000000 0.923379
0.989111 0.000000 0.938016
0.000000 0.024553 0.330580
0.008114 0.000000 0.330979
0.034594 0.000000 0.331377
0.055556 0.000000 0.331776
0.071872 0.000000 0.332175
0.084580 0.000000 0.332573
0.120104 0.000000 0.398305
0.171224 0.000000 0.464037
0.239291 0.000000 0.529769
0.326704 0.000000 0.595501
0.436802 0.000000 0.661233
0.573718 0.000000 0.726965
0.742185 0.000000 0.792697
0.858429 0.000000 0.769554
0.924161 0.000000 0.654026
0.989893 0.000000 0.491557
0.118251 0.000000 0.396696
0.150256 0.000000 0.397095
0.176661 0.000000 0.397493
0.198707 0.000000 0.397892
0.217794 0.000000 0.398291
0.235436 0.000000 0.398689
0.253202 0.000000 0.399088
0.322794 0.000000 0.464820
0.413969 0.000000 0.530552
0.530363 0.000000 0.596284
0.662016 0.000000 0.647753
0.727748 0.000000 0.599025
0.793480 0.000000 0.511061
0.859212 0.000000 0.378956
0.924944 0.000000 0.198121
0.990676 0.035453 0.000000
0.280384 0.000000 0.462812
0.311759 0.000000 0.463211
0.339630 0.000000 0.463609
0.365755 0.000000 0.464008
0.391962 0.000000 0.464407
0.420082 0.000000 0.464805
0.451889 0.000000 0.465204
0.465603 0.000000 0.442172
0.531335 0.000000 0.450217
0.597067 0.000000 0.426310
0.662799 0.000000 0.365769
0.728531 0.000000 0.263864
0.794263 0.000000 0.116076
0.859995 0.081642 0.000000
0.925727 0.332623 0.000000
0.991459 0.639280 0.000000
0.460543 0.000000 0.528928
0.495124 0.000000 0.529327
0.529722 0.000000 0.529725
0.530124 0.000000 0.493821
0.530523 0.000000 0.453780
0.530921 0.000000 0.407720
0.531320 0.000000 0.353957
0.531719 0.000000 0.291072
0.532117 0.000000 0.217960
0.597849 0.000000 0.146141
0.663581 0.000000 0.031260
0.729313 0.130752 0.000000
0.795045 0.343356 0.000000
0.860777 0.609194 0.000000
0.923122 0.926509 0.000000
0.678536 0.992241 0.000000
0.595044 0.000000 0.523476
0.595443 0.000000 0.479038
0.595841 0.000000 0.430041
0.596240 0.000000 0.374359
0.596639 0.000000 0.310095
0.597037 0.000000 0.235645
0.597436 0.000000 0.149757
0.597835 0.000000 0.051574
0.598233 0.059332 0.000000
0.598632 0.182950 0.000000
0.664364 0.357287 0.000000
0.730096 0.582417 0.000000
0.731377 0.795828 0.000000
0.531373 0.861560 0.000000
0.278058 0.927292 0.000000
0.000000 0.993024 0.027057
0.661160 0.000000 0.407202
0.661559 0.000000 0.341981
0.661957 0.000000 0.267313
0.662356 0.000000 0.181408
0.662755 0.000000 0.082864
0.663153 0.029283 0.000000
0.663552 0.155525 0.000000
0.663951 0.295863 0.000000
0.664349 0.449808 0.000000
0.664748 0.616394 0.000000
0.536076 0.665147 0.000000
0.380608 0.730879 0.000000
0.173132 0.796611 0.000000
0.000000 0.862343 0.085339
0.000000 0.928075 0.392622
0.000000 0.993807 0.745413
0.727276 0.000000 0.225533
0.727675 0.000000 0.128276
0.728073 0.000000 0.017189
0.728472 0.108804 0.000000
0.728871 0.250259 0.000000
0.729269 0.407196 0.000000
0.729668 0.579094 0.000000
0.695224 0.730067 0.000000
0.497817 0.730465 0.000000
0.289981 0.730864 0.000000
0.074042 0.731263 0.000000
0.000000 0.731661 0.147393
0.000000 0.797393 0.407704
0.000000 0.863125 0.713765
0.000000 0.795918 0.928857
0.000000 0.542033 0.994589
0.793392 0.047333 0.000000
0.793791 0.187057 0.000000
0.794189 0.343609 0.000000
0.794588 0.517028 0.000000
0.794987 0.706766 0.000000
0.679066 0.795385 0.000000
0.461371 0.795784 0.000000
0.232246 0.796183 0.000000
0.000000 0.796581 0.005788
0.000000 0.796980 0.249900
0.000000 0.797379 0.497046
0.000000 0.797777 0.744080
0.000000 0.608493 0.798176
0.000000 0.399436 0.863908
0.000000 0.156672 0.929640
0.114423 0.000000 0.995372
0.859508 0.435626 0.000000
0.859907 0.625414 0.000000
0.860305 0.832884 0.000000
0.664563 0.860704 0.000000
0.426673 0.861103 0.000000
0.176337 0.861501 0.000000
0.000000 0.861900 0.083730
0.000000 0.862299 0.350473
0.000000 0.862697 0.620606
0.000000 0.835468 0.863096
0.000000 0.569560 0.863495
0.000000 0.310345 0.863893
0.000000 0.060862 0.864292
0.176196 0.000000 0.864691
0.431232 0.000000 0.930423
0.706029 0.000000 0.996155
0.893757 0.925624 0.000000
0.651670 0.926023 0.000000
0.393673 0.926421 0.000000
0.122201 0.926820 0.000000
0.000000 0.927219 0.159838
0.000000 0.927617 0.449169
0.000000 0.928016 0.742263
0.000000 0.821369 0.928415
0.000000 0.532525 0.928813
0.000000 0.250769 0.929212
0.020618 0.000000 0.929611
0.278723 0.000000 0.930009
0.521107 0.000000 0.930408
0.745883 0.000000 0.930807
0.931205 0.000000 0.910617
0.996937 0.000000 0.773431
0.362334 0.991740 0.000000
0.069802 0.992139 0.000000
0.000000 0.992537 0.234150
0.000000 0.992936 0.546027
0.000000 0.993335 0.862059
0.000000 0.809135 0.993733
0.000000 0.497340 0.994132
0.000000 0.193013 0.994531
0.100325 0.000000 0.994929
0.379541 0.000000 0.995328
0.642002 0.000000 0.995727
0.885672 0.000000 0.996125
0.996524 0.000000 0.883872
0.996923 0.000000 0.681989
0.997321 0.000000 0.500848
0.997720 0.000000 0.339634
0.032743 0.065485 0.037135
0.032942 0.065884 0.065369
0.065808 0.093503 0.131616
0.098674 0.098856 0.197348
0.179283 0.131540 0.263080
0.228724 0.000000 0.328812
0.394544 0.000000 0.393741
0.460276 0.000000 0.329543
0.526008 0.000000 0.240756
0.591740 0.000000 0.131685
0.657472 0.000000 0.006240
0.723204 0.132300 0.000000
0.788936 0.281491 0.000000
0.854668 0.439902 0.000000
0.920400 0.607237 0.000000
0.986132 0.784414 0.000000
0.033134 0.066268 0.043625
0.066667 0.066667 0.066667
0.116633 0.132399 0.099299
0.042679 0.198131 0.000000
0.000000 0.263863 0.019803
0.000000 0.329595 0.114003
0.000000 0.395327 0.235614
0.000000 0.461059 0.380370
0.000000 0.509284 0.526791
0.000000 0.461097 0.592523
0.000000 0.399892 0.658255
0.000000 0.327449 0.723987
0.000000 0.244486 0.789719
0.000000 0.150567 0.855451
0.000000 0.044065 0.921183
0.077808 0.000000 0.986915
0.066192 0.132384 0.113498
0.019917 0.132783 0.107225
0.019977 0.133181 0.083904
0.000000 0.198913 0.116620
0.000000 0.264645 0.199499
0.000000 0.330377 0.311195
0.000000 0.346228 0.396109
0.000000 0.323967 0.461841
0.000000 0.285978 0.527573
0.000000 0.234507 0.593305
0.000000 0.170755 0.659037
0.000000 0.094802 0.724769
0.000000 0.005570 0.790501
0.099174 0.000000 0.856233
0.222745 0.000000 0.921965
0.369421 0.000000 0.987697
0.000000 0.154633 0.198500
0.000000 0.133927 0.198899
0.000000 0.133865 0.199297
0.000000 0.138018 0.199696
0.000000 0.172016 0.265428
0.000000 0.179301 0.331160
0.000000 0.166497 0.396892
0.000000 0.137202 0.462624
0.000000 0.093453 0.528356
0.000000 0.036005 0.594088
0.035593 0.000000 0.659820
0.122969 0.000000 0.725552
0.228850 0.000000 0.791284
0.356961 0.000000 0.857016
0.511858 0.000000 0.922748
0.698735 0.000000 0.988480
0.000000 0.080859 0.264616
0.000000 0.052804 0.265015
0.000000 0.041252 0.265413
0.000000 0.034934 0.265812
0.000000 0.033418 0.266211
0.000000 0.031118 0.331943
0.000000 0.009871 0.397675
0.027611 0.000000 0.463407
0.080667 0.000000 0.529139
0.150091 0.000000 0.594871
0.237915 0.000000 0.660603
0.347239 0.000000 0.726335
0.482067 0.000000 0.792067
0.647109 0.000000 0.857799
0.847546 0.000000 0.923531
0.989263 0.000000 0.889744
0.034349 0.000000 0.330732
0.064646 0.000000 0.331131
0.080699 0.000000 0.331529
0.091524 0.000000 0.331928
0.098060 0.000000 0.332327
0.101403 0.000000 0.332725
0.132882 0.000000 0.398457
0.182645 0.000000 0.464189
0.251384 0.000000 0.529921
0.341292 0.000000 0.595653
0.455670 0.000000 0.661385
0.598663 0.000000 0.727117
0.774998 0.000000 0.792849
0.858581 0.000000 0.727435
0.924313 0.000000 0.600670
0.990045 0.000000 0.425527
0.176864 0.000000 0.396848
0.206646 0.000000 0.397247
0.224652 0.000000 0.397645
0.238802 0.000000 0.398044
0.250548 0.000000 0.398443
0.261428 0.000000 0.398841
0.273024 0.000000 0.399240
0.341545 0.000000 0.464972
0.434321 0.000000 0.530704
0.554575 0.000000 0.596436
0.662168 0.000000 0.617937
0.727900 0.000000 0.561405
0.793632 0.000000 0.463900
0.859364 0.000000 0.320718
0.925096 0.000000 0.127528
0.990828 0.119363 0.000000
0.338544 0.000000 0.462964
0.368422 0.000000 0.463363
0.389933 0.000000 0.463761
0.410381 0.000000 0.464160
0.431602 0.000000 0.464559
0.455414 0.000000 0.464957
0.465356 0.000000 0.447162
0.465755 0.000000 0.413911
0.531487 0.000000 0.419360
0.597219 0.000000 0.390334
0.662951 0.000000 0.322550
0.728683 0.000000 0.211597
0.794415 0.000000 0.053269
0.860147 0.156145 0.000000
0.925879 0.419607 0.000000
0.991611 0.739121 0.000000
0.519534 0.000000 0.529080
0.529479 0.000000 0.505048
0.529877 0.000000 0.475386
0.530276 0.000000 0.442839
0.530675 0.000000 0.405427
0.531073 0.000000 0.361334
0.531472 0.000000 0.308969
0.531871 0.000000 0.247029
0.532269 0.000000 0.174538
0.598001 0.000000 0.096697
0.663733 0.026228 0.000000
0.729465 0.197828 0.000000
0.795197 0.421122 0.000000
0.860929 0.698310 0.000000
0.822745 0.926661 0.000000
0.566827 0.992393 0.000000
0.595196 0.000000 0.461255
0.595595 0.000000 0.415310
0.595993 0.000000 0.368112
0.596392 0.000000 0.313481
0.596791 0.000000 0.249624
0.597189 0.000000 0.175065
0.597588 0.000000 0.088698
0.597987 0.010173 0.000000
0.598385 0.121810 0.000000
0.598784 0.246031 0.000000
0.664516 0.428506 0.000000
0.730248 0.662936 0.000000
0.641237 0.795980 0.000000
0.431183 0.861712 0.000000
0.168165 0.927444 0.000000
0.000000 0.993176 0.145868
0.661312 0.000000 0.337648
0.661711 0.000000 0.269031
0.662109 0.000000 0.193921
0.662508 0.000000 0.106995
0.662907 0.000000 0.007013
0.663305 0.106812 0.000000
0.663704 0.234787 0.000000
0.664103 0.376724 0.000000
0.664501 0.531949 0.000000
0.630474 0.664900 0.000000
0.453304 0.665299 0.000000
0.289664 0.731031 0.000000
0.073879 0.796763 0.000000
0.000000 0.862495 0.192527
0.000000 0.928227 0.506924
0.000000 0.993959 0.865628
0.727428 0.000000 0.144322
0.727827 0.000000 0.041925
0.728225 0.071460 0.000000
0.728624 0.200023 0.000000
0.729023 0.344116 0.000000
0.729421 0.503551 0.000000
0.729820 0.677606 0.000000
0.595390 0.730219 0.000000
0.397061 0.730617 0.000000
0.189155 0.731016 0.000000
0.000000 0.731415 0.025886
0.000000 0.731813 0.245369
0.000000 0.797545 0.511695
0.000000 0.863277 0.823010
0.000000 0.682861 0.929009
0.000000 0.426275 0.994741
0.793544 0.144319 0.000000
0.793943 0.290439 0.000000
0.794341 0.450463 0.000000
0.794740 0.627212 0.000000
0.770362 0.795139 0.000000
0.563826 0.795537 0.000000
0.344498 0.795936 0.000000
0.114661 0.796335 0.000000
0.000000 0.796733 0.123034
0.000000 0.797132 0.365663
0.000000 0.797531 0.610130
0.000000 0.742583 0.797929
0.000000 0.504663 0.798328
0.000000 0.293274 0.864060
0.000000 0.049424 0.929792
0.221359 0.000000 0.995524
0.859660 0.551521 0.000000
0.860059 0.748173 0.000000
0.761548 0.860457 0.000000
0.535271 0.860856 0.000000
0.295082 0.861255 0.000000
0.043440 0.861653 0.000000
0.000000 0.862052 0.216801
0.000000 0.862451 0.482483
0.000000 0.862849 0.750262
0.000000 0.709774 0.863248
0.000000 0.448799 0.863647
0.000000 0.195712 0.864045
0.046567 0.000000 0.864444
0.275503 0.000000 0.864843
0.528939 0.000000 0.930575
0.800989 0.000000 0.996307
0.757796 0.925776 0.000000
0.509370 0.926175 0.000000
0.248446 0.926573 0.000000
0.000000 0.926972 0.024892
0.000000 0.927371 0.307583
0.000000 0.927769 0.596243
0.000000 0.928168 0.887276
0.000000 0.680124 0.928567
0.000000 0.396116 0.928965
0.000000 0.120486 0.929364
0.143614 0.000000 0.929763
0.393439 0.000000 0.930161
0.626751 0.000000 0.930560
0.841898 0.000000 0.930959
0.931357 0.000000 0.824846
0.997089 0.000000 0.691956
0.206685 0.991892 0.000000
0.000000 0.992291 0.090609
0.000000 0.992689 0.395667
0.000000 0.993088 0.707237
0.000000 0.965497 0.993487
0.000000 0.653318 0.993885
0.000000 0.346287 0.994284
0.000000 0.048108 0.994683
0.237834 0.000000 0.995081
0.508583 0.000000 0.995480
0.761725 0.000000 0.995879
0.995468 0.000000 0.996277
0.996676 0.000000 0.784646
0.997075 0.000000 0.593087
0.997473 0.000000 0.422047
0.997872 0.000000 0.270436
0.065485 0.130971 0.083039
0.065685 0.131369 0.122611
0.065884 0.101567 0.131768
0.098750 0.103062 0.197500
0.178632 0.131616 0.263232
0.233007 0.000000 0.328964
0.394696 0.000000 0.385193
0.460428 0.000000 0.317625
0.526160 0.000000 0.226620
0.591892 0.000000 0.116356
0.657624 0.009452 0.000000
0.723356 0.147786 0.000000
0.789088 0.296521 0.000000
0.854820 0.454580 0.000000
0.920552 0.622045 0.000000
0.986284 0.800216 0.000000
0.065877 0.131753 0.111726
0.099114 0.122977 0.132152
0.102588 0.099413 0.132551
0.128398 0.000000 0.198283
0.264015 0.000000 0.260309
0.329747 0.000000 0.224647
0.395479 0.000000 0.163810
0.461211 0.000000 0.081423
0.526943 0.018938 0.000000
0.592675 0.134168 0.000000
0.658407 0.261912 0.000000
0.724139 0.400754 0.000000
0.789871 0.550357 0.000000
0.855603 0.711537 0.000000
0.921335 0.886288 0.000000
0.896398 0.987067 0.000000
0.066268 0.126944 0.132536
0.019940 0.089232 0.132935
0.106667 0.133333 0.111217
0.072991 0.199065 0.127760
0.039720 0.264797 0.192156
0.006611 0.330529 0.297823
0.000000 0.356502 0.396261
0.000000 0.331473 0.461993
0.000000 0.291529 0.527725
0.000000 0.238498 0.593457
0.000000 0.173185 0.659189
0.000000 0.095284 0.724921
0.000000 0.003345 0.790653
0.105205 0.000000 0.856385
0.233976 0.000000 0.922117
0.387486 0.000000 0.987849
0.000000 0.100543 0.198652
0.000000 0.064675 0.199051
0.073131 0.114980 0.199449
0.073278 0.150329 0.199848
0.005976 0.176463 0.265580
0.000000 0.184608 0.331312
0.000000 0.172009 0.397044
0.000000 0.142163 0.462776
0.000000 0.097429 0.528508
0.000000 0.038474 0.594240
0.035385 0.000000 0.659972
0.126043 0.000000 0.725704
0.236489 0.000000 0.791436
0.370669 0.000000 0.857168
0.533306 0.000000 0.922900
0.729687 0.000000 0.988632
0.000000 0.023798 0.264768
0.013282 0.000000 0.265167
0.028351 0.005975 0.265565
0.011112 0.005984 0.265964
0.005993 0.022667 0.266363
0.000000 0.026300 0.332095
0.000000 0.009011 0.397827
0.027390 0.000000 0.463559
0.081050 0.000000 0.529291
0.152488 0.000000 0.595023
0.243747 0.000000 0.660755
0.358036 0.000000 0.726487
0.499470 0.000000 0.792219
0.672829 0.000000 0.857951
0.883309 0.000000 0.923683
0.989415 0.000000 0.842582
0.092346 0.000000 0.330884
0.128634 0.000000 0.331283
0.142663 0.000000 0.331681
0.137966 0.000000 0.332080
0.129347 0.000000 0.332479
0.117952 0.000000 0.332877
0.142227 0.000000 0.398609
0.189779 0.000000 0.464341
0.259198 0.000000 0.530073
0.351980 0.000000 0.595805
0.471190 0.000000 0.661537
0.620878 0.000000 0.727269
0.793001 0.000000 0.780293
0.858733 0.000000 0.686826
0.924465 0.000000 0.548302
0.990197 0.000000 0.360059
0.234600 0.000000 0.397000
0.268944 0.000000 0.397399
0.285372 0.000000 0.397797
0.288529 0.000000 0.398196
0.289840 0.000000 0.398595
0.290867 0.000000 0.398993
0.293188 0.000000 0.399392
0.358727 0.000000 0.465124
0.452509 0.000000 0.530856
0.576607 0.000000 0.596588
0.662320 0.000000 0.590049
0.728052 0.000000 0.525350
0.793784 0.000000 0.417923
0.859516 0.000000 0.263322
0.925248 0.000000 0.057513
0.990980 0.202852 0.000000
0.396073 0.000000 0.463116
0.430218 0.000000 0.463515
0.451155 0.000000 0.463913
0.463988 0.000000 0.464312
0.464711 0.000000 0.451142
0.465109 0.000000 0.434396
0.465508 0.000000 0.412713
0.465907 0.000000 0.384575
0.531639 0.000000 0.388679
0.597371 0.000000 0.354996
0.663103 0.000000 0.280067
0.728835 0.000000 0.160010
0.794567 0.008951 0.000000
0.860299 0.230122 0.000000
0.926031 0.506048 0.000000
0.991763 0.838302 0.000000
0.529232 0.000000 0.480098
0.529631 0.000000 0.441694
0.530029 0.000000 0.411133
0.530428 0.000000 0.383233
0.530827 0.000000 0.349762
0.531225 0.000000 0.308982
0.531624 0.000000 0.259407
0.532023 0.000000 0.199853
0.532421 0.000000 0.129482
0.598153 0.000000 0.046574
0.663885 0.083905 0.000000
0.729617 0.264809 0.000000
0.795349 0.498575 0.000000
0.861081 0.786883 0.000000
0.723199 0.926813 0.000000
0.456320 0.992545 0.000000
0.595348 0.000000 0.398549
0.595747 0.000000 0.346635
0.596145 0.000000 0.296798
0.596544 0.000000 0.244137
0.596943 0.000000 0.181654
0.597341 0.000000 0.108008
0.597740 0.000000 0.022246
0.598139 0.076166 0.000000
0.598537 0.187319 0.000000
0.598936 0.310863 0.000000
0.664668 0.500569 0.000000
0.717135 0.730400 0.000000
0.551412 0.796132 0.000000
0.331812 0.861864 0.000000
0.059619 0.927596 0.000000
0.000000 0.993328 0.262758
0.661464 0.000000 0.266883
0.661863 0.000000 0.190901
0.662261 0.000000 0.111429
0.662660 0.000000 0.024219
0.663059 0.076397 0.000000
0.663457 0.191025 0.000000
0.663856 0.319784 0.000000
0.664255 0.462300 0.000000
0.664653 0.617718 0.000000
0.545370 0.665052 0.000000
0.369263 0.665451 0.000000
0.198428 0.731183 0.000000
0.000000 0.796915 0.024857
0.000000 0.862647 0.298460
0.000000 0.928379 0.619258
0.000000 0.994111 0.983171
0.727580 0.000000 0.061209
0.727979 0.049837 0.000000
0.728377 0.168960 0.000000
0.728776 0.299411 0.000000
0.729175 0.445379 0.000000
0.729573 0.606472 0.000000
0.678176 0.729972 0.000000
0.490891 0.730371 0.000000
0.292685 0.730769 0.000000
0.085803 0.731168 0.000000
0.000000 0.731567 0.127207
0.000000 0.731965 0.343584
0.000000 0.797697 0.614877
0.000000 0.796326 0.863429
0.000000 0.572352 0.929161
0.000000 0.313824 0.994893
0.793696 0.243728 0.000000
0.794095 0.399312 0.000000
0.794493 0.565791 0.000000
0.794892 0.745156 0.000000
0.650550 0.795291 0.000000
0.442489 0.795689 0.000000
0.222462 0.796088 0.000000
0.000000 0.796487 0.007098
0.000000 0.796885 0.243424
0.000000 0.797284 0.483515
0.000000 0.797683 0.724237
0.000000 0.633725 0.798081
0.000000 0.401904 0.798480
0.000000 0.189201 0.864212
0.054869 0.000000 0.929944
0.324603 0.000000 0.995676
0.859812 0.670071 0.000000
0.844195 0.860211 0.000000
0.627522 0.860609 0.000000
0.398919 0.861008 0.000000
0.157292 0.861407 0.000000
0.000000 0.861805 0.094740
0.000000 0.862204 0.354193
0.000000 0.862603 0.617826
0.000000 0.843751 0.863001
0.000000 0.582742 0.863400
0.000000 0.327670 0.863799
0.000000 0.081640 0.864197
0.152561 0.000000 0.864596
0.372568 0.000000 0.864995
0.623569 0.000000 0.930727
0.892226 0.000000 0.996459
0.619322 0.925928 0.000000
0.362317 0.926327 0.000000
0.096304 0.926725 0.000000
0.000000 0.927124 0.178031
0.000000 0.927523 0.460459
0.000000 0.927921 0.747499
0.000000 0.821128 0.928320
0.000000 0.536611 0.928719
0.000000 0.258367 0.929117
0.010254 0.000000 0.929516
0.266241 0.000000 0.929915
0.507033 0.000000 0.930313
0.730607 0.000000 0.930712
0.931111 0.000000 0.926672
0.931509 0.000000 0.741912
0.997241 0.000000 0.613830
0.049071 0.992044 0.000000
0.000000 0.992443 0.254872
0.000000 0.992841 0.562875
0.000000 0.993240 0.873214
0.000000 0.802552 0.993639
0.000000 0.494598 0.994037
0.000000 0.193235 0.994436
0.097939 0.000000 0.994835
0.375690 0.000000 0.995233
0.637256 0.000000 0.995632
0.880453 0.000000 0.996031
0.996429 0.000000 0.889116
0.996828 0.000000 0.687361
0.997227 0.000000 0.506440
0.997625 0.000000 0.345708
0.998024 0.000000 0.203806
0.098228 0.196456 0.137671
0.098427 0.196855 0.188453
0.098627 0.155884 0.197253
0.098826 0.107471 0.197652
0.091945 0.000000 0.263384
0.236400 0.000000 0.329116
0.394848 0.000000 0.377800
0.460580 0.000000 0.307108
0.526312 0.000000 0.214090
0.592044 0.000000 0.102779
0.657776 0.023329 0.000000
0.723508 0.161493 0.000000
0.789240 0.309913 0.000000
0.854972 0.467875 0.000000
0.920704 0.635838 0.000000
0.986436 0.815478 0.000000
0.098619 0.197239 0.188087
0.131758 0.171236 0.197637
0.000000 0.007343 0.198036
0.100765 0.000000 0.198435
0.250982 0.000000 0.264167
0.329899 0.000000 0.234718
0.395631 0.000000 0.169124
0.461363 0.000000 0.083530
0.527095 0.018905 0.000000
0.592827 0.135440 0.000000
0.658559 0.264080 0.000000
0.724291 0.403783 0.000000
0.790023 0.554592 0.000000
0.855755 0.717703 0.000000
0.921487 0.895464 0.000000
0.883115 0.987219 0.000000
0.000000 0.125071 0.198021
0.000000 0.050145 0.198420
0.107357 0.072900 0.198819
0.199217 0.073046 0.195495
0.264949 0.039742 0.149129
0.330681 0.000000 0.062343
0.396413 0.018615 0.000000
0.462145 0.114306 0.000000
0.527877 0.223394 0.000000
0.593609 0.344833 0.000000
0.659341 0.478390 0.000000
0.725073 0.624849 0.000000
0.790805 0.786077 0.000000
0.748069 0.856537 0.000000
0.678990 0.922269 0.000000
0.583551 0.988001 0.000000
0.000000 0.046952 0.198804
0.004076 0.000000 0.199203
0.105552 0.073187 0.199601
0.160000 0.200000 0.198825
0.105296 0.239234 0.265732
0.057012 0.237824 0.331464
0.008937 0.202707 0.397196
0.000000 0.163334 0.462928
0.000000 0.114612 0.528660
0.000000 0.051924 0.594392
0.025982 0.000000 0.660124
0.121442 0.000000 0.725856
0.237798 0.000000 0.791588
0.379266 0.000000 0.857320
0.550756 0.000000 0.923052
0.757647 0.000000 0.988784
0.032514 0.000000 0.264920
0.078650 0.000000 0.265319
0.112043 0.005979 0.265717
0.159275 0.105448 0.266116
0.105606 0.106362 0.266515
0.057146 0.086859 0.332247
0.008955 0.030349 0.397979
0.015281 0.000000 0.463711
0.071316 0.000000 0.529443
0.146334 0.000000 0.595175
0.242423 0.000000 0.660907
0.362930 0.000000 0.726639
0.512104 0.000000 0.792371
0.694807 0.000000 0.858103
0.916243 0.000000 0.923835
0.989567 0.000000 0.797459
0.149465 0.000000 0.331036
0.191842 0.000000 0.331435
0.217794 0.000000 0.331833
0.232321 0.057144 0.332232
0.201384 0.057212 0.332631
0.168479 0.057281 0.333029
0.150612 0.008972 0.398761
0.189405 0.000000 0.464493
0.259998 0.000000 0.530225
0.356517 0.000000 0.595957
0.481502 0.000000 0.661689
0.638812 0.000000 0.727421
0.793153 0.000000 0.753308
0.858885 0.000000 0.648870
0.924617 0.000000 0.497933
0.990349 0.000000 0.296070
0.291515 0.000000 0.397152
0.330602 0.000000 0.397551
0.355600 0.000000 0.397949
0.358850 0.008963 0.398348
0.343679 0.008972 0.398747
0.328788 0.008981 0.399145
0.315710 0.008990 0.399544
0.372765 0.000000 0.465276
0.466724 0.000000 0.531008
0.594768 0.000000 0.596740
0.662472 0.000000 0.565595
0.728204 0.000000 0.492190
0.793936 0.000000 0.374309
0.859668 0.000000 0.207828
0.925400 0.010952 0.000000
0.991132 0.285013 0.000000
0.453064 0.000000 0.463268
0.463667 0.000000 0.435602
0.464065 0.000000 0.408039
0.464464 0.000000 0.395607
